(G-CODE GENERATED BY FLATCAM v8.98 - www.flatcam.org - Version Date: 2019/10/16)

(Name: new_geo_cnc)
(Type: G-code from Geometry)
(Units: MM)

(Created on Sunday, 29 December 2019 at 20:09)

(TOOL DIAMETER: 2.0 mm)
(Feedrate: 30.0 mm/min)
(Feedrate_Z: 30.0 mm/min)
(Feedrate rapids 30.0 mm/min)

(Z_Cut: -1.8 mm)
(DepthPerCut: 0.9 mm <=>2 passes)
(Z_Move: 2.0 mm)
(Z Toolchange: 10.0 mm)
(X,Y Toolchange: 0.0000, 0.0000 mm)
(Z Start: None mm)
(Z End: 10.0 mm)
(Steps per circle: 128)
(Postprocessor Geometry: default)

(X range:    0.0000 ...   55.0000  mm)
(Y range:  -37.0000 ...    1.0000  mm)

(Spindle Speed: 500 RPM)

G21
G90
G94

G01 F30.00
G00 Z2.0000

M03 S500
G00 X-0.0000 Y1.0000
G01 F30.00
G01 Z-0.9000
G01 F30.00
G01 X-0.0000 Y-37.0000
G01 X55.0000 Y-37.0000
G01 X55.0000 Y1.0000
G01 X-0.0000 Y1.0000
G00 X-0.0000 Y1.0000
G01 F30.00
G01 Z-1.8000
G01 F30.00
G01 X-0.0000 Y-37.0000
G01 X55.0000 Y-37.0000
G01 X55.0000 Y1.0000
G01 X-0.0000 Y1.0000
G00 Z2.0000
M05
G00 Z2.0000
G00 Z10.00
G00 X0.0 Y0.0

M02