(G-CODE GENERATED BY FLATCAM v8.98 - www.flatcam.org - Version Date: 2019/10/16)

(Name: qr-github-com.svg_ncc_cnc)
(Type: G-code from Geometry)
(Units: MM)

(Created on Wednesday, 08 January 2020 at 12:36)

(TOOL DIAMETER: 0.2 mm)
(Feedrate: 20.0 mm/min)
(Feedrate_Z: 20.0 mm/min)
(Feedrate rapids 20.0 mm/min)

(Z_Cut: -0.19 mm)
(DepthPerCut: 0.19 mm <=>1 passes)
(Z_Move: 1.0 mm)
(Z Toolchange: 10.0 mm)
(X,Y Toolchange: 0.0000, 0.0000 mm)
(Z Start: None mm)
(Z End: 10.0 mm)
(Steps per circle: 128)
(Postprocessor Geometry: default)

(X range:    0.0000 ...    0.0000  mm)
(Y range:    0.0000 ...    0.0000  mm)

(Spindle Speed: 500 RPM)

G21
G90
G94

G01 F20.00
G00 Z1.0000

M03 S500
G00 X-38.3914 Y-12.5189
G01 F20.00
G01 Z-0.1900
G01 F20.00
G01 X-38.3899 Y-12.4968
G01 X-38.3894 Y-12.4743
G01 X-38.3894 Y-11.9116
G01 X-38.3899 Y-11.8891
G01 X-38.3912 Y-11.8689
G01 X-37.7756 Y-11.8688
G01 X-37.7476 Y-11.8676
G01 X-37.7219 Y-11.8652
G01 X-37.6971 Y-11.8616
G01 X-37.6691 Y-11.8560
G01 X-37.6419 Y-11.8491
G01 X-37.6177 Y-11.8415
G01 X-37.5944 Y-11.8331
G01 X-37.5727 Y-11.8240
G01 X-37.5470 Y-11.8117
G01 X-37.5282 Y-11.8016
G01 X-37.5067 Y-11.7888
G01 X-37.4865 Y-11.7754
G01 X-37.4643 Y-11.7590
G01 X-37.4455 Y-11.7436
G01 X-37.4259 Y-11.7259
G01 X-37.4086 Y-11.7087
G01 X-37.3903 Y-11.6885
G01 X-37.3750 Y-11.6699
G01 X-37.3603 Y-11.6503
G01 X-37.3467 Y-11.6302
G01 X-37.3314 Y-11.6049
G01 X-37.3171 Y-11.5777
G01 X-37.3038 Y-11.5484
G01 X-37.2930 Y-11.5200
G01 X-37.2839 Y-11.4913
G01 X-37.2761 Y-11.4602
G01 X-37.2704 Y-11.4299
G01 X-37.2665 Y-11.3991
G01 X-37.2647 Y-11.3739
G01 X-37.2640 Y-11.3489
G01 X-37.2640 Y-10.7862
G01 X-37.2651 Y-10.7536
G01 X-37.2665 Y-10.7360
G01 X-37.2685 Y-10.7186
G01 X-37.2707 Y-10.7032
G01 X-37.2740 Y-10.6846
G01 X-37.2781 Y-10.6660
G01 X-37.2821 Y-10.6504
G01 X-37.2872 Y-10.6328
G01 X-37.2930 Y-10.6152
G01 X-37.2995 Y-10.5974
G01 X-37.3049 Y-10.5841
G01 X-37.3122 Y-10.5676
G01 X-37.3208 Y-10.5500
G01 X-37.3287 Y-10.5351
G01 X-37.3370 Y-10.5206
G01 X-37.3545 Y-10.4931
G01 X-37.3652 Y-10.4780
G01 X-37.3760 Y-10.4639
G01 X-37.3870 Y-10.4504
G01 X-37.3992 Y-10.4365
G01 X-37.4135 Y-10.4214
G01 X-37.4233 Y-10.4116
G01 X-37.4470 Y-10.3903
G01 X-37.4627 Y-10.3774
G01 X-37.4770 Y-10.3666
G01 X-37.4915 Y-10.3563
G01 X-37.5050 Y-10.3474
G01 X-37.5189 Y-10.3389
G01 X-37.5338 Y-10.3304
G01 X-37.5603 Y-10.3168
G01 X-37.5873 Y-10.3049
G01 X-37.6157 Y-10.2942
G01 X-37.6398 Y-10.2866
G01 X-37.6674 Y-10.2795
G01 X-37.6921 Y-10.2744
G01 X-37.7202 Y-10.2702
G01 X-37.7458 Y-10.2676
G01 X-37.7656 Y-10.2666
G01 X-37.7840 Y-10.2662
G01 X-38.3894 Y-10.2662
G01 X-38.3896 Y-10.2121
G01 X-38.3903 Y-10.1934
G01 X-38.3917 Y-10.1755
G01 X-37.2413 Y-10.1755
G01 X-37.2413 Y-11.9543
G01 X-37.7849 Y-11.9543
G01 X-37.8078 Y-11.9549
G01 X-37.8341 Y-11.9567
G01 X-37.8664 Y-11.9609
G01 X-37.8955 Y-11.9664
G01 X-37.9261 Y-11.9741
G01 X-37.9562 Y-11.9837
G01 X-37.9843 Y-11.9945
G01 X-38.0116 Y-12.0068
G01 X-38.0398 Y-12.0216
G01 X-38.0546 Y-12.0303
G01 X-38.0681 Y-12.0388
G01 X-38.0815 Y-12.0478
G01 X-38.0990 Y-12.0606
G01 X-38.1225 Y-12.0796
G01 X-38.1357 Y-12.0913
G01 X-38.1495 Y-12.1045
G01 X-38.1606 Y-12.1158
G01 X-38.1722 Y-12.1283
G01 X-38.1840 Y-12.1420
G01 X-38.1950 Y-12.1558
G01 X-38.2145 Y-12.1827
G01 X-38.2241 Y-12.1974
G01 X-38.2342 Y-12.2141
G01 X-38.2420 Y-12.2281
G01 X-38.2497 Y-12.2429
G01 X-38.2564 Y-12.2569
G01 X-38.2642 Y-12.2748
G01 X-38.2707 Y-12.2913
G01 X-38.2761 Y-12.3064
G01 X-38.2808 Y-12.3208
G01 X-38.2864 Y-12.3401
G01 X-38.2902 Y-12.3556
G01 X-38.2940 Y-12.3727
G01 X-38.2973 Y-12.3913
G01 X-38.2998 Y-12.4086
G01 X-38.3015 Y-12.4241
G01 X-38.3029 Y-12.4417
G01 X-38.3040 Y-12.4692
G01 X-38.3040 Y-12.5170
G01 X-38.3570 Y-12.5171
G01 X-38.3777 Y-12.5179
G01 X-38.3914 Y-12.5189
G01 X-38.9539 Y-12.9943
G01 X-38.8991 Y-12.9942
G01 X-38.8784 Y-12.9933
G01 X-38.8647 Y-12.9923
G01 X-38.8660 Y-13.0120
G01 X-38.8666 Y-13.0268
G01 X-38.8667 Y-13.0797
G01 X-38.9521 Y-13.0797
G01 X-38.9522 Y-13.0268
G01 X-38.9539 Y-12.9943
G01 X-39.1389 Y-12.8543
G01 X-38.9094 Y-12.8543
G01 X-38.8929 Y-12.8539
G01 X-38.8772 Y-12.8529
G01 X-38.8634 Y-12.8515
G01 X-38.8464 Y-12.8490
G01 X-38.8286 Y-12.8456
G01 X-38.8152 Y-12.8424
G01 X-38.7969 Y-12.8372
G01 X-38.7832 Y-12.8327
G01 X-38.7663 Y-12.8263
G01 X-38.7517 Y-12.8200
G01 X-38.7428 Y-12.8158
G01 X-38.7352 Y-12.8120
G01 X-38.7314 Y-12.8100
G01 X-38.7147 Y-12.8006
G01 X-38.6960 Y-12.7886
G01 X-38.6784 Y-12.7759
G01 X-38.6623 Y-12.7629
G01 X-38.6479 Y-12.7500
G01 X-38.6344 Y-12.7365
G01 X-38.6219 Y-12.7227
G01 X-38.6087 Y-12.7066
G01 X-38.6039 Y-12.7002
G01 X-38.5999 Y-12.6948
G01 X-38.5980 Y-12.6920
G01 X-38.5848 Y-12.6718
G01 X-38.5751 Y-12.6549
G01 X-38.5656 Y-12.6362
G01 X-38.5583 Y-12.6196
G01 X-38.5508 Y-12.5998
G01 X-38.5442 Y-12.5792
G01 X-38.5383 Y-12.5558
G01 X-38.5336 Y-12.5306
G01 X-38.5308 Y-12.5068
G01 X-38.5295 Y-12.4819
G01 X-38.5294 Y-11.9116
G01 X-38.5298 Y-11.8942
G01 X-38.5313 Y-11.8740
G01 X-38.5342 Y-11.8515
G01 X-38.5383 Y-11.8300
G01 X-38.5442 Y-11.8067
G01 X-38.5508 Y-11.7860
G01 X-38.5583 Y-11.7662
G01 X-38.5656 Y-11.7497
G01 X-38.5762 Y-11.7289
G01 X-37.7784 Y-11.7288
G01 X-37.7518 Y-11.7275
G01 X-37.7301 Y-11.7250
G01 X-37.7032 Y-11.7202
G01 X-37.6797 Y-11.7143
G01 X-37.6675 Y-11.7106
G01 X-37.6500 Y-11.7045
G01 X-37.6263 Y-11.6946
G01 X-37.6004 Y-11.6816
G01 X-37.5773 Y-11.6677
G01 X-37.5673 Y-11.6610
G01 X-37.5530 Y-11.6506
G01 X-37.5341 Y-11.6351
G01 X-37.5139 Y-11.6162
G01 X-37.5032 Y-11.6049
G01 X-37.4943 Y-11.5948
G01 X-37.4785 Y-11.5749
G01 X-37.4698 Y-11.5625
G01 X-37.4620 Y-11.5507
G01 X-37.4546 Y-11.5382
G01 X-37.4470 Y-11.5245
G01 X-37.4362 Y-11.5020
G01 X-37.4303 Y-11.4877
G01 X-37.4254 Y-11.4745
G01 X-37.4211 Y-11.4616
G01 X-37.4170 Y-11.4473
G01 X-37.4109 Y-11.4209
G01 X-37.4088 Y-11.4090
G01 X-37.4067 Y-11.3936
G01 X-37.4047 Y-11.3714
G01 X-37.4040 Y-11.3489
G01 X-37.4040 Y-10.7862
G01 X-37.4045 Y-10.7688
G01 X-37.4059 Y-10.7486
G01 X-37.4082 Y-10.7299
G01 X-37.4099 Y-10.7195
G01 X-37.4129 Y-10.7047
G01 X-37.4161 Y-10.6911
G01 X-37.4197 Y-10.6781
G01 X-37.4243 Y-10.6638
G01 X-37.4340 Y-10.6383
G01 X-37.4402 Y-10.6243
G01 X-37.4470 Y-10.6106
G01 X-37.4546 Y-10.5969
G01 X-37.4620 Y-10.5844
G01 X-37.4698 Y-10.5726
G01 X-37.4785 Y-10.5603
G01 X-37.4853 Y-10.5514
G01 X-37.4965 Y-10.5378
G01 X-37.5066 Y-10.5265
G01 X-37.5200 Y-10.5129
G01 X-37.5341 Y-10.5000
G01 X-37.5455 Y-10.4904
G01 X-37.5625 Y-10.4775
G01 X-37.5773 Y-10.4674
G01 X-37.5893 Y-10.4599
G01 X-37.6061 Y-10.4505
G01 X-37.6212 Y-10.4429
G01 X-37.6373 Y-10.4357
G01 X-37.6578 Y-10.4278
G01 X-37.6716 Y-10.4233
G01 X-37.6898 Y-10.4181
G01 X-37.7032 Y-10.4149
G01 X-37.7210 Y-10.4115
G01 X-37.7380 Y-10.4090
G01 X-37.7604 Y-10.4070
G01 X-37.7840 Y-10.4062
G01 X-38.5294 Y-10.4062
G01 X-38.5294 Y-10.2210
G01 X-38.5301 Y-10.2011
G01 X-38.5326 Y-10.1749
G01 X-38.5353 Y-10.1569
G01 X-38.5396 Y-10.1360
G01 X-38.5442 Y-10.1186
G01 X-38.5497 Y-10.1012
G01 X-38.5557 Y-10.0848
G01 X-38.5628 Y-10.0678
G01 X-38.5711 Y-10.0504
G01 X-38.5792 Y-10.0355
G01 X-37.2194 Y-10.0355
G01 X-37.2049 Y-10.0351
G01 X-37.1891 Y-10.0341
G01 X-37.1753 Y-10.0327
G01 X-37.1583 Y-10.0302
G01 X-37.1442 Y-10.0276
G01 X-37.1304 Y-10.0245
G01 X-37.1171 Y-10.0209
G01 X-37.1013 Y-10.0160
G01 X-37.1013 Y-12.1138
G01 X-37.1271 Y-12.1062
G01 X-37.1405 Y-12.1030
G01 X-37.1546 Y-12.1002
G01 X-37.1788 Y-12.0967
G01 X-37.1941 Y-12.0953
G01 X-37.2085 Y-12.0945
G01 X-37.7968 Y-12.0945
G01 X-37.8197 Y-12.0960
G01 X-37.8440 Y-12.0991
G01 X-37.8648 Y-12.1030
G01 X-37.8841 Y-12.1078
G01 X-37.9063 Y-12.1146
G01 X-37.9271 Y-12.1223
G01 X-37.9468 Y-12.1310
G01 X-37.9676 Y-12.1416
G01 X-37.9824 Y-12.1502
G01 X-37.9974 Y-12.1599
G01 X-38.0087 Y-12.1679
G01 X-38.0225 Y-12.1785
G01 X-38.0339 Y-12.1881
G01 X-38.0480 Y-12.2010
G01 X-38.0614 Y-12.2146
G01 X-38.0715 Y-12.2259
G01 X-38.0827 Y-12.2395
G01 X-38.0935 Y-12.2538
G01 X-38.1002 Y-12.2636
G01 X-38.1102 Y-12.2795
G01 X-38.1183 Y-12.2937
G01 X-38.1253 Y-12.3073
G01 X-38.1340 Y-12.3263
G01 X-38.1399 Y-12.3413
G01 X-38.1483 Y-12.3661
G01 X-38.1551 Y-12.3927
G01 X-38.1592 Y-12.4142
G01 X-38.1626 Y-12.4417
G01 X-38.1636 Y-12.4569
G01 X-38.1640 Y-12.4743
G01 X-38.1640 Y-12.6570
G01 X-38.3467 Y-12.6570
G01 X-38.3703 Y-12.6577
G01 X-38.3927 Y-12.6598
G01 X-38.4160 Y-12.6634
G01 X-38.4409 Y-12.6689
G01 X-38.4632 Y-12.6753
G01 X-38.4807 Y-12.6814
G01 X-38.4935 Y-12.6865
G01 X-38.5095 Y-12.6936
G01 X-38.5209 Y-12.6993
G01 X-38.5451 Y-12.7129
G01 X-38.5601 Y-12.7226
G01 X-38.5714 Y-12.7306
G01 X-38.5852 Y-12.7412
G01 X-38.5966 Y-12.7507
G01 X-38.6168 Y-12.7697
G01 X-38.6275 Y-12.7810
G01 X-38.6394 Y-12.7946
G01 X-38.6502 Y-12.8083
G01 X-38.6581 Y-12.8192
G01 X-38.6687 Y-12.8352
G01 X-38.6797 Y-12.8539
G01 X-38.6880 Y-12.8700
G01 X-38.6978 Y-12.8916
G01 X-38.7053 Y-12.9114
G01 X-38.7119 Y-12.9321
G01 X-38.7178 Y-12.9554
G01 X-38.7213 Y-12.9730
G01 X-38.7248 Y-12.9994
G01 X-38.7260 Y-13.0145
G01 X-38.7266 Y-13.0294
G01 X-38.7267 Y-13.2197
G01 X-39.0921 Y-13.2197
G01 X-39.0921 Y-13.0344
G01 X-39.0928 Y-13.0145
G01 X-39.0952 Y-12.9884
G01 X-39.0975 Y-12.9730
G01 X-39.1010 Y-12.9554
G01 X-39.1051 Y-12.9386
G01 X-39.1102 Y-12.9210
G01 X-39.1161 Y-12.9040
G01 X-39.1221 Y-12.8890
G01 X-39.1307 Y-12.8700
G01 X-39.1389 Y-12.8543
G01 X-40.6475 Y-11.8665
G01 X-40.6303 Y-11.8678
G01 X-40.6087 Y-11.8688
G01 X-40.5548 Y-11.8689
G01 X-40.5546 Y-11.9218
G01 X-40.5545 Y-11.9268
G01 X-40.5542 Y-11.9341
G01 X-40.5541 Y-11.9366
G01 X-40.5530 Y-11.9543
G01 X-40.6455 Y-11.9543
G01 X-40.6456 Y-11.9002
G01 X-40.6464 Y-11.8815
G01 X-40.6475 Y-11.8665
G01 X-40.8815 Y-11.6013
G01 X-40.8725 Y-11.6111
G01 X-40.8615 Y-11.6222
G01 X-40.8511 Y-11.6318
G01 X-40.8389 Y-11.6423
G01 X-40.8189 Y-11.6577
G01 X-40.7959 Y-11.6730
G01 X-40.7754 Y-11.6846
G01 X-40.7515 Y-11.6962
G01 X-40.7353 Y-11.7030
G01 X-40.7237 Y-11.7073
G01 X-40.6976 Y-11.7154
G01 X-40.6782 Y-11.7202
G01 X-40.6574 Y-11.7241
G01 X-40.6331 Y-11.7272
G01 X-40.6139 Y-11.7285
G01 X-40.5975 Y-11.7289
G01 X-40.4148 Y-11.7289
G01 X-40.4147 Y-11.9141
G01 X-40.4141 Y-11.9341
G01 X-40.4116 Y-11.9602
G01 X-40.4093 Y-11.9756
G01 X-40.4059 Y-11.9931
G01 X-40.4018 Y-12.0100
G01 X-40.3966 Y-12.0276
G01 X-40.3945 Y-12.0340
G01 X-40.3934 Y-12.0371
G01 X-40.3907 Y-12.0446
G01 X-40.3848 Y-12.0595
G01 X-40.3761 Y-12.0786
G01 X-40.3680 Y-12.0943
G01 X-40.7855 Y-12.0943
G01 X-40.7855 Y-11.9116
G01 X-40.7859 Y-11.8942
G01 X-40.7874 Y-11.8740
G01 X-40.7903 Y-11.8515
G01 X-40.7937 Y-11.8330
G01 X-40.7985 Y-11.8132
G01 X-40.8057 Y-11.7892
G01 X-40.8155 Y-11.7636
G01 X-40.8272 Y-11.7385
G01 X-40.8344 Y-11.7250
G01 X-40.8409 Y-11.7141
G01 X-40.8560 Y-11.6911
G01 X-40.8728 Y-11.6693
G01 X-40.8905 Y-11.6494
G01 X-40.9101 Y-11.6302
G01 X-40.8954 Y-11.6162
G01 X-40.8815 Y-11.6013
G01 X-40.8375 Y-11.3489
G01 X-40.8364 Y-11.3713
G01 X-40.8345 Y-11.3862
G01 X-40.8308 Y-11.4052
G01 X-40.8264 Y-11.4210
G01 X-40.8204 Y-11.4377
G01 X-40.8126 Y-11.4553
G01 X-40.8062 Y-11.4674
G01 X-40.7965 Y-11.4830
G01 X-40.7869 Y-11.4963
G01 X-40.7755 Y-11.5099
G01 X-40.7635 Y-11.5221
G01 X-40.7489 Y-11.5351
G01 X-40.7335 Y-11.5466
G01 X-40.7219 Y-11.5541
G01 X-40.7088 Y-11.5615
G01 X-40.6888 Y-11.5708
G01 X-40.6700 Y-11.5777
G01 X-40.6492 Y-11.5833
G01 X-40.6366 Y-11.5857
G01 X-40.6256 Y-11.5872
G01 X-40.6066 Y-11.5887
G01 X-40.2748 Y-11.5889
G01 X-40.2748 Y-11.9116
G01 X-40.2737 Y-11.9340
G01 X-40.2719 Y-11.9488
G01 X-40.2702 Y-11.9581
G01 X-40.2651 Y-11.9790
G01 X-40.2616 Y-11.9901
G01 X-40.2577 Y-12.0004
G01 X-40.2523 Y-12.0129
G01 X-40.2481 Y-12.0216
G01 X-40.2376 Y-12.0398
G01 X-40.2309 Y-12.0499
G01 X-40.2242 Y-12.0590
G01 X-40.2172 Y-12.0675
G01 X-40.2093 Y-12.0763
G01 X-40.2008 Y-12.0848
G01 X-40.1919 Y-12.0930
G01 X-40.1755 Y-12.1060
G01 X-40.1641 Y-12.1138
G01 X-40.1518 Y-12.1211
G01 X-40.1385 Y-12.1280
G01 X-40.1208 Y-12.1356
G01 X-40.1073 Y-12.1403
G01 X-40.0865 Y-12.1460
G01 X-40.0739 Y-12.1484
G01 X-40.0560 Y-12.1506
G01 X-40.0348 Y-12.1516
G01 X-39.7121 Y-12.1516
G01 X-39.7121 Y-12.4743
G01 X-39.7120 Y-12.4794
G01 X-39.7117 Y-12.4866
G01 X-39.7110 Y-12.4967
G01 X-39.7092 Y-12.5115
G01 X-39.7075 Y-12.5208
G01 X-39.7042 Y-12.5352
G01 X-39.7010 Y-12.5463
G01 X-39.6935 Y-12.5668
G01 X-39.6872 Y-12.5807
G01 X-39.6827 Y-12.5892
G01 X-39.6776 Y-12.5982
G01 X-39.6711 Y-12.6084
G01 X-39.6643 Y-12.6180
G01 X-39.6575 Y-12.6267
G01 X-39.6501 Y-12.6353
G01 X-39.6417 Y-12.6440
G01 X-39.6330 Y-12.6523
G01 X-39.6235 Y-12.6604
G01 X-39.6081 Y-12.6720
G01 X-39.5965 Y-12.6795
G01 X-39.5834 Y-12.6869
G01 X-39.5707 Y-12.6931
G01 X-39.5504 Y-12.7011
G01 X-39.5305 Y-12.7070
G01 X-39.5149 Y-12.7104
G01 X-39.5002 Y-12.7126
G01 X-39.4812 Y-12.7141
G01 X-39.4721 Y-12.7143
G01 X-38.9094 Y-12.7143
G01 X-38.8931 Y-12.7137
G01 X-38.8812 Y-12.7126
G01 X-38.8703 Y-12.7111
G01 X-38.8577 Y-12.7086
G01 X-38.8369 Y-12.7030
G01 X-38.8233 Y-12.6983
G01 X-38.8056 Y-12.6907
G01 X-38.7924 Y-12.6838
G01 X-38.7801 Y-12.6765
G01 X-38.7623 Y-12.6639
G01 X-38.7523 Y-12.6557
G01 X-38.7397 Y-12.6440
G01 X-38.7270 Y-12.6302
G01 X-38.7172 Y-12.6180
G01 X-38.7065 Y-12.6025
G01 X-38.6987 Y-12.5892
G01 X-38.6902 Y-12.5719
G01 X-38.6842 Y-12.5573
G01 X-38.6791 Y-12.5417
G01 X-38.6747 Y-12.5246
G01 X-38.6723 Y-12.5115
G01 X-38.6705 Y-12.4967
G01 X-38.6694 Y-12.4743
G01 X-38.6694 Y-11.9116
G01 X-38.6705 Y-11.8892
G01 X-38.6723 Y-11.8743
G01 X-38.6747 Y-11.8613
G01 X-38.6791 Y-11.8441
G01 X-38.6842 Y-11.8286
G01 X-38.6902 Y-11.8139
G01 X-38.6961 Y-11.8016
G01 X-38.7039 Y-11.7876
G01 X-38.7133 Y-11.7733
G01 X-38.7200 Y-11.7642
G01 X-38.7314 Y-11.7506
G01 X-38.7397 Y-11.7419
G01 X-38.7523 Y-11.7302
G01 X-38.7687 Y-11.7172
G01 X-38.7801 Y-11.7094
G01 X-38.7924 Y-11.7021
G01 X-38.8056 Y-11.6952
G01 X-38.8181 Y-11.6897
G01 X-38.8311 Y-11.6848
G01 X-38.8510 Y-11.6788
G01 X-38.8666 Y-11.6755
G01 X-38.8812 Y-11.6733
G01 X-38.9003 Y-11.6718
G01 X-39.2321 Y-11.6716
G01 X-39.2321 Y-11.0262
G01 X-39.1494 Y-11.0262
G01 X-39.1493 Y-11.3540
G01 X-39.1483 Y-11.3713
G01 X-39.1465 Y-11.3862
G01 X-39.1440 Y-11.3992
G01 X-39.1397 Y-11.4163
G01 X-39.1362 Y-11.4274
G01 X-39.1308 Y-11.4414
G01 X-39.1245 Y-11.4553
G01 X-39.1181 Y-11.4674
G01 X-39.1122 Y-11.4771
G01 X-39.1055 Y-11.4872
G01 X-39.0988 Y-11.4963
G01 X-39.0874 Y-11.5099
G01 X-39.0790 Y-11.5186
G01 X-39.0665 Y-11.5303
G01 X-39.0565 Y-11.5385
G01 X-39.0454 Y-11.5466
G01 X-39.0338 Y-11.5541
G01 X-39.0207 Y-11.5615
G01 X-39.0080 Y-11.5677
G01 X-38.9955 Y-11.5729
G01 X-38.9819 Y-11.5777
G01 X-38.9737 Y-11.5801
G01 X-38.9522 Y-11.5850
G01 X-38.9306 Y-11.5879
G01 X-38.9094 Y-11.5889
G01 X-37.7840 Y-11.5889
G01 X-37.7677 Y-11.5883
G01 X-37.7559 Y-11.5872
G01 X-37.7449 Y-11.5857
G01 X-37.7323 Y-11.5833
G01 X-37.7115 Y-11.5777
G01 X-37.6979 Y-11.5729
G01 X-37.6802 Y-11.5653
G01 X-37.6670 Y-11.5584
G01 X-37.6547 Y-11.5511
G01 X-37.6369 Y-11.5385
G01 X-37.6231 Y-11.5270
G01 X-37.6094 Y-11.5136
G01 X-37.5986 Y-11.5013
G01 X-37.5879 Y-11.4872
G01 X-37.5785 Y-11.4729
G01 X-37.5689 Y-11.4553
G01 X-37.5610 Y-11.4377
G01 X-37.5551 Y-11.4210
G01 X-37.5507 Y-11.4052
G01 X-37.5469 Y-11.3862
G01 X-37.5451 Y-11.3713
G01 X-37.5440 Y-11.3489
G01 X-37.5440 Y-10.7862
G01 X-37.5444 Y-10.7739
G01 X-37.5459 Y-10.7567
G01 X-37.5486 Y-10.7397
G01 X-37.5519 Y-10.7253
G01 X-37.5572 Y-10.7078
G01 X-37.5626 Y-10.6937
G01 X-37.5707 Y-10.6762
G01 X-37.5785 Y-10.6623
G01 X-37.5879 Y-10.6479
G01 X-37.5946 Y-10.6388
G01 X-37.6060 Y-10.6252
G01 X-37.6143 Y-10.6165
G01 X-37.6231 Y-10.6082
G01 X-37.6326 Y-10.6001
G01 X-37.6433 Y-10.5918
G01 X-37.6547 Y-10.5840
G01 X-37.6670 Y-10.5767
G01 X-37.6854 Y-10.5674
G01 X-37.6979 Y-10.5622
G01 X-37.7115 Y-10.5575
G01 X-37.7256 Y-10.5535
G01 X-37.7360 Y-10.5511
G01 X-37.7509 Y-10.5485
G01 X-37.7628 Y-10.5472
G01 X-37.7840 Y-10.5462
G01 X-38.6694 Y-10.5462
G01 X-38.6694 Y-10.2235
G01 X-38.6697 Y-10.2112
G01 X-38.6713 Y-10.1940
G01 X-38.6747 Y-10.1732
G01 X-38.6773 Y-10.1626
G01 X-38.6805 Y-10.1515
G01 X-38.6879 Y-10.1310
G01 X-38.6961 Y-10.1135
G01 X-38.7039 Y-10.0996
G01 X-38.7133 Y-10.0852
G01 X-38.7240 Y-10.0711
G01 X-38.7348 Y-10.0588
G01 X-38.7485 Y-10.0455
G01 X-38.7623 Y-10.0339
G01 X-38.7734 Y-10.0258
G01 X-38.7924 Y-10.0140
G01 X-38.8056 Y-10.0071
G01 X-38.8233 Y-9.9995
G01 X-38.8369 Y-9.9948
G01 X-38.8510 Y-9.9908
G01 X-38.8703 Y-9.9867
G01 X-38.8881 Y-9.9845
G01 X-38.9094 Y-9.9835
G01 X-40.0348 Y-9.9835
G01 X-40.0560 Y-9.9845
G01 X-40.0739 Y-9.9867
G01 X-40.0932 Y-9.9908
G01 X-40.1131 Y-9.9967
G01 X-40.1261 Y-10.0016
G01 X-40.1385 Y-10.0071
G01 X-40.1518 Y-10.0140
G01 X-40.1641 Y-10.0213
G01 X-40.1755 Y-10.0291
G01 X-40.1862 Y-10.0374
G01 X-40.1957 Y-10.0455
G01 X-40.2093 Y-10.0588
G01 X-40.2172 Y-10.0676
G01 X-40.2270 Y-10.0798
G01 X-40.2338 Y-10.0894
G01 X-40.2435 Y-10.1050
G01 X-40.2499 Y-10.1171
G01 X-40.2562 Y-10.1310
G01 X-40.2616 Y-10.1451
G01 X-40.2651 Y-10.1561
G01 X-40.2694 Y-10.1732
G01 X-40.2719 Y-10.1863
G01 X-40.2737 Y-10.2011
G01 X-40.2747 Y-10.2184
G01 X-40.2748 Y-10.5462
G01 X-40.5975 Y-10.5462
G01 X-40.6138 Y-10.5468
G01 X-40.6305 Y-10.5485
G01 X-40.6492 Y-10.5519
G01 X-40.6700 Y-10.5575
G01 X-40.6835 Y-10.5622
G01 X-40.7012 Y-10.5698
G01 X-40.7145 Y-10.5767
G01 X-40.7219 Y-10.5810
G01 X-40.7382 Y-10.5918
G01 X-40.7546 Y-10.6048
G01 X-40.7671 Y-10.6165
G01 X-40.7799 Y-10.6303
G01 X-40.7869 Y-10.6388
G01 X-40.7936 Y-10.6479
G01 X-40.8003 Y-10.6580
G01 X-40.8062 Y-10.6677
G01 X-40.8150 Y-10.6849
G01 X-40.8226 Y-10.7032
G01 X-40.8264 Y-10.7142
G01 X-40.8296 Y-10.7253
G01 X-40.8339 Y-10.7451
G01 X-40.8364 Y-10.7638
G01 X-40.8375 Y-10.7862
G01 X-40.8375 Y-11.3489
G01 X-40.6975 Y-11.3489
G01 X-40.6972 Y-11.3562
G01 X-40.6958 Y-11.3672
G01 X-40.6938 Y-11.3757
G01 X-40.6908 Y-11.3848
G01 X-40.6876 Y-11.3922
G01 X-40.6838 Y-11.3993
G01 X-40.6783 Y-11.4077
G01 X-40.6726 Y-11.4149
G01 X-40.6618 Y-11.4254
G01 X-40.6528 Y-11.4322
G01 X-40.6479 Y-11.4353
G01 X-40.6422 Y-11.4383
G01 X-40.6318 Y-11.4428
G01 X-40.6201 Y-11.4463
G01 X-40.6127 Y-11.4477
G01 X-40.6028 Y-11.4488
G01 X-40.5975 Y-11.4489
G01 X-40.1348 Y-11.4489
G01 X-40.1348 Y-11.9116
G01 X-40.1345 Y-11.9188
G01 X-40.1337 Y-11.9260
G01 X-40.1311 Y-11.9383
G01 X-40.1266 Y-11.9512
G01 X-40.1212 Y-11.9620
G01 X-40.1156 Y-11.9704
G01 X-40.1065 Y-11.9813
G01 X-40.0991 Y-11.9881
G01 X-40.0901 Y-11.9949
G01 X-40.0795 Y-12.0010
G01 X-40.0691 Y-12.0055
G01 X-40.0574 Y-12.0090
G01 X-40.0451 Y-12.0111
G01 X-40.0348 Y-12.0116
G01 X-39.5721 Y-12.0116
G01 X-39.5721 Y-12.4743
G01 X-39.5718 Y-12.4815
G01 X-39.5710 Y-12.4887
G01 X-39.5696 Y-12.4964
G01 X-39.5670 Y-12.5056
G01 X-39.5622 Y-12.5176
G01 X-39.5585 Y-12.5247
G01 X-39.5530 Y-12.5331
G01 X-39.5438 Y-12.5440
G01 X-39.5364 Y-12.5508
G01 X-39.5321 Y-12.5543
G01 X-39.5225 Y-12.5607
G01 X-39.5168 Y-12.5637
G01 X-39.5064 Y-12.5682
G01 X-39.5006 Y-12.5701
G01 X-39.4910 Y-12.5725
G01 X-39.4824 Y-12.5738
G01 X-39.4721 Y-12.5743
G01 X-38.9094 Y-12.5743
G01 X-38.9040 Y-12.5741
G01 X-38.8942 Y-12.5731
G01 X-38.8868 Y-12.5717
G01 X-38.8751 Y-12.5682
G01 X-38.8647 Y-12.5637
G01 X-38.8590 Y-12.5607
G01 X-38.8541 Y-12.5576
G01 X-38.8450 Y-12.5508
G01 X-38.8342 Y-12.5403
G01 X-38.8257 Y-12.5290
G01 X-38.8211 Y-12.5212
G01 X-38.8176 Y-12.5139
G01 X-38.8144 Y-12.5056
G01 X-38.8119 Y-12.4964
G01 X-38.8104 Y-12.4887
G01 X-38.8097 Y-12.4815
G01 X-38.8094 Y-12.4743
G01 X-38.8094 Y-11.9116
G01 X-38.8097 Y-11.9043
G01 X-38.8104 Y-11.8972
G01 X-38.8119 Y-11.8895
G01 X-38.8144 Y-11.8802
G01 X-38.8176 Y-11.8720
G01 X-38.8211 Y-11.8647
G01 X-38.8257 Y-11.8569
G01 X-38.8342 Y-11.8456
G01 X-38.8413 Y-11.8384
G01 X-38.8494 Y-11.8316
G01 X-38.8590 Y-11.8252
G01 X-38.8647 Y-11.8222
G01 X-38.8751 Y-11.8177
G01 X-38.8868 Y-11.8142
G01 X-38.8942 Y-11.8128
G01 X-38.9040 Y-11.8117
G01 X-39.3721 Y-11.8116
G01 X-39.3721 Y-10.8862
G01 X-39.0094 Y-10.8862
G01 X-39.0094 Y-11.3489
G01 X-39.0091 Y-11.3562
G01 X-39.0083 Y-11.3633
G01 X-39.0057 Y-11.3757
G01 X-39.0012 Y-11.3885
G01 X-38.9958 Y-11.3993
G01 X-38.9875 Y-11.4114
G01 X-38.9775 Y-11.4221
G01 X-38.9694 Y-11.4289
G01 X-38.9598 Y-11.4353
G01 X-38.9541 Y-11.4383
G01 X-38.9437 Y-11.4428
G01 X-38.9379 Y-11.4447
G01 X-38.9283 Y-11.4471
G01 X-38.9197 Y-11.4484
G01 X-38.9094 Y-11.4489
G01 X-37.7840 Y-11.4489
G01 X-37.7737 Y-11.4484
G01 X-37.7651 Y-11.4471
G01 X-37.7555 Y-11.4447
G01 X-37.7497 Y-11.4428
G01 X-37.7393 Y-11.4383
G01 X-37.7336 Y-11.4353
G01 X-37.7240 Y-11.4289
G01 X-37.7196 Y-11.4254
G01 X-37.7123 Y-11.4186
G01 X-37.7059 Y-11.4114
G01 X-37.7003 Y-11.4036
G01 X-37.6957 Y-11.3958
G01 X-37.6922 Y-11.3885
G01 X-37.6890 Y-11.3803
G01 X-37.6865 Y-11.3710
G01 X-37.6850 Y-11.3633
G01 X-37.6843 Y-11.3562
G01 X-37.6840 Y-11.3489
G01 X-37.6840 Y-10.7862
G01 X-37.6843 Y-10.7790
G01 X-37.6850 Y-10.7718
G01 X-37.6865 Y-10.7641
G01 X-37.6890 Y-10.7548
G01 X-37.6922 Y-10.7466
G01 X-37.6957 Y-10.7393
G01 X-37.7031 Y-10.7274
G01 X-37.7089 Y-10.7202
G01 X-37.7159 Y-10.7130
G01 X-37.7240 Y-10.7062
G01 X-37.7336 Y-10.6998
G01 X-37.7444 Y-10.6944
G01 X-37.7555 Y-10.6904
G01 X-37.7688 Y-10.6874
G01 X-37.7787 Y-10.6864
G01 X-38.8094 Y-10.6862
G01 X-38.8094 Y-10.2235
G01 X-38.8097 Y-10.2163
G01 X-38.8104 Y-10.2091
G01 X-38.8119 Y-10.2014
G01 X-38.8144 Y-10.1922
G01 X-38.8192 Y-10.1802
G01 X-38.8257 Y-10.1688
G01 X-38.8342 Y-10.1575
G01 X-38.8450 Y-10.1470
G01 X-38.8541 Y-10.1402
G01 X-38.8590 Y-10.1371
G01 X-38.8647 Y-10.1341
G01 X-38.8751 Y-10.1296
G01 X-38.8868 Y-10.1261
G01 X-38.8991 Y-10.1240
G01 X-38.9094 Y-10.1235
G01 X-40.0348 Y-10.1235
G01 X-40.0451 Y-10.1240
G01 X-40.0537 Y-10.1253
G01 X-40.0633 Y-10.1277
G01 X-40.0691 Y-10.1296
G01 X-40.0795 Y-10.1341
G01 X-40.0852 Y-10.1371
G01 X-40.0948 Y-10.1435
G01 X-40.0991 Y-10.1470
G01 X-40.1065 Y-10.1538
G01 X-40.1156 Y-10.1647
G01 X-40.1212 Y-10.1731
G01 X-40.1249 Y-10.1802
G01 X-40.1297 Y-10.1922
G01 X-40.1323 Y-10.2014
G01 X-40.1337 Y-10.2091
G01 X-40.1345 Y-10.2163
G01 X-40.1348 Y-10.2235
G01 X-40.1348 Y-10.6862
G01 X-40.5975 Y-10.6862
G01 X-40.6078 Y-10.6867
G01 X-40.6201 Y-10.6888
G01 X-40.6318 Y-10.6923
G01 X-40.6422 Y-10.6968
G01 X-40.6528 Y-10.7029
G01 X-40.6618 Y-10.7097
G01 X-40.6726 Y-10.7202
G01 X-40.6783 Y-10.7274
G01 X-40.6858 Y-10.7393
G01 X-40.6908 Y-10.7503
G01 X-40.6950 Y-10.7641
G01 X-40.6964 Y-10.7718
G01 X-40.6972 Y-10.7790
G01 X-40.6975 Y-10.7862
G01 X-40.6975 Y-11.3489
G01 X-41.2106 Y-10.1735
G01 X-41.1875 Y-10.1750
G01 X-41.1655 Y-10.1755
G01 X-40.5525 Y-10.1755
G01 X-40.5538 Y-10.1934
G01 X-40.5546 Y-10.2121
G01 X-40.5548 Y-10.2662
G01 X-40.6087 Y-10.2664
G01 X-40.6285 Y-10.2672
G01 X-40.6458 Y-10.2685
G01 X-40.6677 Y-10.2710
G01 X-40.6881 Y-10.2742
G01 X-40.7073 Y-10.2780
G01 X-40.7275 Y-10.2828
G01 X-40.7498 Y-10.2891
G01 X-40.7697 Y-10.2956
G01 X-40.7870 Y-10.3020
G01 X-40.8087 Y-10.3111
G01 X-40.8269 Y-10.3196
G01 X-40.8477 Y-10.3304
G01 X-40.8644 Y-10.3400
G01 X-40.8815 Y-10.3507
G01 X-40.8986 Y-10.3400
G01 X-40.9152 Y-10.3304
G01 X-40.9360 Y-10.3196
G01 X-40.9542 Y-10.3111
G01 X-40.9759 Y-10.3020
G01 X-40.9933 Y-10.2956
G01 X-41.0131 Y-10.2891
G01 X-41.0354 Y-10.2828
G01 X-41.0556 Y-10.2780
G01 X-41.0749 Y-10.2742
G01 X-41.0952 Y-10.2710
G01 X-41.1171 Y-10.2685
G01 X-41.1345 Y-10.2672
G01 X-41.1542 Y-10.2664
G01 X-41.1655 Y-10.2662
G01 X-41.2082 Y-10.2662
G01 X-41.2083 Y-10.2121
G01 X-41.2091 Y-10.1934
G01 X-41.2106 Y-10.1735
G01 X-41.4444 Y-9.9135
G01 X-41.4331 Y-9.9253
G01 X-41.4218 Y-9.9360
G01 X-41.4069 Y-9.9489
G01 X-41.3965 Y-9.9572
G01 X-41.3822 Y-9.9676
G01 X-41.3688 Y-9.9765
G01 X-41.3528 Y-9.9861
G01 X-41.3397 Y-9.9932
G01 X-41.3231 Y-10.0012
G01 X-41.3086 Y-10.0075
G01 X-41.2917 Y-10.0139
G01 X-41.2779 Y-10.0185
G01 X-41.2597 Y-10.0236
G01 X-41.2425 Y-10.0276
G01 X-41.2254 Y-10.0307
G01 X-41.2080 Y-10.0331
G01 X-41.1891 Y-10.0348
G01 X-41.1655 Y-10.0355
G01 X-40.3650 Y-10.0355
G01 X-40.3730 Y-10.0504
G01 X-40.3814 Y-10.0678
G01 X-40.3885 Y-10.0848
G01 X-40.3945 Y-10.1012
G01 X-40.4000 Y-10.1186
G01 X-40.4045 Y-10.1360
G01 X-40.4089 Y-10.1569
G01 X-40.4116 Y-10.1749
G01 X-40.4141 Y-10.2011
G01 X-40.4147 Y-10.2210
G01 X-40.4148 Y-10.4062
G01 X-40.5975 Y-10.4062
G01 X-40.6139 Y-10.4066
G01 X-40.6331 Y-10.4079
G01 X-40.6574 Y-10.4110
G01 X-40.6782 Y-10.4149
G01 X-40.6976 Y-10.4197
G01 X-40.7237 Y-10.4278
G01 X-40.7353 Y-10.4321
G01 X-40.7515 Y-10.4389
G01 X-40.7754 Y-10.4505
G01 X-40.7959 Y-10.4621
G01 X-40.8189 Y-10.4775
G01 X-40.8389 Y-10.4928
G01 X-40.8511 Y-10.5033
G01 X-40.8615 Y-10.5129
G01 X-40.8725 Y-10.5240
G01 X-40.8815 Y-10.5338
G01 X-40.8905 Y-10.5240
G01 X-40.9015 Y-10.5129
G01 X-40.9118 Y-10.5033
G01 X-40.9241 Y-10.4928
G01 X-40.9440 Y-10.4775
G01 X-40.9671 Y-10.4621
G01 X-40.9875 Y-10.4505
G01 X-41.0114 Y-10.4389
G01 X-41.0276 Y-10.4321
G01 X-41.0392 Y-10.4278
G01 X-41.0653 Y-10.4197
G01 X-41.0847 Y-10.4149
G01 X-41.1055 Y-10.4110
G01 X-41.1115 Y-10.4101
G01 X-41.1195 Y-10.4090
G01 X-41.1298 Y-10.4079
G01 X-41.1490 Y-10.4066
G01 X-41.1655 Y-10.4062
G01 X-41.3482 Y-10.4062
G01 X-41.3483 Y-10.2159
G01 X-41.3489 Y-10.2011
G01 X-41.3501 Y-10.1859
G01 X-41.3524 Y-10.1673
G01 X-41.3551 Y-10.1515
G01 X-41.3611 Y-10.1251
G01 X-41.3653 Y-10.1108
G01 X-41.3711 Y-10.0934
G01 X-41.3771 Y-10.0782
G01 X-41.3832 Y-10.0642
G01 X-41.3899 Y-10.0504
G01 X-41.3971 Y-10.0369
G01 X-41.4036 Y-10.0260
G01 X-41.4119 Y-10.0128
G01 X-41.4187 Y-10.0030
G01 X-41.4294 Y-9.9887
G01 X-41.4384 Y-9.9777
G01 X-41.4507 Y-9.9639
G01 X-41.4606 Y-9.9537
G01 X-41.4728 Y-9.9422
G01 X-41.4581 Y-9.9281
G01 X-41.4444 Y-9.9135
G00 Z1.0000
G00 X-42.3908 Y-9.5608
G01 F20.00
G01 Z-0.1900
G01 F20.00
G01 X-42.7535 Y-9.5608
G01 X-42.7535 Y-8.6301
G01 X-42.3908 Y-8.6301
G01 X-42.3908 Y-9.5608
G01 X-42.5308 Y-9.4208
G01 X-42.6135 Y-9.4208
G01 X-42.6135 Y-8.7701
G01 X-42.5308 Y-8.7701
G01 X-42.5308 Y-9.4208
G00 Z1.0000
G00 X-43.5162 Y-10.1226
G01 F20.00
G01 Z-0.1900
G01 F20.00
G01 X-43.8789 Y-10.1191
G01 X-43.8789 Y-9.1928
G01 X-43.5162 Y-9.1928
G01 X-43.5162 Y-10.1226
G01 X-43.6562 Y-9.9812
G01 X-43.7389 Y-9.9805
G01 X-43.7389 Y-9.3328
G01 X-43.6562 Y-9.3328
G01 X-43.6562 Y-9.9812
G00 Z1.0000
G00 X-44.8230 Y-8.8374
G01 F20.00
G01 Z-0.1900
G01 F20.00
G01 X-44.8342 Y-8.8256
G01 X-44.8461 Y-8.8141
G01 X-44.8342 Y-8.8027
G01 X-44.8203 Y-8.7879
G01 X-44.8110 Y-8.7980
G01 X-44.7972 Y-8.8117
G01 X-44.8092 Y-8.8231
G01 X-44.8230 Y-8.8374
G00 Z1.0000
G00 X-46.2724 Y-10.2662
G01 F20.00
G01 Z-0.1900
G01 F20.00
G01 X-46.2724 Y-10.1808
G01 X-46.2185 Y-10.1807
G01 X-46.1987 Y-10.1799
G01 X-46.1814 Y-10.1785
G01 X-46.1594 Y-10.1760
G01 X-46.1391 Y-10.1729
G01 X-46.1198 Y-10.1691
G01 X-46.0997 Y-10.1643
G01 X-46.0773 Y-10.1579
G01 X-46.0575 Y-10.1514
G01 X-46.0401 Y-10.1450
G01 X-46.0184 Y-10.1359
G01 X-46.0002 Y-10.1274
G01 X-45.9795 Y-10.1166
G01 X-45.9591 Y-10.1048
G01 X-45.9442 Y-10.0954
G01 X-45.9247 Y-10.1071
G01 X-45.9097 Y-10.1154
G01 X-45.8888 Y-10.1258
G01 X-45.8692 Y-10.1346
G01 X-45.8508 Y-10.1419
G01 X-45.8333 Y-10.1482
G01 X-45.8112 Y-10.1551
G01 X-45.7920 Y-10.1602
G01 X-45.7719 Y-10.1648
G01 X-45.7524 Y-10.1684
G01 X-45.7309 Y-10.1716
G01 X-45.7119 Y-10.1736
G01 X-45.6980 Y-10.1746
G01 X-45.6773 Y-10.1754
G01 X-45.6225 Y-10.1755
G01 X-45.6242 Y-10.2080
G01 X-45.6243 Y-10.2662
G01 X-46.2724 Y-10.2662
G01 X-46.4124 Y-10.4062
G01 X-46.4124 Y-10.0408
G01 X-46.2297 Y-10.0408
G01 X-46.2132 Y-10.0404
G01 X-46.1940 Y-10.0391
G01 X-46.1697 Y-10.0360
G01 X-46.1489 Y-10.0321
G01 X-46.1296 Y-10.0274
G01 X-46.1035 Y-10.0192
G01 X-46.0919 Y-10.0149
G01 X-46.0757 Y-10.0082
G01 X-46.0518 Y-9.9965
G01 X-46.0313 Y-9.9849
G01 X-46.0082 Y-9.9696
G01 X-45.9883 Y-9.9543
G01 X-45.9760 Y-9.9437
G01 X-45.9657 Y-9.9341
G01 X-45.9547 Y-9.9230
G01 X-45.9459 Y-9.9135
G01 X-45.9284 Y-9.9312
G01 X-45.9169 Y-9.9418
G01 X-45.9055 Y-9.9513
G01 X-45.8838 Y-9.9676
G01 X-45.8617 Y-9.9818
G01 X-45.8506 Y-9.9882
G01 X-45.8336 Y-9.9970
G01 X-45.8101 Y-10.0075
G01 X-45.7835 Y-10.0172
G01 X-45.7579 Y-10.0245
G01 X-45.7363 Y-10.0291
G01 X-45.7179 Y-10.0321
G01 X-45.6992 Y-10.0341
G01 X-45.6798 Y-10.0353
G01 X-45.4375 Y-10.0355
G01 X-45.4456 Y-10.0512
G01 X-45.4543 Y-10.0703
G01 X-45.4603 Y-10.0852
G01 X-45.4662 Y-10.1022
G01 X-45.4713 Y-10.1198
G01 X-45.4754 Y-10.1367
G01 X-45.4789 Y-10.1542
G01 X-45.4811 Y-10.1696
G01 X-45.4836 Y-10.1957
G01 X-45.4843 Y-10.2157
G01 X-45.4843 Y-10.4062
G01 X-46.4124 Y-10.4062
G01 X-46.5524 Y-10.5462
G01 X-46.5524 Y-9.9008
G01 X-46.2297 Y-9.9008
G01 X-46.2134 Y-9.9003
G01 X-46.1966 Y-9.8985
G01 X-46.1780 Y-9.8952
G01 X-46.1572 Y-9.8896
G01 X-46.1436 Y-9.8848
G01 X-46.1259 Y-9.8772
G01 X-46.1127 Y-9.8703
G01 X-46.1053 Y-9.8660
G01 X-46.0890 Y-9.8552
G01 X-46.0726 Y-9.8422
G01 X-46.0600 Y-9.8306
G01 X-46.0473 Y-9.8167
G01 X-46.0375 Y-9.8046
G01 X-46.0268 Y-9.7891
G01 X-46.0164 Y-9.7708
G01 X-46.0082 Y-9.7533
G01 X-46.0008 Y-9.7329
G01 X-45.9964 Y-9.7171
G01 X-45.9926 Y-9.6981
G01 X-45.9908 Y-9.6832
G01 X-45.9897 Y-9.6608
G01 X-45.9897 Y-9.3328
G01 X-45.9070 Y-9.3328
G01 X-45.9069 Y-9.6606
G01 X-45.9059 Y-9.6779
G01 X-45.9041 Y-9.6928
G01 X-45.9017 Y-9.7058
G01 X-45.8991 Y-9.7165
G01 X-45.8959 Y-9.7276
G01 X-45.8900 Y-9.7443
G01 X-45.8846 Y-9.7568
G01 X-45.8803 Y-9.7655
G01 X-45.8725 Y-9.7795
G01 X-45.8660 Y-9.7897
G01 X-45.8592 Y-9.7993
G01 X-45.8494 Y-9.8114
G01 X-45.8367 Y-9.8252
G01 X-45.8279 Y-9.8336
G01 X-45.8184 Y-9.8417
G01 X-45.8077 Y-9.8499
G01 X-45.7963 Y-9.8577
G01 X-45.7840 Y-9.8650
G01 X-45.7708 Y-9.8719
G01 X-45.7583 Y-9.8774
G01 X-45.7395 Y-9.8843
G01 X-45.7254 Y-9.8883
G01 X-45.7150 Y-9.8907
G01 X-45.6951 Y-9.8938
G01 X-45.6833 Y-9.8949
G01 X-45.6707 Y-9.8955
G01 X-45.1043 Y-9.8955
G01 X-45.0831 Y-9.8946
G01 X-45.0713 Y-9.8932
G01 X-45.0563 Y-9.8907
G01 X-45.0459 Y-9.8883
G01 X-45.0318 Y-9.8843
G01 X-45.0182 Y-9.8795
G01 X-45.0057 Y-9.8743
G01 X-44.9930 Y-9.8681
G01 X-44.9799 Y-9.8607
G01 X-44.9683 Y-9.8532
G01 X-44.9572 Y-9.8451
G01 X-44.9472 Y-9.8369
G01 X-44.9382 Y-9.8288
G01 X-44.9297 Y-9.8202
G01 X-44.9219 Y-9.8114
G01 X-44.9121 Y-9.7993
G01 X-44.9053 Y-9.7897
G01 X-44.8956 Y-9.7740
G01 X-44.8892 Y-9.7619
G01 X-44.8813 Y-9.7443
G01 X-44.8754 Y-9.7276
G01 X-44.8710 Y-9.7118
G01 X-44.8672 Y-9.6928
G01 X-44.8654 Y-9.6779
G01 X-44.8643 Y-9.6555
G01 X-44.8643 Y-9.0928
G01 X-44.8647 Y-9.0805
G01 X-44.8654 Y-9.0704
G01 X-44.8672 Y-9.0556
G01 X-44.8697 Y-9.0425
G01 X-44.8722 Y-9.0319
G01 X-44.8754 Y-9.0208
G01 X-44.8813 Y-9.0041
G01 X-44.8868 Y-8.9915
G01 X-44.8910 Y-8.9828
G01 X-44.8988 Y-8.9689
G01 X-44.9053 Y-8.9587
G01 X-44.9121 Y-8.9491
G01 X-44.9189 Y-8.9404
G01 X-44.9297 Y-8.9282
G01 X-44.9382 Y-8.9196
G01 X-44.9472 Y-8.9114
G01 X-44.9572 Y-8.9032
G01 X-44.9683 Y-8.8951
G01 X-44.9799 Y-8.8876
G01 X-44.9873 Y-8.8833
G01 X-45.0006 Y-8.8764
G01 X-45.0130 Y-8.8709
G01 X-45.0260 Y-8.8660
G01 X-45.0459 Y-8.8601
G01 X-45.0563 Y-8.8577
G01 X-45.0713 Y-8.8551
G01 X-45.0880 Y-8.8534
G01 X-45.1006 Y-8.8529
G01 X-45.4270 Y-8.8528
G01 X-45.4270 Y-8.7754
G01 X-45.1043 Y-8.7754
G01 X-45.0880 Y-8.7749
G01 X-45.0713 Y-8.7731
G01 X-45.0526 Y-8.7698
G01 X-45.0318 Y-8.7642
G01 X-45.0182 Y-8.7595
G01 X-45.0006 Y-8.7518
G01 X-44.9873 Y-8.7450
G01 X-44.9799 Y-8.7407
G01 X-44.9636 Y-8.7298
G01 X-44.9472 Y-8.7168
G01 X-44.9347 Y-8.7052
G01 X-44.9219 Y-8.6914
G01 X-44.9121 Y-8.6792
G01 X-44.9015 Y-8.6637
G01 X-44.8910 Y-8.6454
G01 X-44.8829 Y-8.6279
G01 X-44.8754 Y-8.6075
G01 X-44.8710 Y-8.5917
G01 X-44.8672 Y-8.5727
G01 X-44.8654 Y-8.5579
G01 X-44.8643 Y-8.5354
G01 X-44.8643 Y-8.2074
G01 X-44.7794 Y-8.2074
G01 X-44.7763 Y-8.5377
G01 X-44.7755 Y-8.5554
G01 X-44.7732 Y-8.5740
G01 X-44.7710 Y-8.5855
G01 X-44.7683 Y-8.5968
G01 X-44.7629 Y-8.6145
G01 X-44.7556 Y-8.6329
G01 X-44.7460 Y-8.6522
G01 X-44.7407 Y-8.6612
G01 X-44.7342 Y-8.6712
G01 X-44.7242 Y-8.6847
G01 X-44.7107 Y-8.7003
G01 X-44.6962 Y-8.7144
G01 X-44.6854 Y-8.7235
G01 X-44.6704 Y-8.7344
G01 X-44.6533 Y-8.7450
G01 X-44.6370 Y-8.7533
G01 X-44.6177 Y-8.7612
G01 X-44.5992 Y-8.7670
G01 X-44.5843 Y-8.7706
G01 X-44.5645 Y-8.7738
G01 X-44.5526 Y-8.7749
G01 X-44.5363 Y-8.7754
G01 X-44.2189 Y-8.7754
G01 X-44.2189 Y-8.8528
G01 X-44.5454 Y-8.8529
G01 X-44.5579 Y-8.8534
G01 X-44.5747 Y-8.8551
G01 X-44.5896 Y-8.8577
G01 X-44.6000 Y-8.8601
G01 X-44.6199 Y-8.8660
G01 X-44.6330 Y-8.8709
G01 X-44.6454 Y-8.8764
G01 X-44.6586 Y-8.8833
G01 X-44.6709 Y-8.8907
G01 X-44.6824 Y-8.8984
G01 X-44.6931 Y-8.9067
G01 X-44.7025 Y-8.9148
G01 X-44.7113 Y-8.9231
G01 X-44.7196 Y-8.9319
G01 X-44.7310 Y-8.9454
G01 X-44.7406 Y-8.9587
G01 X-44.7471 Y-8.9689
G01 X-44.7523 Y-8.9779
G01 X-44.7592 Y-8.9915
G01 X-44.7646 Y-9.0041
G01 X-44.7684 Y-9.0144
G01 X-44.7719 Y-9.0254
G01 X-44.7749 Y-9.0365
G01 X-44.7781 Y-9.0517
G01 X-44.7798 Y-9.0633
G01 X-44.7813 Y-9.0805
G01 X-44.7815 Y-9.0877
G01 X-44.7816 Y-9.9782
G01 X-45.1043 Y-9.9782
G01 X-45.1206 Y-9.9788
G01 X-45.1374 Y-9.9805
G01 X-45.1560 Y-9.9839
G01 X-45.1768 Y-9.9895
G01 X-45.1904 Y-9.9942
G01 X-45.2081 Y-10.0018
G01 X-45.2213 Y-10.0087
G01 X-45.2287 Y-10.0130
G01 X-45.2450 Y-10.0238
G01 X-45.2614 Y-10.0368
G01 X-45.2740 Y-10.0485
G01 X-45.2867 Y-10.0623
G01 X-45.2965 Y-10.0745
G01 X-45.3072 Y-10.0900
G01 X-45.3176 Y-10.1082
G01 X-45.3258 Y-10.1257
G01 X-45.3332 Y-10.1462
G01 X-45.3376 Y-10.1619
G01 X-45.3414 Y-10.1810
G01 X-45.3432 Y-10.1958
G01 X-45.3443 Y-10.2182
G01 X-45.3443 Y-10.5462
G01 X-46.5524 Y-10.5462
G01 X-46.6924 Y-10.6862
G01 X-46.6924 Y-9.7608
G01 X-46.2243 Y-9.7607
G01 X-46.2145 Y-9.7597
G01 X-46.2071 Y-9.7582
G01 X-46.2012 Y-9.7567
G01 X-46.1901 Y-9.7527
G01 X-46.1793 Y-9.7472
G01 X-46.1744 Y-9.7442
G01 X-46.1653 Y-9.7374
G01 X-46.1580 Y-9.7305
G01 X-46.1516 Y-9.7233
G01 X-46.1460 Y-9.7155
G01 X-46.1414 Y-9.7077
G01 X-46.1379 Y-9.7004
G01 X-46.1347 Y-9.6922
G01 X-46.1322 Y-9.6829
G01 X-46.1307 Y-9.6752
G01 X-46.1300 Y-9.6681
G01 X-46.1297 Y-9.6608
G01 X-46.1297 Y-9.1928
G01 X-45.7670 Y-9.1928
G01 X-45.7670 Y-9.6555
G01 X-45.7667 Y-9.6628
G01 X-45.7653 Y-9.6738
G01 X-45.7620 Y-9.6869
G01 X-45.7572 Y-9.6988
G01 X-45.7507 Y-9.7102
G01 X-45.7421 Y-9.7215
G01 X-45.7351 Y-9.7287
G01 X-45.7270 Y-9.7355
G01 X-45.7223 Y-9.7388
G01 X-45.7117 Y-9.7450
G01 X-45.7013 Y-9.7494
G01 X-45.6896 Y-9.7529
G01 X-45.6773 Y-9.7550
G01 X-45.6670 Y-9.7555
G01 X-45.0990 Y-9.7554
G01 X-45.0891 Y-9.7544
G01 X-45.0817 Y-9.7529
G01 X-45.0700 Y-9.7494
G01 X-45.0596 Y-9.7450
G01 X-45.0490 Y-9.7388
G01 X-45.0400 Y-9.7321
G01 X-45.0326 Y-9.7252
G01 X-45.0262 Y-9.7180
G01 X-45.0206 Y-9.7102
G01 X-45.0160 Y-9.7024
G01 X-45.0125 Y-9.6951
G01 X-45.0094 Y-9.6869
G01 X-45.0068 Y-9.6776
G01 X-45.0054 Y-9.6699
G01 X-45.0046 Y-9.6628
G01 X-45.0043 Y-9.6555
G01 X-45.0043 Y-9.0928
G01 X-45.0046 Y-9.0856
G01 X-45.0054 Y-9.0784
G01 X-45.0068 Y-9.0707
G01 X-45.0094 Y-9.0615
G01 X-45.0142 Y-9.0496
G01 X-45.0206 Y-9.0382
G01 X-45.0292 Y-9.0268
G01 X-45.0400 Y-9.0163
G01 X-45.0490 Y-9.0095
G01 X-45.0596 Y-9.0034
G01 X-45.0700 Y-8.9989
G01 X-45.0817 Y-8.9954
G01 X-45.0940 Y-8.9934
G01 X-45.1043 Y-8.9928
G01 X-45.5670 Y-8.9928
G01 X-45.5670 Y-8.6354
G01 X-45.1043 Y-8.6354
G01 X-45.0990 Y-8.6353
G01 X-45.0891 Y-8.6343
G01 X-45.0758 Y-8.6313
G01 X-45.0647 Y-8.6273
G01 X-45.0539 Y-8.6218
G01 X-45.0443 Y-8.6154
G01 X-45.0362 Y-8.6086
G01 X-45.0292 Y-8.6014
G01 X-45.0206 Y-8.5901
G01 X-45.0142 Y-8.5787
G01 X-45.0094 Y-8.5668
G01 X-45.0060 Y-8.5537
G01 X-45.0046 Y-8.5427
G01 X-45.0043 Y-8.5354
G01 X-45.0043 Y-8.0674
G01 X-44.6407 Y-8.0674
G01 X-44.6363 Y-8.5364
G01 X-44.6352 Y-8.5501
G01 X-44.6320 Y-8.5643
G01 X-44.6283 Y-8.5747
G01 X-44.6222 Y-8.5866
G01 X-44.6167 Y-8.5949
G01 X-44.6079 Y-8.6052
G01 X-44.5998 Y-8.6127
G01 X-44.5910 Y-8.6192
G01 X-44.5810 Y-8.6249
G01 X-44.5690 Y-8.6299
G01 X-44.5589 Y-8.6329
G01 X-44.5466 Y-8.6349
G01 X-44.5363 Y-8.6354
G01 X-44.0789 Y-8.6354
G01 X-44.0789 Y-8.9928
G01 X-44.5416 Y-8.9928
G01 X-44.5519 Y-8.9934
G01 X-44.5642 Y-8.9954
G01 X-44.5759 Y-8.9989
G01 X-44.5863 Y-9.0034
G01 X-44.5969 Y-9.0095
G01 X-44.6060 Y-9.0163
G01 X-44.6168 Y-9.0268
G01 X-44.6253 Y-9.0382
G01 X-44.6318 Y-9.0496
G01 X-44.6366 Y-9.0615
G01 X-44.6391 Y-9.0707
G01 X-44.6406 Y-9.0784
G01 X-44.6414 Y-9.0856
G01 X-44.6416 Y-9.0928
G01 X-44.6416 Y-10.1182
G01 X-45.1097 Y-10.1184
G01 X-45.1195 Y-10.1194
G01 X-45.1269 Y-10.1208
G01 X-45.1328 Y-10.1224
G01 X-45.1439 Y-10.1264
G01 X-45.1547 Y-10.1318
G01 X-45.1596 Y-10.1349
G01 X-45.1687 Y-10.1417
G01 X-45.1760 Y-10.1485
G01 X-45.1824 Y-10.1557
G01 X-45.1880 Y-10.1635
G01 X-45.1926 Y-10.1713
G01 X-45.1961 Y-10.1786
G01 X-45.1993 Y-10.1868
G01 X-45.2018 Y-10.1961
G01 X-45.2033 Y-10.2038
G01 X-45.2040 Y-10.2110
G01 X-45.2043 Y-10.2182
G01 X-45.2043 Y-10.6862
G01 X-46.6924 Y-10.6862
G00 Z1.0000
G00 X-46.8924 Y-9.5565
G01 F20.00
G01 Z-0.1900
G01 F20.00
G01 X-47.2551 Y-9.5599
G01 X-47.2551 Y-9.1928
G01 X-46.8924 Y-9.1928
G01 X-46.8924 Y-9.5565
G01 X-47.0324 Y-9.4178
G01 X-47.1151 Y-9.4186
G01 X-47.1151 Y-9.3328
G01 X-47.0324 Y-9.3328
G01 X-47.0324 Y-9.4178
G00 Z1.0000
G00 X-47.5378 Y-8.1970
G01 F20.00
G01 Z-0.1900
G01 F20.00
G01 X-47.5378 Y-7.9649
G01 X-47.5385 Y-7.9450
G01 X-47.5409 Y-7.9189
G01 X-47.5446 Y-7.8958
G01 X-47.5486 Y-7.8776
G01 X-47.5534 Y-7.8597
G01 X-47.5607 Y-7.8374
G01 X-47.5678 Y-7.8195
G01 X-47.5765 Y-7.8003
G01 X-47.5854 Y-7.7833
G01 X-47.5964 Y-7.7646
G01 X-47.6038 Y-7.7534
G01 X-47.6143 Y-7.7388
G01 X-47.6251 Y-7.7251
G01 X-47.6369 Y-7.7115
G01 X-47.6502 Y-7.6977
G01 X-47.6615 Y-7.6869
G01 X-47.6707 Y-7.6788
G01 X-47.6836 Y-7.6682
G01 X-47.6959 Y-7.6590
G01 X-47.7096 Y-7.6496
G01 X-47.7201 Y-7.6429
G01 X-47.7346 Y-7.6345
G01 X-47.7487 Y-7.6272
G01 X-47.7630 Y-7.6204
G01 X-47.7777 Y-7.6142
G01 X-47.7937 Y-7.6083
G01 X-47.8165 Y-7.6012
G01 X-47.8414 Y-7.5952
G01 X-47.8669 Y-7.5909
G01 X-47.8905 Y-7.5884
G01 X-47.9178 Y-7.5874
G01 X-48.1005 Y-7.5874
G01 X-48.1005 Y-7.4022
G01 X-48.1012 Y-7.3823
G01 X-48.1036 Y-7.3562
G01 X-48.1059 Y-7.3410
G01 X-48.1092 Y-7.3238
G01 X-48.1133 Y-7.3069
G01 X-48.1185 Y-7.2891
G01 X-48.1245 Y-7.2718
G01 X-48.1305 Y-7.2568
G01 X-48.1392 Y-7.2376
G01 X-48.1473 Y-7.2221
G01 X-47.3551 Y-7.2221
G01 X-47.3386 Y-7.2217
G01 X-47.3194 Y-7.2204
G01 X-47.2947 Y-7.2172
G01 X-47.2758 Y-7.2137
G01 X-47.2538 Y-7.2083
G01 X-47.2311 Y-7.2012
G01 X-47.2113 Y-7.1938
G01 X-47.1921 Y-7.1853
G01 X-47.1724 Y-7.1752
G01 X-47.1724 Y-7.9674
G01 X-47.1719 Y-7.9849
G01 X-47.1705 Y-8.0050
G01 X-47.1676 Y-8.0274
G01 X-47.1636 Y-8.0484
G01 X-47.1577 Y-8.0719
G01 X-47.1511 Y-8.0928
G01 X-47.1435 Y-8.1128
G01 X-47.1361 Y-8.1294
G01 X-47.1256 Y-8.1501
G01 X-47.3570 Y-8.1501
G01 X-47.3787 Y-8.1509
G01 X-47.3976 Y-8.1526
G01 X-47.4181 Y-8.1554
G01 X-47.4359 Y-8.1588
G01 X-47.4552 Y-8.1636
G01 X-47.4716 Y-8.1685
G01 X-47.4891 Y-8.1746
G01 X-47.5018 Y-8.1797
G01 X-47.5179 Y-8.1868
G01 X-47.5378 Y-8.1970
G00 Z1.0000
G00 X-47.9622 Y-7.3630
G01 F20.00
G01 Z-0.1900
G01 F20.00
G01 X-47.3541 Y-7.3621
G01 X-47.3331 Y-7.3616
G01 X-47.3124 Y-7.3603
G01 X-47.3124 Y-7.9674
G01 X-47.3118 Y-7.9899
G01 X-47.3106 Y-8.0099
G01 X-47.3654 Y-8.0103
G01 X-47.3978 Y-8.0119
G01 X-47.3978 Y-7.9636
G01 X-47.3984 Y-7.9424
G01 X-47.4003 Y-7.9172
G01 X-47.4035 Y-7.8904
G01 X-47.4079 Y-7.8652
G01 X-47.4144 Y-7.8373
G01 X-47.4213 Y-7.8128
G01 X-47.4305 Y-7.7860
G01 X-47.4415 Y-7.7589
G01 X-47.4529 Y-7.7344
G01 X-47.4661 Y-7.7097
G01 X-47.4803 Y-7.6864
G01 X-47.4952 Y-7.6645
G01 X-47.5137 Y-7.6401
G01 X-47.5330 Y-7.6177
G01 X-47.5510 Y-7.5989
G01 X-47.5713 Y-7.5797
G01 X-47.5922 Y-7.5621
G01 X-47.6149 Y-7.5448
G01 X-47.6381 Y-7.5291
G01 X-47.6631 Y-7.5141
G01 X-47.6861 Y-7.5019
G01 X-47.7105 Y-7.4906
G01 X-47.7377 Y-7.4797
G01 X-47.7642 Y-7.4707
G01 X-47.7900 Y-7.4634
G01 X-47.8143 Y-7.4579
G01 X-47.8442 Y-7.4527
G01 X-47.8694 Y-7.4497
G01 X-47.8958 Y-7.4479
G01 X-47.9150 Y-7.4475
G01 X-47.9605 Y-7.4474
G01 X-47.9606 Y-7.3946
G01 X-47.9622 Y-7.3630
G01 X-48.8136 Y-7.0247
G01 X-49.0450 Y-7.0248
G01 X-49.0668 Y-7.0255
G01 X-49.0892 Y-7.0276
G01 X-49.1067 Y-7.0301
G01 X-49.1265 Y-7.0340
G01 X-49.1444 Y-7.0385
G01 X-49.1636 Y-7.0444
G01 X-49.1833 Y-7.0516
G01 X-49.1979 Y-7.0577
G01 X-49.2153 Y-7.0660
G01 X-49.2312 Y-7.0745
G01 X-49.2312 Y-5.7141
G01 X-49.2316 Y-5.6993
G01 X-49.2326 Y-5.6841
G01 X-49.2343 Y-5.6681
G01 X-49.2366 Y-5.6529
G01 X-49.2393 Y-5.6387
G01 X-49.2431 Y-5.6221
G01 X-49.2506 Y-5.5967
G01 X-47.7156 Y-5.5967
G01 X-47.7231 Y-5.6221
G01 X-47.7283 Y-5.6451
G01 X-47.7319 Y-5.6681
G01 X-47.7344 Y-5.6942
G01 X-47.7351 Y-5.7167
G01 X-47.7351 Y-5.8994
G01 X-48.4805 Y-5.8994
G01 X-48.5077 Y-5.9004
G01 X-48.5345 Y-5.9033
G01 X-48.5511 Y-5.9060
G01 X-48.5670 Y-5.9094
G01 X-48.5853 Y-5.9141
G01 X-48.6045 Y-5.9202
G01 X-48.6206 Y-5.9262
G01 X-48.6404 Y-5.9347
G01 X-48.6562 Y-5.9424
G01 X-48.6724 Y-5.9514
G01 X-48.6886 Y-5.9615
G01 X-48.7024 Y-5.9709
G01 X-48.7146 Y-5.9801
G01 X-48.7304 Y-5.9931
G01 X-48.7445 Y-6.0061
G01 X-48.7579 Y-6.0197
G01 X-48.7702 Y-6.0335
G01 X-48.7812 Y-6.0471
G01 X-48.7917 Y-6.0613
G01 X-48.8000 Y-6.0737
G01 X-48.8143 Y-6.0979
G01 X-48.8217 Y-6.1122
G01 X-48.8282 Y-6.1262
G01 X-48.8342 Y-6.1406
G01 X-48.8392 Y-6.1540
G01 X-48.8434 Y-6.1670
G01 X-48.8485 Y-6.1848
G01 X-48.8517 Y-6.1984
G01 X-48.8546 Y-6.2130
G01 X-48.8563 Y-6.2232
G01 X-48.8586 Y-6.2418
G01 X-48.8603 Y-6.2692
G01 X-48.8605 Y-6.8421
G01 X-48.8597 Y-6.8645
G01 X-48.8578 Y-6.8868
G01 X-48.8551 Y-6.9058
G01 X-48.8504 Y-6.9289
G01 X-48.8458 Y-6.9465
G01 X-48.8392 Y-6.9675
G01 X-48.8315 Y-6.9874
G01 X-48.8242 Y-7.0040
G01 X-48.8136 Y-7.0247
G01 X-49.0912 Y-6.8870
G01 X-49.0912 Y-5.7367
G01 X-47.8751 Y-5.7367
G01 X-47.8751 Y-5.7594
G01 X-48.4842 Y-5.7594
G01 X-48.5043 Y-5.7599
G01 X-48.5253 Y-5.7613
G01 X-48.5443 Y-5.7633
G01 X-48.5682 Y-5.7668
G01 X-48.5882 Y-5.7707
G01 X-48.6082 Y-5.7753
G01 X-48.6252 Y-5.7800
G01 X-48.6443 Y-5.7859
G01 X-48.6606 Y-5.7916
G01 X-48.6786 Y-5.7986
G01 X-48.6983 Y-5.8072
G01 X-48.7152 Y-5.8154
G01 X-48.7339 Y-5.8253
G01 X-48.7500 Y-5.8347
G01 X-48.7649 Y-5.8441
G01 X-48.7789 Y-5.8536
G01 X-48.7957 Y-5.8658
G01 X-48.8104 Y-5.8775
G01 X-48.8231 Y-5.8883
G01 X-48.8386 Y-5.9024
G01 X-48.8510 Y-5.9145
G01 X-48.8675 Y-5.9322
G01 X-48.8815 Y-5.9483
G01 X-48.8952 Y-5.9658
G01 X-48.9068 Y-5.9818
G01 X-48.9198 Y-6.0012
G01 X-48.9305 Y-6.0189
G01 X-48.9406 Y-6.0372
G01 X-48.9504 Y-6.0567
G01 X-48.9590 Y-6.0759
G01 X-48.9672 Y-6.0965
G01 X-48.9732 Y-6.1134
G01 X-48.9793 Y-6.1327
G01 X-48.9855 Y-6.1556
G01 X-48.9903 Y-6.1771
G01 X-48.9938 Y-6.1966
G01 X-48.9967 Y-6.2176
G01 X-48.9986 Y-6.2367
G01 X-48.9999 Y-6.2569
G01 X-49.0005 Y-6.2781
G01 X-49.0005 Y-6.8421
G01 X-48.9999 Y-6.8646
G01 X-48.9986 Y-6.8847
G01 X-49.0544 Y-6.8849
G01 X-49.0742 Y-6.8857
G01 X-49.0912 Y-6.8870
G00 Z1.0000
G00 X-49.1432 Y-8.5354
G01 F20.00
G01 Z-0.1900
G01 F20.00
G01 X-49.1429 Y-8.5427
G01 X-49.1415 Y-8.5537
G01 X-49.1395 Y-8.5622
G01 X-49.1365 Y-8.5713
G01 X-49.1315 Y-8.5823
G01 X-49.1269 Y-8.5901
G01 X-49.1212 Y-8.5979
G01 X-49.1149 Y-8.6051
G01 X-49.1075 Y-8.6120
G01 X-49.0984 Y-8.6188
G01 X-49.0935 Y-8.6218
G01 X-49.0827 Y-8.6273
G01 X-49.0717 Y-8.6313
G01 X-49.0621 Y-8.6336
G01 X-49.0534 Y-8.6349
G01 X-49.0432 Y-8.6354
G01 X-47.9124 Y-8.6353
G01 X-47.9026 Y-8.6343
G01 X-47.8952 Y-8.6329
G01 X-47.8893 Y-8.6313
G01 X-47.8782 Y-8.6273
G01 X-47.8674 Y-8.6218
G01 X-47.8625 Y-8.6188
G01 X-47.8534 Y-8.6120
G01 X-47.8460 Y-8.6051
G01 X-47.8397 Y-8.5979
G01 X-47.8340 Y-8.5901
G01 X-47.8294 Y-8.5823
G01 X-47.8260 Y-8.5751
G01 X-47.8228 Y-8.5668
G01 X-47.8202 Y-8.5575
G01 X-47.8188 Y-8.5498
G01 X-47.8180 Y-8.5427
G01 X-47.8178 Y-8.5354
G01 X-47.8178 Y-7.9674
G01 X-47.8180 Y-7.9602
G01 X-47.8188 Y-7.9530
G01 X-47.8202 Y-7.9456
G01 X-47.8228 Y-7.9361
G01 X-47.8276 Y-7.9242
G01 X-47.8342 Y-7.9126
G01 X-47.8426 Y-7.9015
G01 X-47.8534 Y-7.8909
G01 X-47.8622 Y-7.8843
G01 X-47.8738 Y-7.8776
G01 X-47.8843 Y-7.8732
G01 X-47.8943 Y-7.8702
G01 X-47.9075 Y-7.8680
G01 X-47.9178 Y-7.8674
G01 X-48.3805 Y-7.8674
G01 X-48.3805 Y-7.4047
G01 X-48.3807 Y-7.3975
G01 X-48.3821 Y-7.3866
G01 X-48.3841 Y-7.3781
G01 X-48.3871 Y-7.3689
G01 X-48.3903 Y-7.3615
G01 X-48.3943 Y-7.3540
G01 X-48.3996 Y-7.3459
G01 X-48.4053 Y-7.3388
G01 X-48.4123 Y-7.3315
G01 X-48.4205 Y-7.3247
G01 X-48.4249 Y-7.3216
G01 X-48.4329 Y-7.3168
G01 X-48.4417 Y-7.3126
G01 X-48.4519 Y-7.3089
G01 X-48.4611 Y-7.3066
G01 X-48.4702 Y-7.3053
G01 X-48.4805 Y-7.3047
G01 X-49.0432 Y-7.3047
G01 X-49.0534 Y-7.3053
G01 X-49.0666 Y-7.3075
G01 X-49.0767 Y-7.3105
G01 X-49.0871 Y-7.3149
G01 X-49.0988 Y-7.3216
G01 X-49.1075 Y-7.3282
G01 X-49.1183 Y-7.3388
G01 X-49.1268 Y-7.3499
G01 X-49.1333 Y-7.3615
G01 X-49.1381 Y-7.3735
G01 X-49.1415 Y-7.3866
G01 X-49.1429 Y-7.3975
G01 X-49.1432 Y-7.4047
G01 X-49.1432 Y-8.5354
G01 X-49.2832 Y-8.5354
G01 X-49.2821 Y-8.5579
G01 X-49.2802 Y-8.5727
G01 X-49.2764 Y-8.5917
G01 X-49.2721 Y-8.6075
G01 X-49.2661 Y-8.6242
G01 X-49.2583 Y-8.6418
G01 X-49.2519 Y-8.6539
G01 X-49.2421 Y-8.6696
G01 X-49.2326 Y-8.6828
G01 X-49.2211 Y-8.6964
G01 X-49.2092 Y-8.7087
G01 X-49.1946 Y-8.7216
G01 X-49.1792 Y-8.7331
G01 X-49.1602 Y-8.7450
G01 X-49.1469 Y-8.7518
G01 X-49.1292 Y-8.7595
G01 X-49.1157 Y-8.7642
G01 X-49.1075 Y-8.7666
G01 X-49.0860 Y-8.7716
G01 X-49.0644 Y-8.7745
G01 X-49.0432 Y-8.7754
G01 X-47.9140 Y-8.7754
G01 X-47.8965 Y-8.7745
G01 X-47.8787 Y-8.7722
G01 X-47.8593 Y-8.7682
G01 X-47.8452 Y-8.7642
G01 X-47.8317 Y-8.7595
G01 X-47.8140 Y-8.7518
G01 X-47.8008 Y-8.7450
G01 X-47.7885 Y-8.7376
G01 X-47.7770 Y-8.7298
G01 X-47.7663 Y-8.7216
G01 X-47.7569 Y-8.7135
G01 X-47.7481 Y-8.7052
G01 X-47.7398 Y-8.6964
G01 X-47.7284 Y-8.6828
G01 X-47.7188 Y-8.6696
G01 X-47.7123 Y-8.6594
G01 X-47.7045 Y-8.6454
G01 X-47.6985 Y-8.6331
G01 X-47.6926 Y-8.6184
G01 X-47.6889 Y-8.6075
G01 X-47.6857 Y-8.5964
G01 X-47.6823 Y-8.5819
G01 X-47.6807 Y-8.5727
G01 X-47.6789 Y-8.5579
G01 X-47.6778 Y-8.5354
G01 X-47.6779 Y-7.9624
G01 X-47.6781 Y-7.9551
G01 X-47.6796 Y-7.9379
G01 X-47.6813 Y-7.9265
G01 X-47.6844 Y-7.9116
G01 X-47.6874 Y-7.9003
G01 X-47.6909 Y-7.8891
G01 X-47.6948 Y-7.8787
G01 X-47.7002 Y-7.8661
G01 X-47.7075 Y-7.8519
G01 X-47.7128 Y-7.8427
G01 X-47.7190 Y-7.8330
G01 X-47.7284 Y-7.8201
G01 X-47.7398 Y-7.8065
G01 X-47.7481 Y-7.7977
G01 X-47.7569 Y-7.7894
G01 X-47.7663 Y-7.7813
G01 X-47.7768 Y-7.7732
G01 X-47.7875 Y-7.7659
G01 X-47.7977 Y-7.7597
G01 X-47.8097 Y-7.7532
G01 X-47.8210 Y-7.7478
G01 X-47.8336 Y-7.7427
G01 X-47.8458 Y-7.7385
G01 X-47.8580 Y-7.7350
G01 X-47.8685 Y-7.7326
G01 X-47.8847 Y-7.7297
G01 X-47.9015 Y-7.7280
G01 X-47.9140 Y-7.7275
G01 X-48.2405 Y-7.7274
G01 X-48.2406 Y-7.3997
G01 X-48.2415 Y-7.3823
G01 X-48.2434 Y-7.3676
G01 X-48.2457 Y-7.3548
G01 X-48.2483 Y-7.3442
G01 X-48.2515 Y-7.3329
G01 X-48.2575 Y-7.3160
G01 X-48.2629 Y-7.3034
G01 X-48.2701 Y-7.2892
G01 X-48.2780 Y-7.2759
G01 X-48.2844 Y-7.2663
G01 X-48.2951 Y-7.2523
G01 X-48.3025 Y-7.2438
G01 X-48.3144 Y-7.2315
G01 X-48.3233 Y-7.2234
G01 X-48.3334 Y-7.2151
G01 X-48.3439 Y-7.2074
G01 X-48.3547 Y-7.2004
G01 X-48.3688 Y-7.1923
G01 X-48.3785 Y-7.1875
G01 X-48.3910 Y-7.1821
G01 X-48.4085 Y-7.1758
G01 X-48.4206 Y-7.1723
G01 X-48.4312 Y-7.1699
G01 X-48.4523 Y-7.1664
G01 X-48.4642 Y-7.1653
G01 X-48.4767 Y-7.1648
G01 X-49.0432 Y-7.1647
G01 X-49.0644 Y-7.1657
G01 X-49.0762 Y-7.1671
G01 X-49.0867 Y-7.1687
G01 X-49.1081 Y-7.1737
G01 X-49.1201 Y-7.1774
G01 X-49.1326 Y-7.1821
G01 X-49.1451 Y-7.1875
G01 X-49.1548 Y-7.1923
G01 X-49.1735 Y-7.2032
G01 X-49.1841 Y-7.2105
G01 X-49.1946 Y-7.2186
G01 X-49.2041 Y-7.2267
G01 X-49.2128 Y-7.2350
G01 X-49.2211 Y-7.2438
G01 X-49.2285 Y-7.2523
G01 X-49.2353 Y-7.2610
G01 X-49.2419 Y-7.2703
G01 X-49.2514 Y-7.2855
G01 X-49.2607 Y-7.3034
G01 X-49.2683 Y-7.3218
G01 X-49.2721 Y-7.3329
G01 X-49.2754 Y-7.3442
G01 X-49.2796 Y-7.3638
G01 X-49.2821 Y-7.3823
G01 X-49.2832 Y-7.4047
G01 X-49.2832 Y-8.5354
G01 X-49.2832 Y-9.6555
G01 X-49.2831 Y-9.6606
G01 X-49.2821 Y-9.6779
G01 X-49.2802 Y-9.6928
G01 X-49.2764 Y-9.7118
G01 X-49.2721 Y-9.7276
G01 X-49.2661 Y-9.7443
G01 X-49.2583 Y-9.7619
G01 X-49.2486 Y-9.7795
G01 X-49.2393 Y-9.7938
G01 X-49.2326 Y-9.8029
G01 X-49.2211 Y-9.8165
G01 X-49.2128 Y-9.8252
G01 X-49.2041 Y-9.8336
G01 X-49.1946 Y-9.8417
G01 X-49.1839 Y-9.8499
G01 X-49.1724 Y-9.8577
G01 X-49.1602 Y-9.8650
G01 X-49.1469 Y-9.8719
G01 X-49.1345 Y-9.8774
G01 X-49.1215 Y-9.8823
G01 X-49.1075 Y-9.8867
G01 X-49.0948 Y-9.8899
G01 X-49.0823 Y-9.8923
G01 X-49.0713 Y-9.8938
G01 X-49.0595 Y-9.8949
G01 X-49.0432 Y-9.8955
G01 X-48.4805 Y-9.8955
G01 X-48.4642 Y-9.8949
G01 X-48.4474 Y-9.8932
G01 X-48.4325 Y-9.8907
G01 X-48.4161 Y-9.8867
G01 X-48.4021 Y-9.8823
G01 X-48.3818 Y-9.8743
G01 X-48.3691 Y-9.8681
G01 X-48.3561 Y-9.8607
G01 X-48.3397 Y-9.8499
G01 X-48.3290 Y-9.8417
G01 X-48.3196 Y-9.8336
G01 X-48.3108 Y-9.8252
G01 X-48.3025 Y-9.8165
G01 X-48.2951 Y-9.8079
G01 X-48.2883 Y-9.7993
G01 X-48.2815 Y-9.7897
G01 X-48.2750 Y-9.7795
G01 X-48.2698 Y-9.7705
G01 X-48.2629 Y-9.7568
G01 X-48.2575 Y-9.7443
G01 X-48.2537 Y-9.7340
G01 X-48.2502 Y-9.7230
G01 X-48.2472 Y-9.7118
G01 X-48.2440 Y-9.6966
G01 X-48.2423 Y-9.6851
G01 X-48.2408 Y-9.6679
G01 X-48.2405 Y-9.6555
G01 X-48.2406 Y-9.0877
G01 X-48.2415 Y-9.0704
G01 X-48.2434 Y-9.0556
G01 X-48.2450 Y-9.0463
G01 X-48.2502 Y-9.0254
G01 X-48.2553 Y-9.0098
G01 X-48.2629 Y-8.9915
G01 X-48.2718 Y-8.9743
G01 X-48.2815 Y-8.9587
G01 X-48.2883 Y-8.9491
G01 X-48.2951 Y-8.9404
G01 X-48.3025 Y-8.9319
G01 X-48.3108 Y-8.9231
G01 X-48.3233 Y-8.9114
G01 X-48.3397 Y-8.8984
G01 X-48.3561 Y-8.8876
G01 X-48.3635 Y-8.8833
G01 X-48.3767 Y-8.8764
G01 X-48.3944 Y-8.8688
G01 X-48.4079 Y-8.8641
G01 X-48.4161 Y-8.8616
G01 X-48.4325 Y-8.8577
G01 X-48.4474 Y-8.8551
G01 X-48.4592 Y-8.8538
G01 X-48.4805 Y-8.8528
G01 X-49.0523 Y-8.8530
G01 X-49.0713 Y-8.8545
G01 X-49.0860 Y-8.8567
G01 X-49.1016 Y-8.8601
G01 X-49.1157 Y-8.8641
G01 X-49.1292 Y-8.8688
G01 X-49.1469 Y-8.8764
G01 X-49.1602 Y-8.8833
G01 X-49.1724 Y-8.8907
G01 X-49.1902 Y-8.9032
G01 X-49.2003 Y-8.9114
G01 X-49.2092 Y-8.9196
G01 X-49.2177 Y-8.9282
G01 X-49.2256 Y-8.9369
G01 X-49.2353 Y-8.9491
G01 X-49.2421 Y-8.9587
G01 X-49.2486 Y-8.9689
G01 X-49.2565 Y-8.9828
G01 X-49.2607 Y-8.9915
G01 X-49.2661 Y-9.0041
G01 X-49.2721 Y-9.0208
G01 X-49.2753 Y-9.0319
G01 X-49.2778 Y-9.0425
G01 X-49.2802 Y-9.0556
G01 X-49.2821 Y-9.0704
G01 X-49.2828 Y-9.0805
G01 X-49.2831 Y-9.0877
G01 X-49.2832 Y-9.0928
G01 X-49.2832 Y-9.6555
G01 X-49.1432 Y-9.6555
G01 X-49.1429 Y-9.6628
G01 X-49.1421 Y-9.6699
G01 X-49.1407 Y-9.6776
G01 X-49.1381 Y-9.6869
G01 X-49.1350 Y-9.6951
G01 X-49.1315 Y-9.7024
G01 X-49.1269 Y-9.7102
G01 X-49.1212 Y-9.7180
G01 X-49.1113 Y-9.7287
G01 X-49.1032 Y-9.7355
G01 X-49.0984 Y-9.7388
G01 X-49.0935 Y-9.7419
G01 X-49.0827 Y-9.7473
G01 X-49.0717 Y-9.7514
G01 X-49.0658 Y-9.7529
G01 X-49.0534 Y-9.7550
G01 X-49.0432 Y-9.7555
G01 X-48.4751 Y-9.7554
G01 X-48.4653 Y-9.7544
G01 X-48.4578 Y-9.7529
G01 X-48.4519 Y-9.7514
G01 X-48.4409 Y-9.7473
G01 X-48.4301 Y-9.7419
G01 X-48.4252 Y-9.7388
G01 X-48.4205 Y-9.7355
G01 X-48.4123 Y-9.7287
G01 X-48.4053 Y-9.7215
G01 X-48.3996 Y-9.7143
G01 X-48.3941 Y-9.7059
G01 X-48.3903 Y-9.6988
G01 X-48.3871 Y-9.6914
G01 X-48.3841 Y-9.6823
G01 X-48.3821 Y-9.6738
G01 X-48.3807 Y-9.6628
G01 X-48.3805 Y-9.6555
G01 X-48.3805 Y-9.0928
G01 X-48.3807 Y-9.0856
G01 X-48.3815 Y-9.0784
G01 X-48.3829 Y-9.0707
G01 X-48.3855 Y-9.0615
G01 X-48.3886 Y-9.0532
G01 X-48.3921 Y-9.0460
G01 X-48.3967 Y-9.0382
G01 X-48.4024 Y-9.0304
G01 X-48.4087 Y-9.0231
G01 X-48.4161 Y-9.0163
G01 X-48.4205 Y-9.0128
G01 X-48.4301 Y-9.0064
G01 X-48.4357 Y-9.0034
G01 X-48.4461 Y-8.9989
G01 X-48.4519 Y-8.9970
G01 X-48.4615 Y-8.9946
G01 X-48.4702 Y-8.9934
G01 X-48.4805 Y-8.9928
G01 X-49.0485 Y-8.9930
G01 X-49.0621 Y-8.9946
G01 X-49.0717 Y-8.9970
G01 X-49.0775 Y-8.9989
G01 X-49.0879 Y-9.0034
G01 X-49.0935 Y-9.0064
G01 X-49.1032 Y-9.0128
G01 X-49.1113 Y-9.0196
G01 X-49.1183 Y-9.0268
G01 X-49.1240 Y-9.0340
G01 X-49.1315 Y-9.0460
G01 X-49.1365 Y-9.0569
G01 X-49.1395 Y-9.0661
G01 X-49.1415 Y-9.0746
G01 X-49.1429 Y-9.0856
G01 X-49.1432 Y-9.0928
G01 X-49.1432 Y-9.6555
G00 Z1.0000
G00 X-48.3858 Y-11.4489
G01 F20.00
G01 Z-0.1900
G01 F20.00
G01 X-48.0178 Y-11.4489
G01 X-48.0178 Y-11.8107
G01 X-48.3858 Y-11.8072
G01 X-48.3858 Y-11.4489
G01 X-48.2458 Y-11.5889
G01 X-48.1578 Y-11.5889
G01 X-48.1578 Y-11.6693
G01 X-48.2458 Y-11.6685
G01 X-48.2458 Y-11.5889
G00 Z1.0000
G00 X-49.1432 Y-12.3743
G01 F20.00
G01 Z-0.1900
G01 F20.00
G01 X-50.6312 Y-12.3743
G01 X-50.6312 Y-12.0116
G01 X-49.1432 Y-12.0116
G01 X-49.1432 Y-12.3743
G01 X-49.2832 Y-12.2343
G01 X-50.4912 Y-12.2343
G01 X-50.4912 Y-12.1516
G01 X-49.2832 Y-12.1516
G01 X-49.2832 Y-12.2343
G00 Z1.0000
G00 X-49.9338 Y-13.3597
G01 F20.00
G01 Z-0.1900
G01 F20.00
G01 X-49.9338 Y-13.2770
G01 X-49.8512 Y-13.2770
G01 X-49.8512 Y-13.3597
G01 X-49.9338 Y-13.3597
G01 X-50.0738 Y-13.4997
G01 X-50.0738 Y-13.1370
G01 X-49.7112 Y-13.1370
G01 X-49.7112 Y-13.4997
G01 X-50.0738 Y-13.4997
G00 Z1.0000
G00 X-50.7812 Y-14.2070
G01 F20.00
G01 Z-0.1900
G01 F20.00
G01 X-50.7675 Y-14.2060
G01 X-50.7468 Y-14.2052
G01 X-50.6920 Y-14.2051
G01 X-50.6937 Y-14.1725
G01 X-50.6938 Y-14.1197
G01 X-50.7792 Y-14.1197
G01 X-50.7794 Y-14.1725
G01 X-50.7799 Y-14.1874
G01 X-50.7812 Y-14.2070
G01 X-51.9064 Y-14.6824
G01 X-51.9048 Y-14.7149
G01 X-51.9046 Y-14.7695
G01 X-51.8839 Y-14.7682
G01 X-51.8619 Y-14.7677
G01 X-51.2992 Y-14.7677
G01 X-51.2772 Y-14.7682
G01 X-51.2565 Y-14.7695
G01 X-51.2564 Y-14.7149
G01 X-51.2559 Y-14.7000
G01 X-51.2546 Y-14.6804
G01 X-51.2772 Y-14.6819
G01 X-51.2992 Y-14.6824
G01 X-51.9064 Y-14.6824
G01 X-52.0914 Y-14.5424
G01 X-52.0833 Y-14.5581
G01 X-52.0746 Y-14.5771
G01 X-52.0687 Y-14.5921
G01 X-52.0628 Y-14.6091
G01 X-52.0576 Y-14.6267
G01 X-52.0528 Y-14.6465
G01 X-52.0494 Y-14.6649
G01 X-52.0473 Y-14.6803
G01 X-52.0453 Y-14.7026
G01 X-52.0446 Y-14.7225
G01 X-52.0446 Y-14.9546
G01 X-52.0247 Y-14.9444
G01 X-51.9997 Y-14.9337
G01 X-51.9785 Y-14.9261
G01 X-51.9562 Y-14.9197
G01 X-51.9312 Y-14.9141
G01 X-51.9079 Y-14.9106
G01 X-51.8856 Y-14.9085
G01 X-51.8619 Y-14.9077
G01 X-51.2992 Y-14.9077
G01 X-51.2756 Y-14.9085
G01 X-51.2567 Y-14.9102
G01 X-51.2362 Y-14.9130
G01 X-51.2151 Y-14.9172
G01 X-51.1950 Y-14.9224
G01 X-51.1769 Y-14.9280
G01 X-51.1561 Y-14.9357
G01 X-51.1364 Y-14.9444
G01 X-51.1165 Y-14.9546
G01 X-51.1164 Y-14.7149
G01 X-51.1158 Y-14.7026
G01 X-51.1139 Y-14.6803
G01 X-51.1111 Y-14.6611
G01 X-51.1077 Y-14.6435
G01 X-51.1008 Y-14.6169
G01 X-51.0925 Y-14.5921
G01 X-51.0876 Y-14.5797
G01 X-51.0815 Y-14.5657
G01 X-51.0695 Y-14.5420
G01 X-51.0566 Y-14.5203
G01 X-51.0479 Y-14.5073
G01 X-51.0400 Y-14.4964
G01 X-51.0241 Y-14.4767
G01 X-51.0140 Y-14.4654
G01 X-51.0041 Y-14.4553
G01 X-50.9836 Y-14.4364
G01 X-50.9707 Y-14.4258
G01 X-50.9612 Y-14.4186
G01 X-50.9398 Y-14.4040
G01 X-50.9201 Y-14.3924
G01 X-50.8942 Y-14.3793
G01 X-50.8705 Y-14.3695
G01 X-50.8531 Y-14.3634
G01 X-50.8408 Y-14.3597
G01 X-50.8173 Y-14.3538
G01 X-50.7995 Y-14.3503
G01 X-50.7825 Y-14.3479
G01 X-50.7638 Y-14.3461
G01 X-50.7494 Y-14.3453
G01 X-50.5070 Y-14.3451
G01 X-50.5152 Y-14.3293
G01 X-50.5238 Y-14.3103
G01 X-50.5298 Y-14.2954
G01 X-50.5357 Y-14.2783
G01 X-50.5409 Y-14.2608
G01 X-50.5450 Y-14.2439
G01 X-50.5484 Y-14.2263
G01 X-50.5507 Y-14.2109
G01 X-50.5531 Y-14.1848
G01 X-50.5538 Y-14.1649
G01 X-50.5538 Y-13.9797
G01 X-50.9192 Y-13.9797
G01 X-50.9192 Y-14.1624
G01 X-50.9197 Y-14.1798
G01 X-50.9211 Y-14.1999
G01 X-50.9234 Y-14.2186
G01 X-50.9251 Y-14.2290
G01 X-50.9281 Y-14.2439
G01 X-50.9322 Y-14.2608
G01 X-50.9340 Y-14.2673
G01 X-50.9350 Y-14.2705
G01 X-50.9364 Y-14.2751
G01 X-50.9422 Y-14.2925
G01 X-50.9481 Y-14.3077
G01 X-50.9543 Y-14.3217
G01 X-50.9623 Y-14.3380
G01 X-50.9730 Y-14.3572
G01 X-50.9830 Y-14.3730
G01 X-50.9937 Y-14.3883
G01 X-51.0066 Y-14.4047
G01 X-51.0184 Y-14.4183
G01 X-51.0316 Y-14.4321
G01 X-51.0429 Y-14.4429
G01 X-51.0578 Y-14.4558
G01 X-51.0682 Y-14.4640
G01 X-51.0825 Y-14.4744
G01 X-51.1008 Y-14.4864
G01 X-51.1156 Y-14.4950
G01 X-51.1326 Y-14.5038
G01 X-51.1452 Y-14.5097
G01 X-51.1653 Y-14.5179
G01 X-51.1827 Y-14.5240
G01 X-51.1991 Y-14.5289
G01 X-51.2151 Y-14.5329
G01 X-51.2299 Y-14.5360
G01 X-51.2483 Y-14.5389
G01 X-51.2636 Y-14.5407
G01 X-51.2756 Y-14.5416
G01 X-51.2917 Y-14.5423
G01 X-51.2992 Y-14.5424
G01 X-52.0914 Y-14.5424
G00 Z1.0000
G00 X-52.1019 Y-13.0370
G01 F20.00
G01 Z-0.1900
G01 F20.00
G01 X-52.1019 Y-12.4743
G01 X-52.1016 Y-12.4620
G01 X-52.1001 Y-12.4447
G01 X-52.0974 Y-12.4278
G01 X-52.0940 Y-12.4133
G01 X-52.0887 Y-12.3958
G01 X-52.0834 Y-12.3818
G01 X-52.0752 Y-12.3643
G01 X-52.0674 Y-12.3503
G01 X-52.0581 Y-12.3360
G01 X-52.0513 Y-12.3269
G01 X-52.0444 Y-12.3184
G01 X-52.0365 Y-12.3096
G01 X-52.0280 Y-12.3010
G01 X-52.0191 Y-12.2929
G01 X-52.0090 Y-12.2847
G01 X-51.9912 Y-12.2721
G01 X-51.9733 Y-12.2617
G01 X-51.9533 Y-12.2524
G01 X-51.9345 Y-12.2455
G01 X-51.9203 Y-12.2415
G01 X-51.9099 Y-12.2391
G01 X-51.8950 Y-12.2366
G01 X-51.8832 Y-12.2352
G01 X-51.8619 Y-12.2343
G01 X-51.5392 Y-12.2343
G01 X-51.5392 Y-11.3489
G01 X-51.5381 Y-11.3265
G01 X-51.5363 Y-11.3117
G01 X-51.5347 Y-11.3024
G01 X-51.5295 Y-11.2815
G01 X-51.5260 Y-11.2704
G01 X-51.5222 Y-11.2601
G01 X-51.5168 Y-11.2476
G01 X-51.5125 Y-11.2389
G01 X-51.5021 Y-11.2207
G01 X-51.4954 Y-11.2106
G01 X-51.4886 Y-11.2015
G01 X-51.4817 Y-11.1930
G01 X-51.4738 Y-11.1842
G01 X-51.4653 Y-11.1757
G01 X-51.4564 Y-11.1675
G01 X-51.4400 Y-11.1545
G01 X-51.4236 Y-11.1437
G01 X-51.4162 Y-11.1394
G01 X-51.4030 Y-11.1325
G01 X-51.3853 Y-11.1249
G01 X-51.3718 Y-11.1202
G01 X-51.3636 Y-11.1177
G01 X-51.3472 Y-11.1138
G01 X-51.3274 Y-11.1106
G01 X-51.3083 Y-11.1091
G01 X-49.8512 Y-11.1089
G01 X-49.8512 Y-11.0209
G01 X-50.7365 Y-11.0209
G01 X-50.7528 Y-11.0203
G01 X-50.7647 Y-11.0192
G01 X-50.7756 Y-11.0177
G01 X-50.7950 Y-11.0137
G01 X-50.8149 Y-11.0077
G01 X-50.8279 Y-11.0028
G01 X-50.8403 Y-10.9973
G01 X-50.8535 Y-10.9904
G01 X-50.8609 Y-10.9861
G01 X-50.8773 Y-10.9753
G01 X-50.8937 Y-10.9623
G01 X-50.9026 Y-10.9541
G01 X-50.9111 Y-10.9456
G01 X-50.9190 Y-10.9368
G01 X-50.9259 Y-10.9283
G01 X-50.9355 Y-10.9150
G01 X-50.9420 Y-10.9049
G01 X-50.9472 Y-10.8959
G01 X-50.9558 Y-10.8786
G01 X-50.9633 Y-10.8594
G01 X-50.9687 Y-10.8418
G01 X-50.9730 Y-10.8220
G01 X-50.9755 Y-10.8033
G01 X-50.9765 Y-10.7809
G01 X-50.9764 Y-10.2131
G01 X-50.9762 Y-10.2059
G01 X-50.9747 Y-10.1887
G01 X-50.9730 Y-10.1771
G01 X-50.9698 Y-10.1619
G01 X-50.9655 Y-10.1462
G01 X-50.9617 Y-10.1352
G01 X-50.9580 Y-10.1257
G01 X-50.9517 Y-10.1118
G01 X-50.9452 Y-10.0997
G01 X-50.9394 Y-10.0900
G01 X-50.9327 Y-10.0799
G01 X-50.9219 Y-10.0658
G01 X-50.9111 Y-10.0535
G01 X-50.9026 Y-10.0450
G01 X-50.8937 Y-10.0368
G01 X-50.8836 Y-10.0286
G01 X-50.8658 Y-10.0160
G01 X-50.8535 Y-10.0087
G01 X-50.8352 Y-9.9994
G01 X-50.8149 Y-9.9914
G01 X-50.7950 Y-9.9855
G01 X-50.7794 Y-9.9821
G01 X-50.7578 Y-9.9792
G01 X-50.7403 Y-9.9783
G01 X-49.0432 Y-9.9782
G01 X-49.0269 Y-9.9788
G01 X-49.0150 Y-9.9799
G01 X-49.0041 Y-9.9814
G01 X-48.9915 Y-9.9839
G01 X-48.9788 Y-9.9870
G01 X-48.9648 Y-9.9914
G01 X-48.9518 Y-9.9963
G01 X-48.9394 Y-10.0018
G01 X-48.9262 Y-10.0087
G01 X-48.9139 Y-10.0160
G01 X-48.9024 Y-10.0238
G01 X-48.8917 Y-10.0321
G01 X-48.8823 Y-10.0402
G01 X-48.8735 Y-10.0485
G01 X-48.8652 Y-10.0572
G01 X-48.8538 Y-10.0708
G01 X-48.8442 Y-10.0841
G01 X-48.8377 Y-10.0943
G01 X-48.8325 Y-10.1032
G01 X-48.8256 Y-10.1169
G01 X-48.8202 Y-10.1294
G01 X-48.8142 Y-10.1462
G01 X-48.8110 Y-10.1573
G01 X-48.8077 Y-10.1717
G01 X-48.8061 Y-10.1810
G01 X-48.8042 Y-10.1958
G01 X-48.8032 Y-10.2182
G01 X-48.8032 Y-11.1089
G01 X-48.7205 Y-11.1089
G01 X-48.7205 Y-10.2235
G01 X-48.7194 Y-10.2011
G01 X-48.7175 Y-10.1863
G01 X-48.7151 Y-10.1732
G01 X-48.7108 Y-10.1561
G01 X-48.7056 Y-10.1405
G01 X-48.6997 Y-10.1259
G01 X-48.6938 Y-10.1135
G01 X-48.6860 Y-10.0996
G01 X-48.6795 Y-10.0894
G01 X-48.6699 Y-10.0761
G01 X-48.6584 Y-10.0625
G01 X-48.6501 Y-10.0538
G01 X-48.6376 Y-10.0421
G01 X-48.6275 Y-10.0339
G01 X-48.6165 Y-10.0258
G01 X-48.6049 Y-10.0183
G01 X-48.5918 Y-10.0109
G01 X-48.5791 Y-10.0047
G01 X-48.5665 Y-9.9995
G01 X-48.5530 Y-9.9948
G01 X-48.5389 Y-9.9908
G01 X-48.5233 Y-9.9874
G01 X-48.5086 Y-9.9852
G01 X-48.4896 Y-9.9837
G01 X-48.1578 Y-9.9835
G01 X-48.1578 Y-9.0928
G01 X-48.1574 Y-9.0805
G01 X-48.1567 Y-9.0704
G01 X-48.1549 Y-9.0556
G01 X-48.1511 Y-9.0365
G01 X-48.1481 Y-9.0254
G01 X-48.1446 Y-9.0144
G01 X-48.1370 Y-8.9952
G01 X-48.1284 Y-8.9779
G01 X-48.1233 Y-8.9689
G01 X-48.1168 Y-8.9587
G01 X-48.1099 Y-8.9491
G01 X-48.1032 Y-8.9404
G01 X-48.0958 Y-8.9319
G01 X-48.0874 Y-8.9231
G01 X-48.0749 Y-8.9114
G01 X-48.0585 Y-8.8984
G01 X-48.0422 Y-8.8876
G01 X-48.0348 Y-8.8833
G01 X-48.0215 Y-8.8764
G01 X-48.0038 Y-8.8688
G01 X-47.9903 Y-8.8641
G01 X-47.9695 Y-8.8585
G01 X-47.9508 Y-8.8551
G01 X-47.9341 Y-8.8534
G01 X-47.9178 Y-8.8528
G01 X-47.5951 Y-8.8528
G01 X-47.5950 Y-8.5251
G01 X-47.5940 Y-8.5077
G01 X-47.5922 Y-8.4929
G01 X-47.5884 Y-8.4739
G01 X-47.5840 Y-8.4581
G01 X-47.5780 Y-8.4414
G01 X-47.5726 Y-8.4288
G01 X-47.5657 Y-8.4152
G01 X-47.5579 Y-8.4019
G01 X-47.5512 Y-8.3918
G01 X-47.5405 Y-8.3777
G01 X-47.5296 Y-8.3655
G01 X-47.5211 Y-8.3569
G01 X-47.5065 Y-8.3440
G01 X-47.4958 Y-8.3358
G01 X-47.4844 Y-8.3280
G01 X-47.4721 Y-8.3206
G01 X-47.4588 Y-8.3137
G01 X-47.4464 Y-8.3082
G01 X-47.4334 Y-8.3033
G01 X-47.4194 Y-8.2989
G01 X-47.4031 Y-8.2950
G01 X-47.3881 Y-8.2924
G01 X-47.3714 Y-8.2907
G01 X-47.3551 Y-8.2901
G01 X-45.9070 Y-8.2901
G01 X-45.9070 Y-8.2074
G01 X-46.7924 Y-8.2074
G01 X-46.8087 Y-8.2069
G01 X-46.8205 Y-8.2058
G01 X-46.8318 Y-8.2042
G01 X-46.8458 Y-8.2014
G01 X-46.8643 Y-8.1964
G01 X-46.8766 Y-8.1922
G01 X-46.8892 Y-8.1870
G01 X-46.9040 Y-8.1799
G01 X-46.9181 Y-8.1718
G01 X-46.9289 Y-8.1648
G01 X-46.9395 Y-8.1571
G01 X-46.9533 Y-8.1455
G01 X-46.9620 Y-8.1372
G01 X-46.9748 Y-8.1234
G01 X-46.9846 Y-8.1112
G01 X-46.9949 Y-8.0963
G01 X-47.0027 Y-8.0830
G01 X-47.0099 Y-8.0687
G01 X-47.0154 Y-8.0562
G01 X-47.0214 Y-8.0393
G01 X-47.0258 Y-8.0233
G01 X-47.0295 Y-8.0046
G01 X-47.0313 Y-7.9899
G01 X-47.0324 Y-7.9674
G01 X-47.0324 Y-6.8421
G01 X-47.0313 Y-6.8196
G01 X-47.0289 Y-6.8011
G01 X-47.0246 Y-6.7815
G01 X-47.0214 Y-6.7702
G01 X-47.0176 Y-6.7591
G01 X-47.0116 Y-6.7444
G01 X-47.0055 Y-6.7317
G01 X-46.9974 Y-6.7173
G01 X-46.9912 Y-6.7076
G01 X-46.9846 Y-6.6983
G01 X-46.9748 Y-6.6861
G01 X-46.9620 Y-6.6723
G01 X-46.9533 Y-6.6640
G01 X-46.9438 Y-6.6559
G01 X-46.9333 Y-6.6478
G01 X-46.9227 Y-6.6405
G01 X-46.9090 Y-6.6323
G01 X-46.8943 Y-6.6248
G01 X-46.8818 Y-6.6194
G01 X-46.8693 Y-6.6148
G01 X-46.8573 Y-6.6110
G01 X-46.8417 Y-6.6072
G01 X-46.8254 Y-6.6044
G01 X-46.8087 Y-6.6026
G01 X-46.7961 Y-6.6021
G01 X-46.4697 Y-6.6021
G01 X-46.4697 Y-6.5194
G01 X-47.1151 Y-6.5194
G01 X-47.1152 Y-6.8471
G01 X-47.1162 Y-6.8645
G01 X-47.1180 Y-6.8792
G01 X-47.1217 Y-6.8979
G01 X-47.1261 Y-6.9139
G01 X-47.1299 Y-6.9250
G01 X-47.1359 Y-6.9397
G01 X-47.1420 Y-6.9524
G01 X-47.1501 Y-6.9668
G01 X-47.1590 Y-6.9805
G01 X-47.1697 Y-6.9945
G01 X-47.1805 Y-7.0067
G01 X-47.1890 Y-7.0153
G01 X-47.1979 Y-7.0234
G01 X-47.2080 Y-7.0317
G01 X-47.2185 Y-7.0394
G01 X-47.2350 Y-7.0498
G01 X-47.2470 Y-7.0563
G01 X-47.2583 Y-7.0617
G01 X-47.2709 Y-7.0668
G01 X-47.2902 Y-7.0731
G01 X-47.3058 Y-7.0769
G01 X-47.3220 Y-7.0798
G01 X-47.3388 Y-7.0815
G01 X-47.3551 Y-7.0821
G01 X-48.4805 Y-7.0821
G01 X-48.5017 Y-7.0811
G01 X-48.5135 Y-7.0798
G01 X-48.5240 Y-7.0781
G01 X-48.5454 Y-7.0731
G01 X-48.5646 Y-7.0668
G01 X-48.5824 Y-7.0593
G01 X-48.5971 Y-7.0518
G01 X-48.6108 Y-7.0436
G01 X-48.6275 Y-7.0317
G01 X-48.6414 Y-7.0201
G01 X-48.6550 Y-7.0067
G01 X-48.6658 Y-6.9945
G01 X-48.6726 Y-6.9858
G01 X-48.6792 Y-6.9765
G01 X-48.6887 Y-6.9613
G01 X-48.6980 Y-6.9434
G01 X-48.7057 Y-6.9250
G01 X-48.7109 Y-6.9092
G01 X-48.7152 Y-6.8920
G01 X-48.7186 Y-6.8716
G01 X-48.7201 Y-6.8544
G01 X-48.7205 Y-6.8421
G01 X-48.7205 Y-6.2794
G01 X-48.7201 Y-6.2670
G01 X-48.7186 Y-6.2498
G01 X-48.7152 Y-6.2294
G01 X-48.7127 Y-6.2188
G01 X-48.7094 Y-6.2075
G01 X-48.7019 Y-6.1869
G01 X-48.6955 Y-6.1728
G01 X-48.6908 Y-6.1638
G01 X-48.6792 Y-6.1449
G01 X-48.6726 Y-6.1356
G01 X-48.6658 Y-6.1270
G01 X-48.6584 Y-6.1184
G01 X-48.6501 Y-6.1096
G01 X-48.6414 Y-6.1013
G01 X-48.6319 Y-6.0932
G01 X-48.6170 Y-6.0820
G01 X-48.6006 Y-6.0716
G01 X-48.5824 Y-6.0621
G01 X-48.5646 Y-6.0546
G01 X-48.5454 Y-6.0483
G01 X-48.5297 Y-6.0445
G01 X-48.5086 Y-6.0410
G01 X-48.4896 Y-6.0396
G01 X-47.5951 Y-6.0394
G01 X-47.5950 Y-5.7116
G01 X-47.5940 Y-5.6943
G01 X-47.5916 Y-5.6757
G01 X-47.5873 Y-5.6561
G01 X-47.5819 Y-5.6383
G01 X-47.5765 Y-5.6242
G01 X-47.5701 Y-5.6101
G01 X-47.5633 Y-5.5974
G01 X-47.5539 Y-5.5822
G01 X-47.5445 Y-5.5693
G01 X-47.5331 Y-5.5557
G01 X-47.5211 Y-5.5434
G01 X-47.5122 Y-5.5353
G01 X-47.5022 Y-5.5271
G01 X-47.4916 Y-5.5193
G01 X-47.4752 Y-5.5089
G01 X-47.4631 Y-5.5024
G01 X-47.4445 Y-5.4940
G01 X-47.4320 Y-5.4894
G01 X-47.4200 Y-5.4856
G01 X-47.4044 Y-5.4818
G01 X-47.3832 Y-5.4783
G01 X-47.3714 Y-5.4772
G01 X-47.3551 Y-5.4767
G01 X-45.6670 Y-5.4767
G01 X-45.6507 Y-5.4772
G01 X-45.6339 Y-5.4790
G01 X-45.6136 Y-5.4827
G01 X-45.5950 Y-5.4877
G01 X-45.5775 Y-5.4940
G01 X-45.5590 Y-5.5024
G01 X-45.5469 Y-5.5089
G01 X-45.5304 Y-5.5193
G01 X-45.5156 Y-5.5305
G01 X-45.5009 Y-5.5434
G01 X-45.4890 Y-5.5557
G01 X-45.4816 Y-5.5643
G01 X-45.4748 Y-5.5729
G01 X-45.4645 Y-5.5878
G01 X-45.4539 Y-5.6063
G01 X-45.4456 Y-5.6242
G01 X-45.4402 Y-5.6383
G01 X-45.4348 Y-5.6561
G01 X-45.4305 Y-5.6757
G01 X-45.4281 Y-5.6943
G01 X-45.4270 Y-5.7167
G01 X-45.4270 Y-6.6021
G01 X-44.7816 Y-6.6021
G01 X-44.7816 Y-5.7167
G01 X-44.7813 Y-5.7043
G01 X-44.7798 Y-5.6871
G01 X-44.7771 Y-5.6705
G01 X-44.7738 Y-5.6561
G01 X-44.7706 Y-5.6448
G01 X-44.7646 Y-5.6279
G01 X-44.7592 Y-5.6154
G01 X-44.7519 Y-5.6011
G01 X-44.7441 Y-5.5878
G01 X-44.7377 Y-5.5783
G01 X-44.7270 Y-5.5643
G01 X-44.7196 Y-5.5557
G01 X-44.7077 Y-5.5434
G01 X-44.6988 Y-5.5353
G01 X-44.6887 Y-5.5271
G01 X-44.6782 Y-5.5193
G01 X-44.6674 Y-5.5123
G01 X-44.6532 Y-5.5042
G01 X-44.6384 Y-5.4971
G01 X-44.6258 Y-5.4919
G01 X-44.6136 Y-5.4877
G01 X-44.6014 Y-5.4843
G01 X-44.5909 Y-5.4818
G01 X-44.5747 Y-5.4790
G01 X-44.5579 Y-5.4772
G01 X-44.5454 Y-5.4767
G01 X-42.8535 Y-5.4767
G01 X-42.8372 Y-5.4772
G01 X-42.8254 Y-5.4783
G01 X-42.8100 Y-5.4807
G01 X-42.7937 Y-5.4843
G01 X-42.7766 Y-5.4894
G01 X-42.7641 Y-5.4940
G01 X-42.7455 Y-5.5024
G01 X-42.7335 Y-5.5089
G01 X-42.7170 Y-5.5193
G01 X-42.7065 Y-5.5271
G01 X-42.6964 Y-5.5353
G01 X-42.6839 Y-5.5469
G01 X-42.6756 Y-5.5557
G01 X-42.6641 Y-5.5693
G01 X-42.6548 Y-5.5822
G01 X-42.6453 Y-5.5974
G01 X-42.6385 Y-5.6101
G01 X-42.6321 Y-5.6242
G01 X-42.6267 Y-5.6383
G01 X-42.6232 Y-5.6495
G01 X-42.6188 Y-5.6668
G01 X-42.6164 Y-5.6795
G01 X-42.6146 Y-5.6943
G01 X-42.6136 Y-5.7116
G01 X-42.6135 Y-6.8474
G01 X-42.6139 Y-6.8597
G01 X-42.6146 Y-6.8698
G01 X-42.6164 Y-6.8845
G01 X-42.6201 Y-6.9032
G01 X-42.6232 Y-6.9145
G01 X-42.6267 Y-6.9257
G01 X-42.6343 Y-6.9450
G01 X-42.6432 Y-6.9629
G01 X-42.6548 Y-6.9818
G01 X-42.6614 Y-6.9911
G01 X-42.6682 Y-6.9998
G01 X-42.6756 Y-7.0083
G01 X-42.6839 Y-7.0171
G01 X-42.6926 Y-7.0254
G01 X-42.7021 Y-7.0335
G01 X-42.7170 Y-7.0447
G01 X-42.7278 Y-7.0518
G01 X-42.7370 Y-7.0571
G01 X-42.7455 Y-7.0617
G01 X-42.7568 Y-7.0670
G01 X-42.7766 Y-7.0747
G01 X-42.7937 Y-7.0798
G01 X-42.8142 Y-7.0841
G01 X-42.8254 Y-7.0857
G01 X-42.8372 Y-7.0868
G01 X-42.8535 Y-7.0874
G01 X-43.4253 Y-7.0872
G01 X-43.4375 Y-7.0864
G01 X-43.4493 Y-7.0851
G01 X-43.4696 Y-7.0813
G01 X-43.4811 Y-7.0784
G01 X-43.4932 Y-7.0747
G01 X-43.5057 Y-7.0700
G01 X-43.5182 Y-7.0646
G01 X-43.5279 Y-7.0598
G01 X-43.5420 Y-7.0518
G01 X-43.5528 Y-7.0447
G01 X-43.5633 Y-7.0370
G01 X-43.5734 Y-7.0288
G01 X-43.5823 Y-7.0206
G01 X-43.5908 Y-7.0120
G01 X-43.6016 Y-6.9998
G01 X-43.6084 Y-6.9911
G01 X-43.6150 Y-6.9818
G01 X-43.6212 Y-6.9721
G01 X-43.6294 Y-6.9577
G01 X-43.6338 Y-6.9487
G01 X-43.6392 Y-6.9361
G01 X-43.6452 Y-6.9192
G01 X-43.6484 Y-6.9080
G01 X-43.6510 Y-6.8973
G01 X-43.6533 Y-6.8845
G01 X-43.6551 Y-6.8698
G01 X-43.6561 Y-6.8524
G01 X-43.6562 Y-6.5194
G01 X-43.7389 Y-6.5194
G01 X-43.7389 Y-7.1647
G01 X-43.4071 Y-7.1649
G01 X-43.3950 Y-7.1657
G01 X-43.3832 Y-7.1671
G01 X-43.3629 Y-7.1708
G01 X-43.3513 Y-7.1737
G01 X-43.3393 Y-7.1774
G01 X-43.3195 Y-7.1852
G01 X-43.3046 Y-7.1923
G01 X-43.2859 Y-7.2032
G01 X-43.2753 Y-7.2105
G01 X-43.2591 Y-7.2234
G01 X-43.2466 Y-7.2350
G01 X-43.2338 Y-7.2488
G01 X-43.2241 Y-7.2610
G01 X-43.2138 Y-7.2759
G01 X-43.2059 Y-7.2892
G01 X-43.1970 Y-7.3071
G01 X-43.1910 Y-7.3218
G01 X-43.1858 Y-7.3376
G01 X-43.1815 Y-7.3548
G01 X-43.1791 Y-7.3676
G01 X-43.1773 Y-7.3823
G01 X-43.1762 Y-7.4047
G01 X-43.1762 Y-7.9674
G01 X-43.1766 Y-7.9798
G01 X-43.1781 Y-7.9970
G01 X-43.1798 Y-8.0084
G01 X-43.1828 Y-8.0233
G01 X-43.1873 Y-8.0393
G01 X-43.1933 Y-8.0562
G01 X-43.1987 Y-8.0687
G01 X-43.2059 Y-8.0830
G01 X-43.2138 Y-8.0963
G01 X-43.2202 Y-8.1059
G01 X-43.2268 Y-8.1148
G01 X-43.2338 Y-8.1234
G01 X-43.2417 Y-8.1321
G01 X-43.2502 Y-8.1407
G01 X-43.2591 Y-8.1488
G01 X-43.2691 Y-8.1571
G01 X-43.2797 Y-8.1648
G01 X-43.2905 Y-8.1718
G01 X-43.2996 Y-8.1772
G01 X-43.3082 Y-8.1817
G01 X-43.3195 Y-8.1870
G01 X-43.3321 Y-8.1922
G01 X-43.3443 Y-8.1964
G01 X-43.3564 Y-8.1998
G01 X-43.3669 Y-8.2023
G01 X-43.3881 Y-8.2058
G01 X-43.3999 Y-8.2069
G01 X-43.4125 Y-8.2074
G01 X-43.7389 Y-8.2074
G01 X-43.7389 Y-8.2943
G01 X-43.0935 Y-8.2913
G01 X-43.0935 Y-7.4047
G01 X-43.0932 Y-7.3924
G01 X-43.0917 Y-7.3752
G01 X-43.0890 Y-7.3586
G01 X-43.0857 Y-7.3442
G01 X-43.0825 Y-7.3329
G01 X-43.0765 Y-7.3160
G01 X-43.0711 Y-7.3034
G01 X-43.0639 Y-7.2892
G01 X-43.0560 Y-7.2759
G01 X-43.0496 Y-7.2663
G01 X-43.0389 Y-7.2523
G01 X-43.0281 Y-7.2401
G01 X-43.0144 Y-7.2267
G01 X-43.0050 Y-7.2186
G01 X-42.9945 Y-7.2105
G01 X-42.9793 Y-7.2004
G01 X-42.9652 Y-7.1923
G01 X-42.9555 Y-7.1875
G01 X-42.9430 Y-7.1821
G01 X-42.9305 Y-7.1774
G01 X-42.9184 Y-7.1737
G01 X-42.9069 Y-7.1708
G01 X-42.8929 Y-7.1680
G01 X-42.8817 Y-7.1664
G01 X-42.8698 Y-7.1653
G01 X-42.8573 Y-7.1648
G01 X-41.7282 Y-7.1647
G01 X-41.7119 Y-7.1653
G01 X-41.7000 Y-7.1664
G01 X-41.6846 Y-7.1687
G01 X-41.6683 Y-7.1723
G01 X-41.6562 Y-7.1758
G01 X-41.6440 Y-7.1800
G01 X-41.6314 Y-7.1852
G01 X-41.6201 Y-7.1905
G01 X-41.6081 Y-7.1970
G01 X-41.5916 Y-7.2074
G01 X-41.5811 Y-7.2151
G01 X-41.5710 Y-7.2234
G01 X-41.5621 Y-7.2315
G01 X-41.5536 Y-7.2401
G01 X-41.5457 Y-7.2488
G01 X-41.5360 Y-7.2610
G01 X-41.5294 Y-7.2703
G01 X-41.5199 Y-7.2855
G01 X-41.5131 Y-7.2982
G01 X-41.5052 Y-7.3160
G01 X-41.4992 Y-7.3329
G01 X-41.4948 Y-7.3489
G01 X-41.4911 Y-7.3676
G01 X-41.4892 Y-7.3823
G01 X-41.4882 Y-7.4047
G01 X-41.4882 Y-9.6608
G01 X-41.4892 Y-9.6832
G01 X-41.4911 Y-9.6981
G01 X-41.4927 Y-9.7073
G01 X-41.4960 Y-9.7218
G01 X-41.4992 Y-9.7329
G01 X-41.5052 Y-9.7496
G01 X-41.5106 Y-9.7621
G01 X-41.5175 Y-9.7758
G01 X-41.5227 Y-9.7848
G01 X-41.5292 Y-9.7950
G01 X-41.5388 Y-9.8082
G01 X-41.5502 Y-9.8218
G01 X-41.5585 Y-9.8306
G01 X-41.5673 Y-9.8389
G01 X-41.5767 Y-9.8470
G01 X-41.5874 Y-9.8552
G01 X-41.5989 Y-9.8630
G01 X-41.6112 Y-9.8703
G01 X-41.6244 Y-9.8772
G01 X-41.6368 Y-9.8827
G01 X-41.6498 Y-9.8877
G01 X-41.6697 Y-9.8936
G01 X-41.6891 Y-9.8976
G01 X-41.7000 Y-9.8992
G01 X-41.7119 Y-9.9003
G01 X-41.7282 Y-9.9008
G01 X-42.0508 Y-9.9008
G01 X-42.0508 Y-9.9835
G01 X-41.7282 Y-9.9835
G01 X-41.7069 Y-9.9845
G01 X-41.6891 Y-9.9867
G01 X-41.6765 Y-9.9892
G01 X-41.6556 Y-9.9948
G01 X-41.6421 Y-9.9995
G01 X-41.6244 Y-10.0071
G01 X-41.6112 Y-10.0140
G01 X-41.5989 Y-10.0213
G01 X-41.5874 Y-10.0291
G01 X-41.5710 Y-10.0421
G01 X-41.5621 Y-10.0503
G01 X-41.5536 Y-10.0588
G01 X-41.5457 Y-10.0676
G01 X-41.5388 Y-10.0761
G01 X-41.5320 Y-10.0852
G01 X-41.5253 Y-10.0953
G01 X-41.5149 Y-10.1135
G01 X-41.5106 Y-10.1222
G01 X-41.5052 Y-10.1347
G01 X-41.5014 Y-10.1451
G01 X-41.4978 Y-10.1561
G01 X-41.4927 Y-10.1770
G01 X-41.4911 Y-10.1863
G01 X-41.4892 Y-10.2011
G01 X-41.4882 Y-10.2235
G01 X-41.4882 Y-10.5462
G01 X-41.1564 Y-10.5464
G01 X-41.1373 Y-10.5479
G01 X-41.1264 Y-10.5494
G01 X-41.1138 Y-10.5519
G01 X-41.0929 Y-10.5575
G01 X-41.0741 Y-10.5643
G01 X-41.0541 Y-10.5736
G01 X-41.0411 Y-10.5810
G01 X-41.0294 Y-10.5885
G01 X-41.0140 Y-10.6001
G01 X-40.9994 Y-10.6130
G01 X-40.9875 Y-10.6252
G01 X-40.9761 Y-10.6388
G01 X-40.9665 Y-10.6521
G01 X-40.9568 Y-10.6677
G01 X-40.9503 Y-10.6798
G01 X-40.9425 Y-10.6974
G01 X-40.9366 Y-10.7142
G01 X-40.9322 Y-10.7299
G01 X-40.9284 Y-10.7490
G01 X-40.9266 Y-10.7638
G01 X-40.9255 Y-10.7862
G01 X-40.9255 Y-11.3489
G01 X-40.9258 Y-11.3612
G01 X-40.9273 Y-11.3785
G01 X-40.9290 Y-11.3900
G01 X-40.9322 Y-11.4052
G01 X-40.9366 Y-11.4210
G01 X-40.9425 Y-11.4377
G01 X-40.9479 Y-11.4502
G01 X-40.9548 Y-11.4639
G01 X-40.9626 Y-11.4771
G01 X-40.9693 Y-11.4872
G01 X-40.9761 Y-11.4963
G01 X-40.9830 Y-11.5048
G01 X-40.9909 Y-11.5136
G01 X-40.9994 Y-11.5221
G01 X-41.0083 Y-11.5303
G01 X-41.0184 Y-11.5385
G01 X-41.0294 Y-11.5466
G01 X-41.0485 Y-11.5584
G01 X-41.0668 Y-11.5677
G01 X-41.0871 Y-11.5757
G01 X-41.1011 Y-11.5801
G01 X-41.1138 Y-11.5833
G01 X-41.1264 Y-11.5857
G01 X-41.1373 Y-11.5872
G01 X-41.1492 Y-11.5883
G01 X-41.1617 Y-11.5889
G01 X-41.4882 Y-11.5889
G01 X-41.4882 Y-11.6716
G01 X-41.1655 Y-11.6716
G01 X-41.1492 Y-11.6722
G01 X-41.1324 Y-11.6739
G01 X-41.1138 Y-11.6772
G01 X-41.0929 Y-11.6828
G01 X-41.0794 Y-11.6876
G01 X-41.0617 Y-11.6952
G01 X-41.0485 Y-11.7021
G01 X-41.0411 Y-11.7064
G01 X-41.0247 Y-11.7172
G01 X-41.0083 Y-11.7302
G01 X-40.9958 Y-11.7419
G01 X-40.9830 Y-11.7557
G01 X-40.9733 Y-11.7679
G01 X-40.9626 Y-11.7834
G01 X-40.9522 Y-11.8016
G01 X-40.9440 Y-11.8191
G01 X-40.9366 Y-11.8395
G01 X-40.9322 Y-11.8553
G01 X-40.9284 Y-11.8743
G01 X-40.9266 Y-11.8892
G01 X-40.9255 Y-11.9116
G01 X-40.9255 Y-12.2343
G01 X-40.0310 Y-12.2345
G01 X-40.0119 Y-12.2360
G01 X-39.9973 Y-12.2381
G01 X-39.9817 Y-12.2415
G01 X-39.9618 Y-12.2475
G01 X-39.9415 Y-12.2555
G01 X-39.9287 Y-12.2617
G01 X-39.9157 Y-12.2691
G01 X-39.8993 Y-12.2799
G01 X-39.8829 Y-12.2929
G01 X-39.8740 Y-12.3010
G01 X-39.8655 Y-12.3096
G01 X-39.8576 Y-12.3184
G01 X-39.8507 Y-12.3269
G01 X-39.8439 Y-12.3360
G01 X-39.8372 Y-12.3461
G01 X-39.8268 Y-12.3643
G01 X-39.8225 Y-12.3730
G01 X-39.8171 Y-12.3855
G01 X-39.8133 Y-12.3958
G01 X-39.8098 Y-12.4068
G01 X-39.8046 Y-12.4278
G01 X-39.8030 Y-12.4370
G01 X-39.8012 Y-12.4519
G01 X-39.8001 Y-12.4743
G01 X-39.8001 Y-12.7970
G01 X-39.4721 Y-12.7970
G01 X-39.4508 Y-12.7979
G01 X-39.4390 Y-12.7993
G01 X-39.4241 Y-12.8018
G01 X-39.4137 Y-12.8042
G01 X-39.3996 Y-12.8082
G01 X-39.3807 Y-12.8151
G01 X-39.3683 Y-12.8206
G01 X-39.3551 Y-12.8275
G01 X-39.3361 Y-12.8393
G01 X-39.3250 Y-12.8474
G01 X-39.3149 Y-12.8556
G01 X-39.3060 Y-12.8637
G01 X-39.2975 Y-12.8723
G01 X-39.2896 Y-12.8811
G01 X-39.2827 Y-12.8896
G01 X-39.2759 Y-12.8987
G01 X-39.2692 Y-12.9087
G01 X-39.2634 Y-12.9185
G01 X-39.2570 Y-12.9306
G01 X-39.2506 Y-12.9445
G01 X-39.2453 Y-12.9585
G01 X-39.2418 Y-12.9695
G01 X-39.2374 Y-12.9867
G01 X-39.2350 Y-12.9997
G01 X-39.2332 Y-13.0146
G01 X-39.2321 Y-13.0370
G01 X-39.2321 Y-13.3597
G01 X-38.5867 Y-13.3597
G01 X-38.5867 Y-13.0370
G01 X-38.5856 Y-13.0146
G01 X-38.5838 Y-12.9997
G01 X-38.5814 Y-12.9867
G01 X-38.5770 Y-12.9695
G01 X-38.5735 Y-12.9585
G01 X-38.5681 Y-12.9445
G01 X-38.5618 Y-12.9306
G01 X-38.5554 Y-12.9185
G01 X-38.5495 Y-12.9087
G01 X-38.5428 Y-12.8987
G01 X-38.5361 Y-12.8896
G01 X-38.5291 Y-12.8811
G01 X-38.5213 Y-12.8723
G01 X-38.5128 Y-12.8637
G01 X-38.5038 Y-12.8556
G01 X-38.4938 Y-12.8474
G01 X-38.4827 Y-12.8393
G01 X-38.4637 Y-12.8275
G01 X-38.4453 Y-12.8182
G01 X-38.4250 Y-12.8101
G01 X-38.4110 Y-12.8058
G01 X-38.3984 Y-12.8026
G01 X-38.3858 Y-12.8002
G01 X-38.3748 Y-12.7987
G01 X-38.3630 Y-12.7976
G01 X-38.3504 Y-12.7970
G01 X-38.0240 Y-12.7970
G01 X-38.0239 Y-12.4692
G01 X-38.0229 Y-12.4519
G01 X-38.0211 Y-12.4370
G01 X-38.0187 Y-12.4240
G01 X-38.0161 Y-12.4133
G01 X-38.0129 Y-12.4022
G01 X-38.0070 Y-12.3855
G01 X-38.0016 Y-12.3730
G01 X-37.9973 Y-12.3643
G01 X-37.9895 Y-12.3503
G01 X-37.9830 Y-12.3401
G01 X-37.9762 Y-12.3305
G01 X-37.9664 Y-12.3184
G01 X-37.9537 Y-12.3046
G01 X-37.9449 Y-12.2962
G01 X-37.9355 Y-12.2881
G01 X-37.9247 Y-12.2799
G01 X-37.9133 Y-12.2721
G01 X-37.9010 Y-12.2648
G01 X-37.8878 Y-12.2579
G01 X-37.8753 Y-12.2524
G01 X-37.8565 Y-12.2455
G01 X-37.8424 Y-12.2415
G01 X-37.8320 Y-12.2391
G01 X-37.8121 Y-12.2360
G01 X-37.8003 Y-12.2349
G01 X-37.7878 Y-12.2343
G01 X-37.2213 Y-12.2343
G01 X-37.2001 Y-12.2352
G01 X-37.1822 Y-12.2375
G01 X-37.1629 Y-12.2415
G01 X-37.1488 Y-12.2455
G01 X-37.1352 Y-12.2503
G01 X-37.1176 Y-12.2579
G01 X-37.1043 Y-12.2648
G01 X-37.0920 Y-12.2721
G01 X-37.0806 Y-12.2799
G01 X-37.0642 Y-12.2929
G01 X-37.0517 Y-12.3046
G01 X-37.0433 Y-12.3133
G01 X-37.0319 Y-12.3269
G01 X-37.0223 Y-12.3401
G01 X-37.0126 Y-12.3558
G01 X-37.0062 Y-12.3679
G01 X-36.9999 Y-12.3818
G01 X-36.9945 Y-12.3958
G01 X-36.9892 Y-12.4133
G01 X-36.9849 Y-12.4332
G01 X-36.9824 Y-12.4519
G01 X-36.9813 Y-12.4743
G01 X-36.9814 Y-13.6048
G01 X-36.9824 Y-13.6221
G01 X-36.9849 Y-13.6408
G01 X-36.9892 Y-13.6606
G01 X-36.9945 Y-13.6781
G01 X-37.0021 Y-13.6973
G01 X-37.0107 Y-13.7146
G01 X-37.0158 Y-13.7236
G01 X-37.0223 Y-13.7338
G01 X-37.0319 Y-13.7471
G01 X-37.0389 Y-13.7556
G01 X-37.0467 Y-13.7643
G01 X-37.0552 Y-13.7729
G01 X-37.0642 Y-13.7811
G01 X-37.0742 Y-13.7893
G01 X-37.0853 Y-13.7974
G01 X-37.1043 Y-13.8092
G01 X-37.1227 Y-13.8184
G01 X-37.1352 Y-13.8237
G01 X-37.1488 Y-13.8284
G01 X-37.1629 Y-13.8324
G01 X-37.1733 Y-13.8348
G01 X-37.1883 Y-13.8374
G01 X-37.2001 Y-13.8387
G01 X-37.2213 Y-13.8397
G01 X-38.1075 Y-13.8397
G01 X-38.1112 Y-15.0477
G01 X-37.2213 Y-15.0477
G01 X-37.2050 Y-15.0483
G01 X-37.1883 Y-15.0501
G01 X-37.1733 Y-15.0526
G01 X-37.1570 Y-15.0566
G01 X-37.1430 Y-15.0609
G01 X-37.1227 Y-15.0690
G01 X-37.1100 Y-15.0752
G01 X-37.0969 Y-15.0825
G01 X-37.0853 Y-15.0900
G01 X-37.0699 Y-15.1016
G01 X-37.0604 Y-15.1097
G01 X-37.0467 Y-15.1231
G01 X-37.0359 Y-15.1353
G01 X-37.0252 Y-15.1495
G01 X-37.0158 Y-15.1638
G01 X-37.0080 Y-15.1778
G01 X-36.9999 Y-15.1953
G01 X-36.9945 Y-15.2093
G01 X-36.9892 Y-15.2268
G01 X-36.9849 Y-15.2466
G01 X-36.9824 Y-15.2653
G01 X-36.9813 Y-15.2877
G01 X-36.9813 Y-16.4131
G01 X-36.9817 Y-16.4252
G01 X-36.9825 Y-16.4366
G01 X-36.9847 Y-16.4532
G01 X-36.9878 Y-16.4686
G01 X-36.9923 Y-16.4848
G01 X-36.9983 Y-16.5019
G01 X-37.0038 Y-16.5144
G01 X-37.0121 Y-16.5306
G01 X-37.0186 Y-16.5415
G01 X-37.0284 Y-16.5559
G01 X-37.0410 Y-16.5715
G01 X-37.0519 Y-16.5831
G01 X-37.0622 Y-16.5928
G01 X-37.0745 Y-16.6030
G01 X-37.0872 Y-16.6121
G01 X-37.1043 Y-16.6226
G01 X-37.1167 Y-16.6291
G01 X-37.1302 Y-16.6352
G01 X-37.1457 Y-16.6409
G01 X-37.1559 Y-16.6440
G01 X-37.1771 Y-16.6490
G01 X-37.1889 Y-16.6509
G01 X-37.2028 Y-16.6524
G01 X-37.2213 Y-16.6531
G01 X-37.7901 Y-16.6530
G01 X-37.8106 Y-16.6516
G01 X-37.8282 Y-16.6490
G01 X-37.8452 Y-16.6452
G01 X-37.8654 Y-16.6389
G01 X-37.8791 Y-16.6335
G01 X-37.8953 Y-16.6257
G01 X-37.9080 Y-16.6186
G01 X-37.9181 Y-16.6121
G01 X-37.9275 Y-16.6055
G01 X-37.9386 Y-16.5967
G01 X-37.9505 Y-16.5860
G01 X-37.9604 Y-16.5758
G01 X-37.9708 Y-16.5638
G01 X-37.9793 Y-16.5526
G01 X-37.9867 Y-16.5415
G01 X-37.9933 Y-16.5306
G01 X-37.9988 Y-16.5201
G01 X-38.0055 Y-16.5056
G01 X-38.0109 Y-16.4914
G01 X-38.0145 Y-16.4801
G01 X-38.0193 Y-16.4603
G01 X-38.0218 Y-16.4457
G01 X-38.0232 Y-16.4329
G01 X-38.0239 Y-16.4181
G01 X-38.0240 Y-16.0893
G01 X-38.6694 Y-16.0863
G01 X-38.6695 Y-16.4181
G01 X-38.6702 Y-16.4329
G01 X-38.6716 Y-16.4457
G01 X-38.6741 Y-16.4603
G01 X-38.6771 Y-16.4734
G01 X-38.6804 Y-16.4848
G01 X-38.6864 Y-16.5019
G01 X-38.6918 Y-16.5144
G01 X-38.6968 Y-16.5245
G01 X-38.7026 Y-16.5349
G01 X-38.7100 Y-16.5466
G01 X-38.7200 Y-16.5606
G01 X-38.7291 Y-16.5715
G01 X-38.7399 Y-16.5831
G01 X-38.7503 Y-16.5928
G01 X-38.7626 Y-16.6030
G01 X-38.7711 Y-16.6093
G01 X-38.7812 Y-16.6160
G01 X-38.7924 Y-16.6226
G01 X-38.8048 Y-16.6291
G01 X-38.8183 Y-16.6352
G01 X-38.8380 Y-16.6423
G01 X-38.8588 Y-16.6477
G01 X-38.8697 Y-16.6498
G01 X-38.8828 Y-16.6516
G01 X-38.8967 Y-16.6528
G01 X-38.9069 Y-16.6531
G01 X-40.0401 Y-16.6531
G01 X-40.0586 Y-16.6524
G01 X-40.0725 Y-16.6509
G01 X-40.0906 Y-16.6477
G01 X-40.1055 Y-16.6440
G01 X-40.1215 Y-16.6389
G01 X-40.1352 Y-16.6335
G01 X-40.1514 Y-16.6257
G01 X-40.1640 Y-16.6186
G01 X-40.1784 Y-16.6093
G01 X-40.1915 Y-16.5993
G01 X-40.2023 Y-16.5900
G01 X-40.2136 Y-16.5789
G01 X-40.2231 Y-16.5683
G01 X-40.2354 Y-16.5526
G01 X-40.2428 Y-16.5415
G01 X-40.2526 Y-16.5245
G01 X-40.2593 Y-16.5108
G01 X-40.2653 Y-16.4960
G01 X-40.2705 Y-16.4801
G01 X-40.2754 Y-16.4603
G01 X-40.2783 Y-16.4419
G01 X-40.2797 Y-16.4252
G01 X-40.2801 Y-16.4131
G01 X-40.2801 Y-16.0904
G01 X-41.1655 Y-16.0904
G01 X-41.1818 Y-16.0899
G01 X-41.1985 Y-16.0881
G01 X-41.2172 Y-16.0848
G01 X-41.2380 Y-16.0792
G01 X-41.2568 Y-16.0724
G01 X-41.2768 Y-16.0630
G01 X-41.2948 Y-16.0526
G01 X-41.3126 Y-16.0401
G01 X-41.3264 Y-16.0285
G01 X-41.3400 Y-16.0151
G01 X-41.3479 Y-16.0064
G01 X-41.3549 Y-15.9978
G01 X-41.3645 Y-15.9846
G01 X-41.3710 Y-15.9744
G01 X-41.3761 Y-15.9654
G01 X-41.3847 Y-15.9481
G01 X-41.3923 Y-15.9289
G01 X-41.3958 Y-15.9179
G01 X-41.3988 Y-15.9067
G01 X-41.4025 Y-15.8877
G01 X-41.4044 Y-15.8729
G01 X-41.4055 Y-15.8504
G01 X-41.4055 Y-15.5277
G01 X-41.7319 Y-15.5277
G01 X-41.7445 Y-15.5272
G01 X-41.7612 Y-15.5254
G01 X-41.7762 Y-15.5229
G01 X-41.7866 Y-15.5205
G01 X-41.8007 Y-15.5165
G01 X-41.8142 Y-15.5118
G01 X-41.8268 Y-15.5065
G01 X-41.8395 Y-15.5003
G01 X-41.8525 Y-15.4930
G01 X-41.8642 Y-15.4855
G01 X-41.8752 Y-15.4774
G01 X-41.8853 Y-15.4691
G01 X-41.8942 Y-15.4610
G01 X-41.9027 Y-15.4524
G01 X-41.9106 Y-15.4437
G01 X-41.9203 Y-15.4315
G01 X-41.9271 Y-15.4219
G01 X-41.9337 Y-15.4117
G01 X-41.9415 Y-15.3977
G01 X-41.9474 Y-15.3854
G01 X-41.9533 Y-15.3707
G01 X-41.9571 Y-15.3598
G01 X-41.9603 Y-15.3487
G01 X-41.9628 Y-15.3381
G01 X-41.9663 Y-15.3173
G01 X-41.9678 Y-15.3001
G01 X-41.9681 Y-15.2928
G01 X-41.9682 Y-14.7251
G01 X-41.9671 Y-14.7026
G01 X-41.9652 Y-14.6878
G01 X-41.9628 Y-14.6747
G01 X-41.9585 Y-14.6576
G01 X-41.9550 Y-14.6466
G01 X-41.9511 Y-14.6363
G01 X-41.9457 Y-14.6237
G01 X-41.9388 Y-14.6101
G01 X-41.9310 Y-14.5968
G01 X-41.9243 Y-14.5868
G01 X-41.9135 Y-14.5727
G01 X-41.9027 Y-14.5604
G01 X-41.8942 Y-14.5518
G01 X-41.8796 Y-14.5389
G01 X-41.8689 Y-14.5307
G01 X-41.8574 Y-14.5229
G01 X-41.8452 Y-14.5155
G01 X-41.8319 Y-14.5087
G01 X-41.8195 Y-14.5031
G01 X-41.8065 Y-14.4982
G01 X-41.7925 Y-14.4939
G01 X-41.7762 Y-14.4899
G01 X-41.7612 Y-14.4874
G01 X-41.7445 Y-14.4856
G01 X-41.7282 Y-14.4851
G01 X-41.1617 Y-14.4851
G01 X-41.1492 Y-14.4856
G01 X-41.1373 Y-14.4867
G01 X-41.1175 Y-14.4899
G01 X-41.1011 Y-14.4939
G01 X-41.0929 Y-14.4963
G01 X-41.0794 Y-14.5010
G01 X-41.0668 Y-14.5063
G01 X-41.0541 Y-14.5125
G01 X-41.0411 Y-14.5198
G01 X-41.0294 Y-14.5274
G01 X-41.0184 Y-14.5354
G01 X-41.0083 Y-14.5437
G01 X-40.9958 Y-14.5553
G01 X-40.9875 Y-14.5641
G01 X-40.9761 Y-14.5777
G01 X-40.9693 Y-14.5868
G01 X-40.9626 Y-14.5968
G01 X-40.9568 Y-14.6066
G01 X-40.9503 Y-14.6187
G01 X-40.9440 Y-14.6326
G01 X-40.9387 Y-14.6466
G01 X-40.9352 Y-14.6576
G01 X-40.9308 Y-14.6747
G01 X-40.9284 Y-14.6878
G01 X-40.9266 Y-14.7026
G01 X-40.9256 Y-14.7200
G01 X-40.9255 Y-15.0477
G01 X-40.8428 Y-15.0477
G01 X-40.8427 Y-14.1573
G01 X-40.8424 Y-14.1500
G01 X-40.8409 Y-14.1328
G01 X-40.8392 Y-14.1213
G01 X-40.8361 Y-14.1061
G01 X-40.8331 Y-14.0949
G01 X-40.8296 Y-14.0839
G01 X-40.8257 Y-14.0736
G01 X-40.8203 Y-14.0611
G01 X-40.8134 Y-14.0474
G01 X-40.8083 Y-14.0384
G01 X-40.8018 Y-14.0282
G01 X-40.7922 Y-14.0150
G01 X-40.7808 Y-14.0014
G01 X-40.7724 Y-13.9926
G01 X-40.7637 Y-13.9843
G01 X-40.7542 Y-13.9762
G01 X-40.7435 Y-13.9680
G01 X-40.7321 Y-13.9602
G01 X-40.7198 Y-13.9528
G01 X-40.7065 Y-13.9460
G01 X-40.6941 Y-13.9404
G01 X-40.6811 Y-13.9355
G01 X-40.6612 Y-13.9296
G01 X-40.6508 Y-13.9272
G01 X-40.6358 Y-13.9247
G01 X-40.6191 Y-13.9229
G01 X-40.6065 Y-13.9224
G01 X-40.2801 Y-13.9224
G01 X-40.2801 Y-13.8397
G01 X-40.9255 Y-13.8397
G01 X-40.9256 Y-14.1674
G01 X-40.9266 Y-14.1848
G01 X-40.9284 Y-14.1996
G01 X-40.9308 Y-14.2127
G01 X-40.9352 Y-14.2298
G01 X-40.9403 Y-14.2454
G01 X-40.9462 Y-14.2600
G01 X-40.9522 Y-14.2723
G01 X-40.9600 Y-14.2863
G01 X-40.9665 Y-14.2965
G01 X-40.9761 Y-14.3097
G01 X-40.9875 Y-14.3233
G01 X-40.9958 Y-14.3321
G01 X-41.0083 Y-14.3437
G01 X-41.0184 Y-14.3520
G01 X-41.0294 Y-14.3601
G01 X-41.0411 Y-14.3676
G01 X-41.0541 Y-14.3749
G01 X-41.0668 Y-14.3811
G01 X-41.0794 Y-14.3864
G01 X-41.0929 Y-14.3911
G01 X-41.1070 Y-14.3951
G01 X-41.1264 Y-14.3991
G01 X-41.1442 Y-14.4014
G01 X-41.1655 Y-14.4024
G01 X-42.0508 Y-14.4024
G01 X-42.0508 Y-16.1731
G01 X-41.7282 Y-16.1731
G01 X-41.7097 Y-16.1739
G01 X-41.6957 Y-16.1754
G01 X-41.6776 Y-16.1785
G01 X-41.6568 Y-16.1840
G01 X-41.6427 Y-16.1889
G01 X-41.6236 Y-16.1971
G01 X-41.6042 Y-16.2076
G01 X-41.5899 Y-16.2170
G01 X-41.5735 Y-16.2296
G01 X-41.5587 Y-16.2432
G01 X-41.5451 Y-16.2579
G01 X-41.5328 Y-16.2737
G01 X-41.5214 Y-16.2913
G01 X-41.5133 Y-16.3062
G01 X-41.5052 Y-16.3244
G01 X-41.4991 Y-16.3415
G01 X-41.4947 Y-16.3577
G01 X-41.4904 Y-16.3806
G01 X-41.4890 Y-16.3934
G01 X-41.4882 Y-16.4131
G01 X-41.4882 Y-16.7358
G01 X-41.4055 Y-16.7358
G01 X-41.4055 Y-16.4131
G01 X-41.4051 Y-16.4010
G01 X-41.4043 Y-16.3896
G01 X-41.4032 Y-16.3806
G01 X-41.4007 Y-16.3660
G01 X-41.3978 Y-16.3529
G01 X-41.3945 Y-16.3415
G01 X-41.3869 Y-16.3206
G01 X-41.3780 Y-16.3017
G01 X-41.3722 Y-16.2913
G01 X-41.3649 Y-16.2796
G01 X-41.3583 Y-16.2703
G01 X-41.3485 Y-16.2579
G01 X-41.3390 Y-16.2474
G01 X-41.3319 Y-16.2402
G01 X-41.3245 Y-16.2334
G01 X-41.3123 Y-16.2233
G01 X-41.3037 Y-16.2170
G01 X-41.2937 Y-16.2103
G01 X-41.2825 Y-16.2036
G01 X-41.2661 Y-16.1953
G01 X-41.2509 Y-16.1889
G01 X-41.2368 Y-16.1840
G01 X-41.2205 Y-16.1795
G01 X-41.2097 Y-16.1773
G01 X-41.1921 Y-16.1746
G01 X-41.1781 Y-16.1735
G01 X-41.1655 Y-16.1731
G01 X-40.5914 Y-16.1732
G01 X-40.5725 Y-16.1745
G01 X-40.5593 Y-16.1762
G01 X-40.5392 Y-16.1803
G01 X-40.5236 Y-16.1848
G01 X-40.5046 Y-16.1918
G01 X-40.4904 Y-16.1983
G01 X-40.4764 Y-16.2059
G01 X-40.4603 Y-16.2162
G01 X-40.4456 Y-16.2273
G01 X-40.4344 Y-16.2371
G01 X-40.4210 Y-16.2504
G01 X-40.4127 Y-16.2599
G01 X-40.4019 Y-16.2741
G01 X-40.3921 Y-16.2890
G01 X-40.3829 Y-16.3056
G01 X-40.3759 Y-16.3208
G01 X-40.3699 Y-16.3371
G01 X-40.3639 Y-16.3580
G01 X-40.3597 Y-16.3806
G01 X-40.3583 Y-16.3934
G01 X-40.3577 Y-16.4029
G01 X-40.3575 Y-16.4154
G01 X-40.3605 Y-16.7358
G01 X-39.4721 Y-16.7358
G01 X-39.4594 Y-16.7362
G01 X-39.4396 Y-16.7381
G01 X-39.4215 Y-16.7412
G01 X-39.4066 Y-16.7449
G01 X-39.3866 Y-16.7516
G01 X-39.3675 Y-16.7598
G01 X-39.3481 Y-16.7703
G01 X-39.3338 Y-16.7797
G01 X-39.3174 Y-16.7923
G01 X-39.3026 Y-16.8059
G01 X-39.2957 Y-16.8131
G01 X-39.2853 Y-16.8251
G01 X-39.2727 Y-16.8423
G01 X-39.2628 Y-16.8583
G01 X-39.2529 Y-16.8782
G01 X-39.2452 Y-16.8976
G01 X-39.2398 Y-16.9156
G01 X-39.2355 Y-16.9357
G01 X-39.2329 Y-16.9561
G01 X-39.2321 Y-16.9758
G01 X-39.2321 Y-17.2985
G01 X-39.1494 Y-17.2985
G01 X-39.1494 Y-16.9758
G01 X-39.1490 Y-16.9637
G01 X-39.1472 Y-16.9433
G01 X-39.1447 Y-16.9287
G01 X-39.1417 Y-16.9156
G01 X-39.1384 Y-16.9042
G01 X-39.1346 Y-16.8929
G01 X-39.1286 Y-16.8782
G01 X-39.1242 Y-16.8689
G01 X-39.1186 Y-16.8583
G01 X-39.1121 Y-16.8474
G01 X-39.1047 Y-16.8364
G01 X-39.0961 Y-16.8251
G01 X-39.0858 Y-16.8131
G01 X-39.0758 Y-16.8029
G01 X-39.0685 Y-16.7961
G01 X-39.0562 Y-16.7860
G01 X-39.0435 Y-16.7768
G01 X-39.0333 Y-16.7703
G01 X-39.0207 Y-16.7632
G01 X-39.0101 Y-16.7580
G01 X-38.9948 Y-16.7516
G01 X-38.9850 Y-16.7480
G01 X-38.9706 Y-16.7438
G01 X-38.9600 Y-16.7412
G01 X-38.9491 Y-16.7391
G01 X-38.9360 Y-16.7373
G01 X-38.9220 Y-16.7362
G01 X-38.9094 Y-16.7358
G01 X-37.2213 Y-16.7358
G01 X-37.2087 Y-16.7362
G01 X-37.1947 Y-16.7373
G01 X-37.1816 Y-16.7391
G01 X-37.1708 Y-16.7412
G01 X-37.1559 Y-16.7449
G01 X-37.1457 Y-16.7480
G01 X-37.1302 Y-16.7538
G01 X-37.1167 Y-16.7598
G01 X-37.1043 Y-16.7663
G01 X-37.0931 Y-16.7730
G01 X-37.0830 Y-16.7797
G01 X-37.0745 Y-16.7860
G01 X-37.0622 Y-16.7961
G01 X-37.0519 Y-16.8059
G01 X-37.0449 Y-16.8131
G01 X-37.0346 Y-16.8251
G01 X-37.0260 Y-16.8364
G01 X-37.0186 Y-16.8474
G01 X-37.0087 Y-16.8644
G01 X-37.0021 Y-16.8782
G01 X-36.9944 Y-16.8976
G01 X-36.9890 Y-16.9156
G01 X-36.9860 Y-16.9287
G01 X-36.9831 Y-16.9470
G01 X-36.9817 Y-16.9637
G01 X-36.9813 Y-16.9758
G01 X-36.9813 Y-17.5385
G01 X-36.9821 Y-17.5583
G01 X-36.9835 Y-17.5711
G01 X-36.9860 Y-17.5857
G01 X-36.9890 Y-17.5988
G01 X-36.9944 Y-17.6168
G01 X-36.9983 Y-17.6273
G01 X-37.0038 Y-17.6398
G01 X-37.0121 Y-17.6560
G01 X-37.0186 Y-17.6669
G01 X-37.0260 Y-17.6779
G01 X-37.0346 Y-17.6892
G01 X-37.0449 Y-17.7012
G01 X-37.0549 Y-17.7114
G01 X-37.0667 Y-17.7220
G01 X-37.0778 Y-17.7309
G01 X-37.0931 Y-17.7414
G01 X-37.1043 Y-17.7480
G01 X-37.1167 Y-17.7545
G01 X-37.1302 Y-17.7605
G01 X-37.1457 Y-17.7663
G01 X-37.1559 Y-17.7694
G01 X-37.1708 Y-17.7731
G01 X-37.1816 Y-17.7752
G01 X-37.1947 Y-17.7770
G01 X-37.2152 Y-17.7784
G01 X-38.6694 Y-17.7785
G01 X-38.6694 Y-17.8612
G01 X-38.3406 Y-17.8613
G01 X-38.3282 Y-17.8619
G01 X-38.3143 Y-17.8634
G01 X-38.3025 Y-17.8653
G01 X-38.2855 Y-17.8692
G01 X-38.2753 Y-17.8721
G01 X-38.2613 Y-17.8769
G01 X-38.2460 Y-17.8834
G01 X-38.2354 Y-17.8886
G01 X-38.2227 Y-17.8957
G01 X-38.2126 Y-17.9022
G01 X-38.2032 Y-17.9089
G01 X-38.1921 Y-17.9177
G01 X-38.1802 Y-17.9283
G01 X-38.1732 Y-17.9354
G01 X-38.1664 Y-17.9428
G01 X-38.1573 Y-17.9538
G01 X-38.1473 Y-17.9677
G01 X-38.1399 Y-17.9794
G01 X-38.1341 Y-17.9898
G01 X-38.1291 Y-17.9999
G01 X-38.1237 Y-18.0124
G01 X-38.1198 Y-18.0230
G01 X-38.1162 Y-18.0343
G01 X-38.1132 Y-18.0458
G01 X-38.1101 Y-18.0611
G01 X-38.1084 Y-18.0724
G01 X-38.1075 Y-18.0815
G01 X-38.1068 Y-18.0962
G01 X-38.1067 Y-18.6692
G01 X-38.1070 Y-18.6813
G01 X-38.1089 Y-18.7018
G01 X-38.1132 Y-18.7246
G01 X-38.1162 Y-18.7361
G01 X-38.1198 Y-18.7475
G01 X-38.1275 Y-18.7669
G01 X-38.1334 Y-18.7792
G01 X-38.1380 Y-18.7877
G01 X-38.1439 Y-18.7974
G01 X-38.1506 Y-18.8075
G01 X-38.1638 Y-18.8246
G01 X-38.1775 Y-18.8394
G01 X-38.1842 Y-18.8458
G01 X-38.1950 Y-18.8551
G01 X-38.2108 Y-18.8670
G01 X-38.2287 Y-18.8782
G01 X-38.2388 Y-18.8836
G01 X-38.2493 Y-18.8885
G01 X-38.2603 Y-18.8931
G01 X-38.2717 Y-18.8972
G01 X-38.2891 Y-18.9022
G01 X-38.3098 Y-18.9063
G01 X-38.3217 Y-18.9079
G01 X-38.3344 Y-18.9089
G01 X-38.3478 Y-18.9092
G01 X-39.2321 Y-18.9050
G01 X-39.2321 Y-18.9866
G01 X-38.9094 Y-18.9866
G01 X-38.8909 Y-18.9873
G01 X-38.8769 Y-18.9888
G01 X-38.8588 Y-18.9920
G01 X-38.8439 Y-18.9957
G01 X-38.8280 Y-19.0008
G01 X-38.8087 Y-19.0087
G01 X-38.7924 Y-19.0171
G01 X-38.7752 Y-19.0276
G01 X-38.7626 Y-19.0368
G01 X-38.7472 Y-19.0497
G01 X-38.7330 Y-19.0639
G01 X-38.7200 Y-19.0791
G01 X-38.7141 Y-19.0872
G01 X-38.7067 Y-19.0982
G01 X-38.6968 Y-19.1152
G01 X-38.6879 Y-19.1341
G01 X-38.6804 Y-19.1549
G01 X-38.6759 Y-19.1712
G01 X-38.6716 Y-19.1940
G01 X-38.6702 Y-19.2068
G01 X-38.6694 Y-19.2266
G01 X-38.6694 Y-19.5546
G01 X-38.3467 Y-19.5546
G01 X-38.3282 Y-19.5553
G01 X-38.3143 Y-19.5568
G01 X-38.2961 Y-19.5600
G01 X-38.2812 Y-19.5637
G01 X-38.2653 Y-19.5688
G01 X-38.2460 Y-19.5767
G01 X-38.2297 Y-19.5851
G01 X-38.2126 Y-19.5956
G01 X-38.1999 Y-19.6048
G01 X-38.1876 Y-19.6149
G01 X-38.1732 Y-19.6288
G01 X-38.1599 Y-19.6439
G01 X-38.1473 Y-19.6611
G01 X-38.1374 Y-19.6771
G01 X-38.1275 Y-19.6969
G01 X-38.1198 Y-19.7163
G01 X-38.1144 Y-19.7344
G01 X-38.1101 Y-19.7545
G01 X-38.1075 Y-19.7748
G01 X-38.1067 Y-19.7946
G01 X-38.1067 Y-20.1142
G01 X-38.0240 Y-20.1150
G01 X-38.0239 Y-18.6642
G01 X-38.0232 Y-18.6495
G01 X-38.0218 Y-18.6367
G01 X-38.0193 Y-18.6221
G01 X-38.0145 Y-18.6023
G01 X-38.0092 Y-18.5863
G01 X-38.0032 Y-18.5716
G01 X-37.9966 Y-18.5578
G01 X-37.9867 Y-18.5408
G01 X-37.9793 Y-18.5298
G01 X-37.9708 Y-18.5185
G01 X-37.9604 Y-18.5065
G01 X-37.9505 Y-18.4963
G01 X-37.9386 Y-18.4857
G01 X-37.9275 Y-18.4769
G01 X-37.9122 Y-18.4664
G01 X-37.9010 Y-18.4597
G01 X-37.8886 Y-18.4532
G01 X-37.8751 Y-18.4472
G01 X-37.8596 Y-18.4414
G01 X-37.8495 Y-18.4383
G01 X-37.8346 Y-18.4346
G01 X-37.8237 Y-18.4325
G01 X-37.8106 Y-18.4307
G01 X-37.7901 Y-18.4293
G01 X-37.2213 Y-18.4292
G01 X-37.2087 Y-18.4296
G01 X-37.1947 Y-18.4307
G01 X-37.1816 Y-18.4325
G01 X-37.1708 Y-18.4346
G01 X-37.1499 Y-18.4401
G01 X-37.1302 Y-18.4472
G01 X-37.1206 Y-18.4514
G01 X-37.1100 Y-18.4566
G01 X-37.0974 Y-18.4637
G01 X-37.0872 Y-18.4702
G01 X-37.0699 Y-18.4830
G01 X-37.0549 Y-18.4963
G01 X-37.0478 Y-18.5034
G01 X-37.0383 Y-18.5140
G01 X-37.0260 Y-18.5298
G01 X-37.0145 Y-18.5474
G01 X-37.0087 Y-18.5578
G01 X-37.0038 Y-18.5679
G01 X-36.9961 Y-18.5863
G01 X-36.9908 Y-18.6023
G01 X-36.9860 Y-18.6221
G01 X-36.9831 Y-18.6404
G01 X-36.9821 Y-18.6495
G01 X-36.9814 Y-18.6642
G01 X-36.9813 Y-20.3573
G01 X-36.9817 Y-20.3694
G01 X-36.9831 Y-20.3861
G01 X-36.9847 Y-20.3974
G01 X-36.9878 Y-20.4127
G01 X-36.9923 Y-20.4289
G01 X-36.9961 Y-20.4402
G01 X-37.0021 Y-20.4549
G01 X-37.0065 Y-20.4643
G01 X-37.0121 Y-20.4748
G01 X-37.0186 Y-20.4857
G01 X-37.0260 Y-20.4967
G01 X-37.0346 Y-20.5080
G01 X-37.0449 Y-20.5200
G01 X-37.0519 Y-20.5272
G01 X-37.0591 Y-20.5342
G01 X-37.0699 Y-20.5435
G01 X-37.0830 Y-20.5534
G01 X-37.0931 Y-20.5601
G01 X-37.1043 Y-20.5668
G01 X-37.1167 Y-20.5733
G01 X-37.1302 Y-20.5793
G01 X-37.1399 Y-20.5831
G01 X-37.1601 Y-20.5893
G01 X-37.1816 Y-20.5940
G01 X-37.1947 Y-20.5958
G01 X-37.2087 Y-20.5969
G01 X-37.2213 Y-20.5973
G01 X-37.5440 Y-20.5973
G01 X-37.5440 Y-20.6800
G01 X-37.2188 Y-20.6800
G01 X-37.2087 Y-20.6803
G01 X-37.1947 Y-20.6815
G01 X-37.1816 Y-20.6833
G01 X-37.1708 Y-20.6854
G01 X-37.1499 Y-20.6909
G01 X-37.1399 Y-20.6942
G01 X-37.1262 Y-20.6996
G01 X-37.1167 Y-20.7040
G01 X-37.1043 Y-20.7105
G01 X-37.0931 Y-20.7171
G01 X-37.0830 Y-20.7238
G01 X-37.0745 Y-20.7302
G01 X-37.0622 Y-20.7403
G01 X-37.0519 Y-20.7500
G01 X-37.0449 Y-20.7573
G01 X-37.0383 Y-20.7648
G01 X-37.0284 Y-20.7772
G01 X-37.0219 Y-20.7865
G01 X-37.0145 Y-20.7982
G01 X-37.0065 Y-20.8130
G01 X-36.9999 Y-20.8275
G01 X-36.9944 Y-20.8417
G01 X-36.9890 Y-20.8597
G01 X-36.9860 Y-20.8728
G01 X-36.9831 Y-20.8912
G01 X-36.9817 Y-20.9079
G01 X-36.9813 Y-20.9200
G01 X-36.9813 Y-21.4827
G01 X-36.9817 Y-21.4948
G01 X-36.9831 Y-21.5115
G01 X-36.9847 Y-21.5228
G01 X-36.9878 Y-21.5381
G01 X-36.9908 Y-21.5496
G01 X-36.9944 Y-21.5609
G01 X-36.9999 Y-21.5752
G01 X-37.0065 Y-21.5896
G01 X-37.0121 Y-21.6002
G01 X-37.0186 Y-21.6111
G01 X-37.0260 Y-21.6221
G01 X-37.0346 Y-21.6334
G01 X-37.0449 Y-21.6454
G01 X-37.0549 Y-21.6556
G01 X-37.0667 Y-21.6662
G01 X-37.0778 Y-21.6750
G01 X-37.0872 Y-21.6817
G01 X-37.0974 Y-21.6882
G01 X-37.1100 Y-21.6952
G01 X-37.1262 Y-21.7030
G01 X-37.1399 Y-21.7084
G01 X-37.1559 Y-21.7136
G01 X-37.1662 Y-21.7163
G01 X-37.1816 Y-21.7193
G01 X-37.1947 Y-21.7212
G01 X-37.2087 Y-21.7223
G01 X-37.2213 Y-21.7227
G01 X-37.7901 Y-21.7226
G01 X-37.8106 Y-21.7212
G01 X-37.8237 Y-21.7193
G01 X-37.8346 Y-21.7173
G01 X-37.8554 Y-21.7118
G01 X-37.8751 Y-21.7047
G01 X-37.8886 Y-21.6987
G01 X-37.9010 Y-21.6922
G01 X-37.9122 Y-21.6855
G01 X-37.9223 Y-21.6788
G01 X-37.9308 Y-21.6725
G01 X-37.9431 Y-21.6624
G01 X-37.9534 Y-21.6526
G01 X-37.9643 Y-21.6410
G01 X-37.9734 Y-21.6301
G01 X-37.9834 Y-21.6162
G01 X-37.9908 Y-21.6045
G01 X-37.9966 Y-21.5941
G01 X-38.0016 Y-21.5840
G01 X-38.0070 Y-21.5714
G01 X-38.0130 Y-21.5543
G01 X-38.0163 Y-21.5429
G01 X-38.0193 Y-21.5298
G01 X-38.0218 Y-21.5152
G01 X-38.0232 Y-21.5024
G01 X-38.0239 Y-21.4877
G01 X-38.0240 Y-21.1600
G01 X-38.1067 Y-21.1600
G01 X-38.1067 Y-22.0454
G01 X-38.1075 Y-22.0651
G01 X-38.1089 Y-22.0779
G01 X-38.1114 Y-22.0925
G01 X-38.1162 Y-22.1123
G01 X-38.1215 Y-22.1283
G01 X-38.1275 Y-22.1430
G01 X-38.1341 Y-22.1567
G01 X-38.1399 Y-22.1672
G01 X-38.1514 Y-22.1848
G01 X-38.1599 Y-22.1961
G01 X-38.1732 Y-22.2111
G01 X-38.1845 Y-22.2223
G01 X-38.1953 Y-22.2316
G01 X-38.2084 Y-22.2415
G01 X-38.2227 Y-22.2509
G01 X-38.2354 Y-22.2579
G01 X-38.2516 Y-22.2657
G01 X-38.2653 Y-22.2711
G01 X-38.2855 Y-22.2774
G01 X-38.3025 Y-22.2812
G01 X-38.3201 Y-22.2839
G01 X-38.3406 Y-22.2853
G01 X-38.9208 Y-22.2853
G01 X-38.9413 Y-22.2839
G01 X-38.9544 Y-22.2820
G01 X-38.9653 Y-22.2800
G01 X-38.9802 Y-22.2762
G01 X-38.9903 Y-22.2731
G01 X-39.0058 Y-22.2674
G01 X-39.0193 Y-22.2614
G01 X-39.0317 Y-22.2549
G01 X-39.0429 Y-22.2482
G01 X-39.0530 Y-22.2415
G01 X-39.0615 Y-22.2352
G01 X-39.0738 Y-22.2251
G01 X-39.0841 Y-22.2153
G01 X-39.0911 Y-22.2081
G01 X-39.0977 Y-22.2006
G01 X-39.1076 Y-22.1882
G01 X-39.1141 Y-22.1789
G01 X-39.1215 Y-22.1672
G01 X-39.1273 Y-22.1567
G01 X-39.1323 Y-22.1467
G01 X-39.1377 Y-22.1341
G01 X-39.1416 Y-22.1236
G01 X-39.1452 Y-22.1123
G01 X-39.1482 Y-22.1008
G01 X-39.1513 Y-22.0855
G01 X-39.1530 Y-22.0741
G01 X-39.1544 Y-22.0575
G01 X-39.1547 Y-22.0454
G01 X-39.1547 Y-21.7227
G01 X-39.2321 Y-21.7227
G01 X-39.2322 Y-22.0504
G01 X-39.2332 Y-22.0689
G01 X-39.2355 Y-22.0855
G01 X-39.2386 Y-22.1008
G01 X-39.2430 Y-22.1170
G01 X-39.2491 Y-22.1341
G01 X-39.2545 Y-22.1467
G01 X-39.2628 Y-22.1629
G01 X-39.2693 Y-22.1738
G01 X-39.2768 Y-22.1848
G01 X-39.2853 Y-22.1961
G01 X-39.2957 Y-22.2081
G01 X-39.3056 Y-22.2182
G01 X-39.3174 Y-22.2289
G01 X-39.3286 Y-22.2377
G01 X-39.3438 Y-22.2482
G01 X-39.3551 Y-22.2549
G01 X-39.3675 Y-22.2614
G01 X-39.3810 Y-22.2674
G01 X-39.3965 Y-22.2731
G01 X-39.4066 Y-22.2762
G01 X-39.4215 Y-22.2800
G01 X-39.4396 Y-22.2831
G01 X-39.4536 Y-22.2846
G01 X-39.4721 Y-22.2854
G01 X-41.1655 Y-22.2854
G01 X-41.1840 Y-22.2846
G01 X-41.2051 Y-22.2820
G01 X-41.2205 Y-22.2789
G01 X-41.2410 Y-22.2731
G01 X-41.2606 Y-22.2657
G01 X-41.2768 Y-22.2579
G01 X-41.2937 Y-22.2482
G01 X-41.3090 Y-22.2377
G01 X-41.3245 Y-22.2251
G01 X-41.3390 Y-22.2111
G01 X-41.3522 Y-22.1961
G01 X-41.3649 Y-22.1789
G01 X-41.3747 Y-22.1629
G01 X-41.3830 Y-22.1467
G01 X-41.3907 Y-22.1283
G01 X-41.3959 Y-22.1123
G01 X-41.4007 Y-22.0925
G01 X-41.4032 Y-22.0779
G01 X-41.4043 Y-22.0689
G01 X-41.4051 Y-22.0575
G01 X-41.4055 Y-22.0454
G01 X-41.4055 Y-21.1600
G01 X-42.6135 Y-21.1600
G01 X-42.6135 Y-21.2427
G01 X-42.2848 Y-21.2428
G01 X-42.2724 Y-21.2434
G01 X-42.2584 Y-21.2449
G01 X-42.2466 Y-21.2468
G01 X-42.2297 Y-21.2506
G01 X-42.2195 Y-21.2535
G01 X-42.2054 Y-21.2584
G01 X-42.1902 Y-21.2648
G01 X-42.1795 Y-21.2701
G01 X-42.1669 Y-21.2772
G01 X-42.1567 Y-21.2837
G01 X-42.1473 Y-21.2903
G01 X-42.1362 Y-21.2991
G01 X-42.1244 Y-21.3098
G01 X-42.1173 Y-21.3169
G01 X-42.1078 Y-21.3275
G01 X-42.0980 Y-21.3399
G01 X-42.0914 Y-21.3492
G01 X-42.0841 Y-21.3609
G01 X-42.0783 Y-21.3713
G01 X-42.0716 Y-21.3850
G01 X-42.0640 Y-21.4044
G01 X-42.0604 Y-21.4157
G01 X-42.0574 Y-21.4272
G01 X-42.0543 Y-21.4426
G01 X-42.0526 Y-21.4539
G01 X-42.0517 Y-21.4629
G01 X-42.0509 Y-21.4777
G01 X-42.0508 Y-22.0454
G01 X-42.0517 Y-22.0651
G01 X-42.0531 Y-22.0779
G01 X-42.0556 Y-22.0925
G01 X-42.0586 Y-22.1056
G01 X-42.0618 Y-22.1170
G01 X-42.0656 Y-22.1283
G01 X-42.0716 Y-22.1430
G01 X-42.0816 Y-22.1629
G01 X-42.0881 Y-22.1738
G01 X-42.0955 Y-22.1848
G01 X-42.1078 Y-22.2006
G01 X-42.1173 Y-22.2111
G01 X-42.1244 Y-22.2182
G01 X-42.1318 Y-22.2251
G01 X-42.1440 Y-22.2352
G01 X-42.1567 Y-22.2444
G01 X-42.1739 Y-22.2549
G01 X-42.1902 Y-22.2632
G01 X-42.2095 Y-22.2711
G01 X-42.2297 Y-22.2774
G01 X-42.2466 Y-22.2812
G01 X-42.2642 Y-22.2839
G01 X-42.2848 Y-22.2853
G01 X-42.8596 Y-22.2853
G01 X-42.8720 Y-22.2846
G01 X-42.8860 Y-22.2831
G01 X-42.8978 Y-22.2812
G01 X-42.9086 Y-22.2789
G01 X-42.9190 Y-22.2762
G01 X-42.9349 Y-22.2711
G01 X-42.9446 Y-22.2674
G01 X-42.9581 Y-22.2614
G01 X-42.9705 Y-22.2549
G01 X-42.9818 Y-22.2482
G01 X-42.9918 Y-22.2415
G01 X-43.0050 Y-22.2316
G01 X-43.0157 Y-22.2223
G01 X-43.0230 Y-22.2153
G01 X-43.0299 Y-22.2081
G01 X-43.0403 Y-22.1961
G01 X-43.0489 Y-22.1848
G01 X-43.0563 Y-22.1738
G01 X-43.0628 Y-22.1629
G01 X-43.0684 Y-22.1523
G01 X-43.0728 Y-22.1430
G01 X-43.0787 Y-22.1283
G01 X-43.0826 Y-22.1170
G01 X-43.0858 Y-22.1056
G01 X-43.0888 Y-22.0925
G01 X-43.0913 Y-22.0779
G01 X-43.0927 Y-22.0651
G01 X-43.0935 Y-22.0504
G01 X-43.0935 Y-21.7227
G01 X-43.1762 Y-21.7227
G01 X-43.1762 Y-22.0454
G01 X-43.1766 Y-22.0575
G01 X-43.1780 Y-22.0741
G01 X-43.1796 Y-22.0855
G01 X-43.1827 Y-22.1008
G01 X-43.1858 Y-22.1123
G01 X-43.1894 Y-22.1236
G01 X-43.1933 Y-22.1341
G01 X-43.1987 Y-22.1467
G01 X-43.2037 Y-22.1567
G01 X-43.2095 Y-22.1672
G01 X-43.2168 Y-22.1789
G01 X-43.2234 Y-22.1882
G01 X-43.2332 Y-22.2006
G01 X-43.2398 Y-22.2081
G01 X-43.2541 Y-22.2223
G01 X-43.2616 Y-22.2289
G01 X-43.2727 Y-22.2377
G01 X-43.2821 Y-22.2444
G01 X-43.2923 Y-22.2509
G01 X-43.3049 Y-22.2579
G01 X-43.3211 Y-22.2657
G01 X-43.3349 Y-22.2711
G01 X-43.3508 Y-22.2762
G01 X-43.3657 Y-22.2800
G01 X-43.3766 Y-22.2820
G01 X-43.3896 Y-22.2839
G01 X-43.4102 Y-22.2853
G01 X-43.9850 Y-22.2853
G01 X-44.0056 Y-22.2839
G01 X-44.0186 Y-22.2820
G01 X-44.0295 Y-22.2800
G01 X-44.0503 Y-22.2745
G01 X-44.0700 Y-22.2674
G01 X-44.0835 Y-22.2614
G01 X-44.0959 Y-22.2549
G01 X-44.1072 Y-22.2482
G01 X-44.1224 Y-22.2377
G01 X-44.1336 Y-22.2289
G01 X-44.1454 Y-22.2182
G01 X-44.1553 Y-22.2081
G01 X-44.1683 Y-22.1928
G01 X-44.1783 Y-22.1789
G01 X-44.1857 Y-22.1672
G01 X-44.1937 Y-22.1523
G01 X-44.2004 Y-22.1378
G01 X-44.2058 Y-22.1236
G01 X-44.2112 Y-22.1056
G01 X-44.2142 Y-22.0925
G01 X-44.2172 Y-22.0741
G01 X-44.2186 Y-22.0575
G01 X-44.2189 Y-22.0454
G01 X-44.2189 Y-21.4827
G01 X-44.2186 Y-21.4706
