(G-CODE GENERATED BY FLATCAM v8.98 - www.flatcam.org - Version Date: 2019/10/16)

(Name: Плата - CADCAM Bottom Copper.TXT_cutout_copy_copy_cnc)
(Type: G-code from Geometry)
(Units: MM)

(Created on Wednesday, 08 January 2020 at 16:28)

(TOOL DIAMETER: 2.0 mm)
(Feedrate: 20.0 mm/min)
(Feedrate_Z: 20.0 mm/min)
(Feedrate rapids 20.0 mm/min)

(Z_Cut: -1.8 mm)
(DepthPerCut: 0.9 mm <=>2 passes)
(Z_Move: 1.0 mm)
(Z Toolchange: 10.0 mm)
(X,Y Toolchange: 0.0000, 0.0000 mm)
(Z Start: None mm)
(Z End: 10.0 mm)
(Steps per circle: 128)
(Postprocessor Geometry: default)

(X range:  -56.2255 ...    6.2241  mm)
(Y range:  -46.2256 ...    6.2241  mm)

(Spindle Speed: 500 RPM)

G21
G90
G94

G01 F20.00
G00 Z1.0000

M03 S500
G00 X4.9980 Y6.2241
G01 F20.00
G01 Z-0.9000
G01 F20.00
G01 X5.0312 Y6.2236
G01 X5.0581 Y6.2226
G01 X5.0913 Y6.2205
G01 X5.1181 Y6.2182
G01 X5.1450 Y6.2152
G01 X5.1779 Y6.2109
G01 X5.2045 Y6.2066
G01 X5.2372 Y6.2006
G01 X5.2696 Y6.1936
G01 X5.2959 Y6.1874
G01 X5.3280 Y6.1788
G01 X5.3539 Y6.1713
G01 X5.3796 Y6.1632
G01 X5.4110 Y6.1524
G01 X5.4421 Y6.1408
G01 X5.4672 Y6.1308
G01 X5.4977 Y6.1176
G01 X5.5222 Y6.1064
G01 X5.5520 Y6.0918
G01 X5.5760 Y6.0793
G01 X5.6050 Y6.0633
G01 X5.6283 Y6.0497
G01 X5.6566 Y6.0322
G01 X5.6792 Y6.0175
G01 X5.7065 Y5.9986
G01 X5.7284 Y5.9828
G01 X5.7537 Y5.9635
G01 X5.7758 Y5.9458
G01 X5.7965 Y5.9284
G01 X5.8214 Y5.9065
G01 X5.8412 Y5.8881
G01 X5.8650 Y5.8650
G01 X5.8838 Y5.8457
G01 X5.9065 Y5.8214
G01 X5.9244 Y5.8012
G01 X5.9458 Y5.7758
G01 X5.9627 Y5.7548
G01 X5.9828 Y5.7284
G01 X5.9986 Y5.7065
G01 X6.0175 Y5.6792
G01 X6.0322 Y5.6566
G01 X6.0497 Y5.6283
G01 X6.0663 Y5.5996
G01 X6.0793 Y5.5760
G01 X6.0946 Y5.5465
G01 X6.1064 Y5.5222
G01 X6.1176 Y5.4977
G01 X6.1308 Y5.4672
G01 X6.1430 Y5.4363
G01 X6.1524 Y5.4110
G01 X6.1632 Y5.3796
G01 X6.1713 Y5.3539
G01 X6.1788 Y5.3280
G01 X6.1874 Y5.2959
G01 X6.1936 Y5.2696
G01 X6.2006 Y5.2372
G01 X6.2066 Y5.2045
G01 X6.2109 Y5.1779
G01 X6.2152 Y5.1450
G01 X6.2182 Y5.1181
G01 X6.2205 Y5.0913
G01 X6.2226 Y5.0581
G01 X6.2236 Y5.0312
G01 X6.2241 Y4.9980
G01 X6.2241 Y-17.9016
G00 X6.2241 Y-17.9016
G01 F20.00
G01 Z-1.8000
G01 F20.00
G01 X6.2241 Y4.9980
G01 X6.2236 Y5.0312
G01 X6.2226 Y5.0581
G01 X6.2205 Y5.0913
G01 X6.2182 Y5.1181
G01 X6.2152 Y5.1450
G01 X6.2109 Y5.1779
G01 X6.2066 Y5.2045
G01 X6.2006 Y5.2372
G01 X6.1936 Y5.2696
G01 X6.1874 Y5.2959
G01 X6.1788 Y5.3280
G01 X6.1713 Y5.3539
G01 X6.1632 Y5.3796
G01 X6.1524 Y5.4110
G01 X6.1430 Y5.4363
G01 X6.1308 Y5.4672
G01 X6.1176 Y5.4977
G01 X6.1064 Y5.5222
G01 X6.0946 Y5.5465
G01 X6.0793 Y5.5760
G01 X6.0663 Y5.5996
G01 X6.0497 Y5.6283
G01 X6.0322 Y5.6566
G01 X6.0175 Y5.6792
G01 X5.9986 Y5.7065
G01 X5.9828 Y5.7284
G01 X5.9627 Y5.7548
G01 X5.9458 Y5.7758
G01 X5.9244 Y5.8012
G01 X5.9065 Y5.8214
G01 X5.8838 Y5.8457
G01 X5.8650 Y5.8650
G01 X5.8412 Y5.8881
G01 X5.8214 Y5.9065
G01 X5.7965 Y5.9284
G01 X5.7758 Y5.9458
G01 X5.7537 Y5.9635
G01 X5.7284 Y5.9828
G01 X5.7065 Y5.9986
G01 X5.6792 Y6.0175
G01 X5.6566 Y6.0322
G01 X5.6283 Y6.0497
G01 X5.6050 Y6.0633
G01 X5.5760 Y6.0793
G01 X5.5520 Y6.0918
G01 X5.5222 Y6.1064
G01 X5.4977 Y6.1176
G01 X5.4672 Y6.1308
G01 X5.4421 Y6.1408
G01 X5.4110 Y6.1524
G01 X5.3796 Y6.1632
G01 X5.3539 Y6.1713
G01 X5.3280 Y6.1788
G01 X5.2959 Y6.1874
G01 X5.2696 Y6.1936
G01 X5.2372 Y6.2006
G01 X5.2045 Y6.2066
G01 X5.1779 Y6.2109
G01 X5.1450 Y6.2152
G01 X5.1181 Y6.2182
G01 X5.0913 Y6.2205
G01 X5.0581 Y6.2226
G01 X5.0312 Y6.2236
G01 X4.9980 Y6.2241
G00 Z1.0000
G00 X4.9980 Y6.2241
G01 F20.00
G01 Z-0.9000
G01 F20.00
G01 X-34.9994 Y6.2241
G01 X-35.0264 Y6.2238
G01 X-35.0596 Y6.2226
G01 X-35.0865 Y6.2210
G01 X-35.1196 Y6.2182
G01 X-35.1526 Y6.2145
G01 X-35.1793 Y6.2109
G01 X-35.2121 Y6.2055
G01 X-35.2386 Y6.2006
G01 X-35.2650 Y6.1950
G01 X-35.2973 Y6.1874
G01 X-35.3234 Y6.1805
G01 X-35.3553 Y6.1713
G01 X-35.3810 Y6.1632
G01 X-35.4124 Y6.1525
G01 X-35.4435 Y6.1408
G01 X-35.4686 Y6.1308
G01 X-35.4991 Y6.1177
G01 X-35.5236 Y6.1064
G01 X-35.5534 Y6.0918
G01 X-35.5773 Y6.0794
G01 X-35.6064 Y6.0633
G01 X-35.6297 Y6.0497
G01 X-35.6579 Y6.0323
G01 X-35.6805 Y6.0175
G01 X-35.7079 Y5.9987
G01 X-35.7297 Y5.9829
G01 X-35.7561 Y5.9627
G01 X-35.7772 Y5.9459
G01 X-35.8025 Y5.9245
G01 X-35.8227 Y5.9066
G01 X-35.8567 Y5.8746
G01 X-44.5064 Y-2.7726
G01 X-54.9994 Y-2.7726
G01 X-55.0264 Y-2.7729
G01 X-55.0595 Y-2.7740
G01 X-55.0865 Y-2.7757
G01 X-55.1196 Y-2.7785
G01 X-55.1464 Y-2.7814
G01 X-55.1793 Y-2.7858
G01 X-55.2121 Y-2.7912
G01 X-55.2386 Y-2.7961
G01 X-55.2711 Y-2.8031
G01 X-55.2973 Y-2.8093
G01 X-55.3234 Y-2.8162
G01 X-55.3553 Y-2.8254
G01 X-55.3870 Y-2.8355
G01 X-55.4125 Y-2.8442
G01 X-55.4436 Y-2.8559
G01 X-55.4686 Y-2.8659
G01 X-55.4991 Y-2.8790
G01 X-55.5236 Y-2.8903
G01 X-55.5479 Y-2.9021
G01 X-55.5774 Y-2.9173
G01 X-55.6064 Y-2.9334
G01 X-55.6298 Y-2.9470
G01 X-55.6527 Y-2.9612
G01 X-55.6806 Y-2.9792
G01 X-55.7028 Y-2.9945
G01 X-55.7298 Y-3.0139
G01 X-55.7562 Y-3.0340
G01 X-55.7773 Y-3.0509
G01 X-55.8026 Y-3.0723
G01 X-55.8228 Y-3.0902
G01 X-55.8426 Y-3.1086
G01 X-55.8664 Y-3.1317
G01 X-55.8895 Y-3.1555
G01 X-55.9079 Y-3.1753
G01 X-55.9258 Y-3.1955
G01 X-55.9472 Y-3.2209
G01 X-55.9679 Y-3.2468
G01 X-55.9842 Y-3.2683
G01 X-56.0000 Y-3.2902
G01 X-56.0189 Y-3.3175
G01 X-56.0336 Y-3.3401
G01 X-56.0511 Y-3.3683
G01 X-56.0647 Y-3.3917
G01 X-56.0808 Y-3.4207
G01 X-56.0932 Y-3.4447
G01 X-56.1078 Y-3.4745
G01 X-56.1191 Y-3.4990
G01 X-56.1322 Y-3.5295
G01 X-56.1445 Y-3.5604
G01 X-56.1539 Y-3.5856
G01 X-56.1646 Y-3.6171
G01 X-56.1727 Y-3.6428
G01 X-56.1803 Y-3.6687
G01 X-56.1888 Y-3.7008
G01 X-56.1964 Y-3.7331
G01 X-56.2020 Y-3.7595
G01 X-56.2069 Y-3.7860
G01 X-56.2123 Y-3.8188
G01 X-56.2159 Y-3.8455
G01 X-56.2196 Y-3.8785
G01 X-56.2220 Y-3.9054
G01 X-56.2241 Y-3.9386
G01 X-56.2252 Y-3.9717
G01 X-56.2255 Y-3.9987
G01 X-56.2255 Y-17.9016
G00 X-56.2255 Y-17.9016
G01 F20.00
G01 Z-1.8000
G01 F20.00
G01 X-56.2255 Y-3.9987
G01 X-56.2252 Y-3.9717
G01 X-56.2241 Y-3.9386
G01 X-56.2220 Y-3.9054
G01 X-56.2196 Y-3.8785
G01 X-56.2159 Y-3.8455
G01 X-56.2123 Y-3.8188
G01 X-56.2069 Y-3.7860
G01 X-56.2020 Y-3.7595
G01 X-56.1964 Y-3.7331
G01 X-56.1888 Y-3.7008
G01 X-56.1803 Y-3.6687
G01 X-56.1727 Y-3.6428
G01 X-56.1646 Y-3.6171
G01 X-56.1539 Y-3.5856
G01 X-56.1445 Y-3.5604
G01 X-56.1322 Y-3.5295
G01 X-56.1191 Y-3.4990
G01 X-56.1078 Y-3.4745
G01 X-56.0932 Y-3.4447
G01 X-56.0808 Y-3.4207
G01 X-56.0647 Y-3.3917
G01 X-56.0511 Y-3.3683
G01 X-56.0336 Y-3.3401
G01 X-56.0189 Y-3.3175
G01 X-56.0000 Y-3.2902
G01 X-55.9842 Y-3.2683
G01 X-55.9679 Y-3.2468
G01 X-55.9472 Y-3.2209
G01 X-55.9258 Y-3.1955
G01 X-55.9079 Y-3.1753
G01 X-55.8895 Y-3.1555
G01 X-55.8664 Y-3.1317
G01 X-55.8426 Y-3.1086
G01 X-55.8228 Y-3.0902
G01 X-55.8026 Y-3.0723
G01 X-55.7773 Y-3.0509
G01 X-55.7562 Y-3.0340
G01 X-55.7298 Y-3.0139
G01 X-55.7028 Y-2.9945
G01 X-55.6806 Y-2.9792
G01 X-55.6527 Y-2.9612
G01 X-55.6298 Y-2.9470
G01 X-55.6064 Y-2.9334
G01 X-55.5774 Y-2.9173
G01 X-55.5479 Y-2.9021
G01 X-55.5236 Y-2.8903
G01 X-55.4991 Y-2.8790
G01 X-55.4686 Y-2.8659
G01 X-55.4436 Y-2.8559
G01 X-55.4125 Y-2.8442
G01 X-55.3870 Y-2.8355
G01 X-55.3553 Y-2.8254
G01 X-55.3234 Y-2.8162
G01 X-55.2973 Y-2.8093
G01 X-55.2711 Y-2.8031
G01 X-55.2386 Y-2.7961
G01 X-55.2121 Y-2.7912
G01 X-55.1793 Y-2.7858
G01 X-55.1464 Y-2.7814
G01 X-55.1196 Y-2.7785
G01 X-55.0865 Y-2.7757
G01 X-55.0595 Y-2.7740
G01 X-55.0264 Y-2.7729
G01 X-54.9994 Y-2.7726
G01 X-44.5064 Y-2.7726
G01 X-35.8567 Y5.8746
G01 X-35.8227 Y5.9066
G01 X-35.8025 Y5.9245
G01 X-35.7772 Y5.9459
G01 X-35.7561 Y5.9627
G01 X-35.7297 Y5.9829
G01 X-35.7079 Y5.9987
G01 X-35.6805 Y6.0175
G01 X-35.6579 Y6.0323
G01 X-35.6297 Y6.0497
G01 X-35.6064 Y6.0633
G01 X-35.5773 Y6.0794
G01 X-35.5534 Y6.0918
G01 X-35.5236 Y6.1064
G01 X-35.4991 Y6.1177
G01 X-35.4686 Y6.1308
G01 X-35.4435 Y6.1408
G01 X-35.4124 Y6.1525
G01 X-35.3810 Y6.1632
G01 X-35.3553 Y6.1713
G01 X-35.3234 Y6.1805
G01 X-35.2973 Y6.1874
G01 X-35.2650 Y6.1950
G01 X-35.2386 Y6.2006
G01 X-35.2121 Y6.2055
G01 X-35.1793 Y6.2109
G01 X-35.1526 Y6.2145
G01 X-35.1196 Y6.2182
G01 X-35.0865 Y6.2210
G01 X-35.0596 Y6.2226
G01 X-35.0264 Y6.2238
G01 X-34.9994 Y6.2241
G01 X4.9980 Y6.2241
G00 Z1.0000
G00 X6.2241 Y-21.9016
G01 F20.00
G01 Z-0.9000
G01 F20.00
G01 X6.2241 Y-44.9994
G01 X6.2238 Y-45.0264
G01 X6.2226 Y-45.0596
G01 X6.2205 Y-45.0927
G01 X6.2182 Y-45.1196
G01 X6.2145 Y-45.1526
G01 X6.2109 Y-45.1793
G01 X6.2055 Y-45.2121
G01 X6.2006 Y-45.2386
G01 X6.1950 Y-45.2650
G01 X6.1874 Y-45.2973
G01 X6.1805 Y-45.3234
G01 X6.1713 Y-45.3553
G01 X6.1612 Y-45.3870
G01 X6.1524 Y-45.4125
G01 X6.1430 Y-45.4378
G01 X6.1308 Y-45.4686
G01 X6.1176 Y-45.4991
G01 X6.1064 Y-45.5237
G01 X6.0918 Y-45.5535
G01 X6.0793 Y-45.5774
G01 X6.0633 Y-45.6065
G01 X6.0497 Y-45.6298
G01 X6.0322 Y-45.6580
G01 X6.0175 Y-45.6806
G01 X5.9986 Y-45.7080
G01 X5.9828 Y-45.7298
G01 X5.9627 Y-45.7562
G01 X5.9458 Y-45.7773
G01 X5.9244 Y-45.8026
G01 X5.9065 Y-45.8228
G01 X5.8838 Y-45.8471
G01 X5.8650 Y-45.8664
G01 X5.8457 Y-45.8853
G01 X5.8214 Y-45.9079
G01 X5.7965 Y-45.9299
G01 X5.7758 Y-45.9472
G01 X5.7548 Y-45.9641
G01 X5.7284 Y-45.9843
G01 X5.7065 Y-46.0001
G01 X5.6792 Y-46.0189
G01 X5.6566 Y-46.0336
G01 X5.6283 Y-46.0511
G01 X5.6050 Y-46.0647
G01 X5.5760 Y-46.0808
G01 X5.5520 Y-46.0932
G01 X5.5222 Y-46.1078
G01 X5.4977 Y-46.1191
G01 X5.4672 Y-46.1322
G01 X5.4363 Y-46.1445
G01 X5.4110 Y-46.1539
G01 X5.3796 Y-46.1646
G01 X5.3539 Y-46.1728
G01 X5.3220 Y-46.1819
G01 X5.2959 Y-46.1888
G01 X5.2696 Y-46.1950
G01 X5.2372 Y-46.2020
G01 X5.2107 Y-46.2069
G01 X5.1779 Y-46.2123
G01 X5.1511 Y-46.2159
G01 X5.1181 Y-46.2197
G01 X5.0913 Y-46.2220
G01 X5.0581 Y-46.2241
G01 X5.0312 Y-46.2251
G01 X4.9980 Y-46.2256
G01 X-34.9994 Y-46.2256
G01 X-35.0264 Y-46.2252
G01 X-35.0596 Y-46.2241
G01 X-35.0865 Y-46.2224
G01 X-35.1196 Y-46.2197
G01 X-35.1464 Y-46.2167
G01 X-35.1794 Y-46.2123
G01 X-35.2122 Y-46.2069
G01 X-35.2387 Y-46.2020
G01 X-35.2651 Y-46.1964
G01 X-35.2974 Y-46.1888
G01 X-35.3235 Y-46.1819
G01 X-35.3554 Y-46.1727
G01 X-35.3871 Y-46.1626
G01 X-35.4126 Y-46.1539
G01 X-35.4437 Y-46.1422
G01 X-35.4687 Y-46.1322
G01 X-35.4992 Y-46.1190
G01 X-35.5238 Y-46.1078
G01 X-35.5536 Y-46.0932
G01 X-35.5775 Y-46.0807
G01 X-35.6066 Y-46.0646
G01 X-35.6299 Y-46.0511
G01 X-35.6581 Y-46.0336
G01 X-35.6807 Y-46.0188
G01 X-35.7081 Y-46.0000
G01 X-35.7300 Y-45.9842
G01 X-35.7563 Y-45.9640
G01 X-35.7774 Y-45.9471
G01 X-35.8028 Y-45.9257
G01 X-35.8230 Y-45.9078
G01 X-35.8570 Y-45.8758
G01 X-44.5066 Y-37.2238
G01 X-54.9994 Y-37.2238
G01 X-55.0326 Y-37.2233
G01 X-55.0595 Y-37.2223
G01 X-55.0865 Y-37.2207
G01 X-55.1196 Y-37.2179
G01 X-55.1464 Y-37.2149
G01 X-55.1793 Y-37.2105
G01 X-55.2121 Y-37.2052
G01 X-55.2386 Y-37.2002
G01 X-55.2650 Y-37.1947
G01 X-55.2973 Y-37.1871
G01 X-55.3234 Y-37.1802
G01 X-55.3553 Y-37.1710
G01 X-55.3870 Y-37.1609
G01 X-55.4125 Y-37.1521
G01 X-55.4377 Y-37.1427
G01 X-55.4686 Y-37.1305
G01 X-55.4991 Y-37.1173
G01 X-55.5236 Y-37.1061
G01 X-55.5479 Y-37.0942
G01 X-55.5774 Y-37.0790
G01 X-55.6010 Y-37.0660
G01 X-55.6298 Y-37.0494
G01 X-55.6527 Y-37.0352
G01 X-55.6806 Y-37.0172
G01 X-55.7028 Y-37.0019
G01 X-55.7298 Y-36.9825
G01 X-55.7513 Y-36.9662
G01 X-55.7772 Y-36.9455
G01 X-55.7979 Y-36.9281
G01 X-55.8228 Y-36.9062
G01 X-55.8471 Y-36.8835
G01 X-55.8664 Y-36.8647
G01 X-55.8895 Y-36.8408
G01 X-55.9079 Y-36.8211
G01 X-55.9298 Y-36.7962
G01 X-55.9472 Y-36.7755
G01 X-55.9679 Y-36.7495
G01 X-55.9842 Y-36.7281
G01 X-56.0000 Y-36.7062
G01 X-56.0189 Y-36.6789
G01 X-56.0369 Y-36.6510
G01 X-56.0511 Y-36.6280
G01 X-56.0647 Y-36.6047
G01 X-56.0808 Y-36.5757
G01 X-56.0932 Y-36.5517
G01 X-56.1078 Y-36.5219
G01 X-56.1191 Y-36.4974
G01 X-56.1322 Y-36.4669
G01 X-56.1445 Y-36.4360
G01 X-56.1539 Y-36.4107
G01 X-56.1646 Y-36.3793
G01 X-56.1727 Y-36.3536
G01 X-56.1803 Y-36.3277
G01 X-56.1888 Y-36.2956
G01 X-56.1950 Y-36.2693
G01 X-56.2020 Y-36.2369
G01 X-56.2069 Y-36.2103
G01 X-56.2123 Y-36.1776
G01 X-56.2167 Y-36.1446
G01 X-56.2196 Y-36.1178
G01 X-56.2224 Y-36.0847
G01 X-56.2241 Y-36.0578
G01 X-56.2252 Y-36.0246
G01 X-56.2255 Y-35.9976
G01 X-56.2255 Y-21.9016
G00 X-56.2255 Y-21.9016
G01 F20.00
G01 Z-1.8000
G01 F20.00
G01 X-56.2255 Y-35.9976
G01 X-56.2252 Y-36.0246
G01 X-56.2241 Y-36.0578
G01 X-56.2224 Y-36.0847
G01 X-56.2196 Y-36.1178
G01 X-56.2167 Y-36.1446
G01 X-56.2123 Y-36.1776
G01 X-56.2069 Y-36.2103
G01 X-56.2020 Y-36.2369
G01 X-56.1950 Y-36.2693
G01 X-56.1888 Y-36.2956
G01 X-56.1803 Y-36.3277
G01 X-56.1727 Y-36.3536
G01 X-56.1646 Y-36.3793
G01 X-56.1539 Y-36.4107
G01 X-56.1445 Y-36.4360
G01 X-56.1322 Y-36.4669
G01 X-56.1191 Y-36.4974
G01 X-56.1078 Y-36.5219
G01 X-56.0932 Y-36.5517
G01 X-56.0808 Y-36.5757
G01 X-56.0647 Y-36.6047
G01 X-56.0511 Y-36.6280
G01 X-56.0369 Y-36.6510
G01 X-56.0189 Y-36.6789
G01 X-56.0036 Y-36.7011
G01 X-55.9842 Y-36.7281
G01 X-55.9641 Y-36.7544
G01 X-55.9472 Y-36.7755
G01 X-55.9258 Y-36.8009
G01 X-55.9079 Y-36.8211
G01 X-55.8895 Y-36.8408
G01 X-55.8664 Y-36.8647
G01 X-55.8471 Y-36.8835
G01 X-55.8228 Y-36.9062
G01 X-55.7979 Y-36.9281
G01 X-55.7772 Y-36.9455
G01 X-55.7513 Y-36.9662
G01 X-55.7298 Y-36.9825
G01 X-55.7028 Y-37.0019
G01 X-55.6806 Y-37.0172
G01 X-55.6580 Y-37.0319
G01 X-55.6298 Y-37.0494
G01 X-55.6010 Y-37.0660
G01 X-55.5774 Y-37.0790
G01 X-55.5479 Y-37.0942
G01 X-55.5236 Y-37.1061
G01 X-55.4934 Y-37.1198
G01 X-55.4686 Y-37.1305
G01 X-55.4377 Y-37.1427
G01 X-55.4125 Y-37.1521
G01 X-55.3870 Y-37.1609
G01 X-55.3553 Y-37.1710
G01 X-55.3234 Y-37.1802
G01 X-55.2973 Y-37.1871
G01 X-55.2650 Y-37.1947
G01 X-55.2386 Y-37.2002
G01 X-55.2121 Y-37.2052
G01 X-55.1793 Y-37.2105
G01 X-55.1464 Y-37.2149
G01 X-55.1196 Y-37.2179
G01 X-55.0865 Y-37.2207
G01 X-55.0595 Y-37.2223
G01 X-55.0326 Y-37.2233
G01 X-54.9994 Y-37.2238
G01 X-44.5066 Y-37.2238
G01 X-35.8666 Y-45.8663
G01 X-35.8427 Y-45.8895
G01 X-35.8230 Y-45.9078
G01 X-35.7980 Y-45.9298
G01 X-35.7774 Y-45.9471
G01 X-35.7514 Y-45.9678
G01 X-35.7300 Y-45.9842
G01 X-35.7030 Y-46.0036
G01 X-35.6807 Y-46.0188
G01 X-35.6529 Y-46.0369
G01 X-35.6299 Y-46.0511
G01 X-35.6012 Y-46.0677
G01 X-35.5775 Y-46.0807
G01 X-35.5480 Y-46.0960
G01 X-35.5238 Y-46.1078
G01 X-35.4935 Y-46.1216
G01 X-35.4687 Y-46.1322
G01 X-35.4437 Y-46.1422
G01 X-35.4126 Y-46.1539
G01 X-35.3871 Y-46.1626
G01 X-35.3554 Y-46.1727
G01 X-35.3235 Y-46.1819
G01 X-35.2974 Y-46.1888
G01 X-35.2651 Y-46.1964
G01 X-35.2387 Y-46.2020
G01 X-35.2122 Y-46.2069
G01 X-35.1794 Y-46.2123
G01 X-35.1464 Y-46.2167
G01 X-35.1196 Y-46.2197
G01 X-35.0865 Y-46.2224
G01 X-35.0596 Y-46.2241
G01 X-35.0264 Y-46.2252
G01 X-34.9994 Y-46.2256
G01 X4.9980 Y-46.2256
G01 X5.0312 Y-46.2251
G01 X5.0581 Y-46.2241
G01 X5.0913 Y-46.2220
G01 X5.1181 Y-46.2197
G01 X5.1450 Y-46.2167
G01 X5.1779 Y-46.2123
G01 X5.2107 Y-46.2069
G01 X5.2372 Y-46.2020
G01 X5.2636 Y-46.1964
G01 X5.2959 Y-46.1888
G01 X5.3280 Y-46.1803
G01 X5.3539 Y-46.1728
G01 X5.3796 Y-46.1646
G01 X5.4110 Y-46.1539
G01 X5.4421 Y-46.1422
G01 X5.4672 Y-46.1322
G01 X5.4920 Y-46.1216
G01 X5.5222 Y-46.1078
G01 X5.5520 Y-46.0932
G01 X5.5760 Y-46.0808
G01 X5.5996 Y-46.0678
G01 X5.6283 Y-46.0511
G01 X5.6566 Y-46.0336
G01 X5.6792 Y-46.0189
G01 X5.7014 Y-46.0037
G01 X5.7284 Y-45.9843
G01 X5.7548 Y-45.9641
G01 X5.7758 Y-45.9472
G01 X5.7965 Y-45.9299
G01 X5.8214 Y-45.9079
G01 X5.8457 Y-45.8853
G01 X5.8650 Y-45.8664
G01 X5.8881 Y-45.8426
G01 X5.9065 Y-45.8228
G01 X5.9244 Y-45.8026
G01 X5.9458 Y-45.7773
G01 X5.9665 Y-45.7513
G01 X5.9828 Y-45.7298
G01 X5.9986 Y-45.7080
G01 X6.0175 Y-45.6806
G01 X6.0322 Y-45.6580
G01 X6.0497 Y-45.6298
G01 X6.0663 Y-45.6010
G01 X6.0793 Y-45.5774
G01 X6.0918 Y-45.5535
G01 X6.1064 Y-45.5237
G01 X6.1202 Y-45.4934
G01 X6.1308 Y-45.4686
G01 X6.1408 Y-45.4436
G01 X6.1524 Y-45.4125
G01 X6.1612 Y-45.3870
G01 X6.1713 Y-45.3553
G01 X6.1805 Y-45.3234
G01 X6.1874 Y-45.2973
G01 X6.1936 Y-45.2711
G01 X6.2006 Y-45.2386
G01 X6.2066 Y-45.2059
G01 X6.2109 Y-45.1793
G01 X6.2145 Y-45.1526
G01 X6.2182 Y-45.1196
G01 X6.2210 Y-45.0865
G01 X6.2226 Y-45.0596
G01 X6.2236 Y-45.0326
G01 X6.2241 Y-44.9994
G01 X6.2241 Y-21.9016
G00 Z1.0000
M05
G00 Z1.0000
G00 Z10.00
G00 X0.0 Y0.0

M02