(G-CODE GENERATED BY FLATCAM v8.98 - www.flatcam.org - Version Date: 2019/10/16)

(Name: Плата - CADCAM Drill.TXT_cnc)
(Type: G-code from Excellon)
(Units: MM)

(Created on Tuesday, 07 January 2020 at 18:48)

(Feedrate: 5.0 mm/min)
(Feedrate rapids 800.0009 mm/min)

(Z_Cut: -2.5 mm)
(Z_Move: 1.0 mm)
(Z Toolchange: 12.7 mm)
(X,Y Toolchange: 0.0000, 0.0000 mm)
(Z Start: None mm)
(Z End: 12.7 mm)
(Steps per circle: 128)
(Postprocessor Excellon: default)

(X range:   -2.0498 ...   54.2519  mm)
(Y range:  -42.7609 ...    2.6518  mm)

(Spindle Speed: 500.0 RPM)

G21
G90
G94

G01 F5.00
G00 Z1.0000

M03 S500.0
G00 X2.2987 Y-14.0995
G01 Z-2.5000
G01 Z0
G00 Z1.0000
G00 X4.6990 Y-14.0995
G01 Z-2.5000
G01 Z0
G00 Z1.0000
G00 X1.6993 Y-8.1991
G01 Z-2.5000
G01 Z0
G00 Z1.0000
G00 X4.6990 Y-6.0985
G01 Z-2.5000
G01 Z0
G00 Z1.0000
G00 X12.5984 Y-6.0985
G01 Z-2.5000
G01 Z0
G00 Z1.0000
G00 X21.3995 Y-6.2992
G01 Z-2.5000
G01 Z0
G00 Z1.0000
G00 X23.3985 Y-6.2992
G01 Z-2.5000
G01 Z0
G00 Z1.0000
G00 X29.4996 Y2.3978
G01 Z-2.5000
G01 Z0
G00 Z1.0000
G00 X53.9979 Y-7.7978
G01 Z-2.5000
G01 Z0
G00 Z1.0000
G00 X49.4995 Y-34.0792
G01 Z-2.5000
G01 Z0
G00 Z1.0000
G00 X40.4978 Y-34.3992
G01 Z-2.5000
G01 Z0
G00 Z1.0000
G00 X37.0992 Y-38.4988
G01 Z-2.5000
G01 Z0
G00 Z1.0000
G00 X23.1978 Y-34.3992
G01 Z-2.5000
G01 Z0
G00 Z1.0000
G00 X14.0995 Y-15.5981
G01 Z-2.5000
G01 Z0
G00 Z1.0000
G00 X14.4983 Y-13.6982
G01 Z-2.5000
G01 Z0
G00 Z1.0000
G00 X12.5984 Y-14.0995
G01 Z-2.5000
G01 Z0
G00 Z1.0000
G00 X7.3990 Y-23.6982
G01 Z-2.5000
G01 Z0
G00 Z1.0000
G00 X-0.8992 Y-19.5986
G01 Z-2.5000
G01 Z0
G00 Z1.0000
M03 S500.0
G00 X33.9979 Y0.0000
G01 Z-2.5000
G01 Z0
G00 Z1.0000
G00 X0.0000 Y0.0000
G01 Z-2.5000
G01 Z0
G00 Z1.0000
G00 X0.0000 Y-41.9989
G01 Z-2.5000
G01 Z0
G00 Z1.0000
G00 X33.9979 Y-41.9989
G01 Z-2.5000
G01 Z0
G00 Z1.0000
M05
G00 Z12.70
G00 X0.0 Y0.0

M02