(G-CODE GENERATED BY FLATCAM v8.98 - www.flatcam.org - Version Date: 2019/10/16)

(Name: Плата - CADCAM Bottom Copper.TXT_cutout_copy_cnc)
(Type: G-code from Geometry)
(Units: MM)

(Created on Wednesday, 08 January 2020 at 16:41)

(TOOL DIAMETER: 2.0 mm)
(Feedrate: 20.0 mm/min)
(Feedrate_Z: 20.0 mm/min)
(Feedrate rapids 20.0 mm/min)

(Z_Cut: -1.8 mm)
(DepthPerCut: 0.9 mm <=>2 passes)
(Z_Move: 1.0 mm)
(Z Toolchange: 10.0 mm)
(X,Y Toolchange: 0.0000, 0.0000 mm)
(Z Start: None mm)
(Z End: 10.0 mm)
(Steps per circle: 128)
(Postprocessor Geometry: default)

(X range:  -57.1264 ...    7.1250  mm)
(Y range:  -47.1265 ...    7.1250  mm)

(Spindle Speed: 500 RPM)

G21
G90
G94

G01 F20.00
G00 Z1.0000

M03 S500
G00 X4.9980 Y7.1250
G01 F20.00
G01 Z-0.9000
G01 F20.00
G01 X5.0533 Y7.1243
G01 X5.1023 Y7.1225
G01 X5.1575 Y7.1190
G01 X5.2064 Y7.1148
G01 X5.2552 Y7.1094
G01 X5.3101 Y7.1020
G01 X5.3585 Y7.0942
G01 X5.4129 Y7.0842
G01 X5.4670 Y7.0726
G01 X5.5148 Y7.0613
G01 X5.5683 Y7.0471
G01 X5.6154 Y7.0334
G01 X5.6622 Y7.0186
G01 X5.7145 Y7.0007
G01 X5.7664 Y6.9813
G01 X5.8120 Y6.9631
G01 X5.8571 Y6.9438
G01 X5.9074 Y6.9208
G01 X5.9515 Y6.8993
G01 X6.0007 Y6.8739
G01 X6.0437 Y6.8502
G01 X6.0915 Y6.8224
G01 X6.1333 Y6.7967
G01 X6.1797 Y6.7665
G01 X6.2253 Y6.7352
G01 X6.2651 Y6.7064
G01 X6.3090 Y6.6729
G01 X6.3474 Y6.6422
G01 X6.3849 Y6.6106
G01 X6.4264 Y6.5740
G01 X6.4669 Y6.5363
G01 X6.5020 Y6.5020
G01 X6.5363 Y6.4669
G01 X6.5740 Y6.4264
G01 X6.6065 Y6.3896
G01 X6.6422 Y6.3474
G01 X6.6767 Y6.3041
G01 X6.7064 Y6.2651
G01 X6.7352 Y6.2253
G01 X6.7665 Y6.1797
G01 X6.7933 Y6.1385
G01 X6.8224 Y6.0915
G01 X6.8471 Y6.0491
G01 X6.8739 Y6.0007
G01 X6.8965 Y5.9571
G01 X6.9208 Y5.9074
G01 X6.9412 Y5.8628
G01 X6.9631 Y5.8120
G01 X6.9836 Y5.7606
G01 X7.0007 Y5.7145
G01 X7.0186 Y5.6622
G01 X7.0334 Y5.6154
G01 X7.0471 Y5.5683
G01 X7.0613 Y5.5148
G01 X7.0726 Y5.4670
G01 X7.0842 Y5.4129
G01 X7.0942 Y5.3585
G01 X7.1020 Y5.3101
G01 X7.1094 Y5.2552
G01 X7.1148 Y5.2064
G01 X7.1190 Y5.1575
G01 X7.1225 Y5.1023
G01 X7.1243 Y5.0533
G01 X7.1250 Y4.9980
G01 X7.1250 Y-17.0007
G00 X7.1250 Y-17.0007
G01 F20.00
G01 Z-1.8000
G01 F20.00
G01 X7.1250 Y4.9980
G01 X7.1243 Y5.0533
G01 X7.1225 Y5.1023
G01 X7.1190 Y5.1575
G01 X7.1148 Y5.2064
G01 X7.1094 Y5.2552
G01 X7.1020 Y5.3101
G01 X7.0942 Y5.3585
G01 X7.0842 Y5.4129
G01 X7.0726 Y5.4670
G01 X7.0613 Y5.5148
G01 X7.0471 Y5.5683
G01 X7.0334 Y5.6154
G01 X7.0186 Y5.6622
G01 X7.0007 Y5.7145
G01 X6.9836 Y5.7606
G01 X6.9631 Y5.8120
G01 X6.9412 Y5.8628
G01 X6.9208 Y5.9074
G01 X6.8965 Y5.9571
G01 X6.8739 Y6.0007
G01 X6.8471 Y6.0491
G01 X6.8224 Y6.0915
G01 X6.7933 Y6.1385
G01 X6.7665 Y6.1797
G01 X6.7352 Y6.2253
G01 X6.7064 Y6.2651
G01 X6.6767 Y6.3041
G01 X6.6422 Y6.3474
G01 X6.6065 Y6.3896
G01 X6.5740 Y6.4264
G01 X6.5363 Y6.4669
G01 X6.5020 Y6.5020
G01 X6.4669 Y6.5363
G01 X6.4264 Y6.5740
G01 X6.3849 Y6.6106
G01 X6.3474 Y6.6422
G01 X6.3090 Y6.6729
G01 X6.2651 Y6.7064
G01 X6.2253 Y6.7352
G01 X6.1797 Y6.7665
G01 X6.1333 Y6.7967
G01 X6.0915 Y6.8224
G01 X6.0437 Y6.8502
G01 X6.0007 Y6.8739
G01 X5.9515 Y6.8993
G01 X5.9074 Y6.9208
G01 X5.8571 Y6.9438
G01 X5.8120 Y6.9631
G01 X5.7664 Y6.9813
G01 X5.7145 Y7.0007
G01 X5.6622 Y7.0186
G01 X5.6154 Y7.0334
G01 X5.5683 Y7.0471
G01 X5.5148 Y7.0613
G01 X5.4670 Y7.0726
G01 X5.4129 Y7.0842
G01 X5.3585 Y7.0942
G01 X5.3101 Y7.1020
G01 X5.2552 Y7.1094
G01 X5.2064 Y7.1148
G01 X5.1575 Y7.1190
G01 X5.1023 Y7.1225
G01 X5.0533 Y7.1243
G01 X4.9980 Y7.1250
G00 Z1.0000
G00 X4.9980 Y7.1250
G01 F20.00
G01 Z-0.9000
G01 F20.00
G01 X-34.9994 Y7.1250
G01 X-35.0485 Y7.1244
G01 X-35.1038 Y7.1225
G01 X-35.1528 Y7.1195
G01 X-35.2079 Y7.1148
G01 X-35.2628 Y7.1086
G01 X-35.3115 Y7.1020
G01 X-35.3661 Y7.0931
G01 X-35.4143 Y7.0842
G01 X-35.4623 Y7.0740
G01 X-35.5162 Y7.0613
G01 X-35.5636 Y7.0488
G01 X-35.6168 Y7.0335
G01 X-35.6636 Y7.0186
G01 X-35.7159 Y7.0007
G01 X-35.7677 Y6.9814
G01 X-35.8133 Y6.9632
G01 X-35.8641 Y6.9413
G01 X-35.9087 Y6.9209
G01 X-35.9584 Y6.8965
G01 X-36.0019 Y6.8740
G01 X-36.0504 Y6.8472
G01 X-36.0928 Y6.8225
G01 X-36.1398 Y6.7934
G01 X-36.1810 Y6.7667
G01 X-36.2265 Y6.7353
G01 X-36.2663 Y6.7066
G01 X-36.3103 Y6.6730
G01 X-36.3486 Y6.6424
G01 X-36.3909 Y6.6067
G01 X-36.4277 Y6.5742
G01 X-36.4636 Y6.5408
G01 X-36.4858 Y6.5195
G01 X-44.8795 Y-1.8717
G01 X-54.9994 Y-1.8717
G01 X-55.0485 Y-1.8723
G01 X-55.1037 Y-1.8742
G01 X-55.1527 Y-1.8772
G01 X-55.2079 Y-1.8819
G01 X-55.2567 Y-1.8873
G01 X-55.3115 Y-1.8947
G01 X-55.3661 Y-1.9035
G01 X-55.4143 Y-1.9125
G01 X-55.4685 Y-1.9241
G01 X-55.5162 Y-1.9354
G01 X-55.5637 Y-1.9479
G01 X-55.6168 Y-1.9632
G01 X-55.6695 Y-1.9800
G01 X-55.7160 Y-1.9960
G01 X-55.7678 Y-2.0153
G01 X-55.8134 Y-2.0336
G01 X-55.8642 Y-2.0554
G01 X-55.9088 Y-2.0759
G01 X-55.9529 Y-2.0974
G01 X-56.0021 Y-2.1228
G01 X-56.0505 Y-2.1496
G01 X-56.0929 Y-2.1743
G01 X-56.1347 Y-2.2000
G01 X-56.1811 Y-2.2301
G01 X-56.2216 Y-2.2579
G01 X-56.2665 Y-2.2902
G01 X-56.3105 Y-2.3238
G01 X-56.3488 Y-2.3545
G01 X-56.3911 Y-2.3902
G01 X-56.4278 Y-2.4227
G01 X-56.4638 Y-2.4561
G01 X-56.5034 Y-2.4947
G01 X-56.5420 Y-2.5343
G01 X-56.5754 Y-2.5703
G01 X-56.6120 Y-2.6118
G01 X-56.6436 Y-2.6493
G01 X-56.6781 Y-2.6926
G01 X-56.7079 Y-2.7316
G01 X-56.7366 Y-2.7714
G01 X-56.7680 Y-2.8170
G01 X-56.7981 Y-2.8634
G01 X-56.8238 Y-2.9052
G01 X-56.8516 Y-2.9530
G01 X-56.8753 Y-2.9960
G01 X-56.8979 Y-3.0396
G01 X-56.9222 Y-3.0893
G01 X-56.9427 Y-3.1339
G01 X-56.9645 Y-3.1847
G01 X-56.9828 Y-3.2303
G01 X-57.0021 Y-3.2821
G01 X-57.0181 Y-3.3286
G01 X-57.0349 Y-3.3813
G01 X-57.0502 Y-3.4344
G01 X-57.0627 Y-3.4819
G01 X-57.0754 Y-3.5357
G01 X-57.0856 Y-3.5838
G01 X-57.0956 Y-3.6382
G01 X-57.1034 Y-3.6866
G01 X-57.1100 Y-3.7353
G01 X-57.1162 Y-3.7902
G01 X-57.1204 Y-3.8391
G01 X-57.1239 Y-3.8943
G01 X-57.1257 Y-3.9434
G01 X-57.1264 Y-3.9987
G01 X-57.1264 Y-17.0007
G00 X-57.1264 Y-17.0007
G01 F20.00
G01 Z-1.8000
G01 F20.00
G01 X-57.1264 Y-3.9987
G01 X-57.1257 Y-3.9434
G01 X-57.1239 Y-3.8943
G01 X-57.1204 Y-3.8391
G01 X-57.1162 Y-3.7902
G01 X-57.1100 Y-3.7353
G01 X-57.1034 Y-3.6866
G01 X-57.0956 Y-3.6382
G01 X-57.0856 Y-3.5838
G01 X-57.0754 Y-3.5357
G01 X-57.0627 Y-3.4819
G01 X-57.0502 Y-3.4344
G01 X-57.0349 Y-3.3813
G01 X-57.0181 Y-3.3286
G01 X-57.0021 Y-3.2821
G01 X-56.9828 Y-3.2303
G01 X-56.9645 Y-3.1847
G01 X-56.9427 Y-3.1339
G01 X-56.9222 Y-3.0893
G01 X-56.8979 Y-3.0396
G01 X-56.8753 Y-2.9960
G01 X-56.8516 Y-2.9530
G01 X-56.8238 Y-2.9052
G01 X-56.7981 Y-2.8634
G01 X-56.7680 Y-2.8170
G01 X-56.7366 Y-2.7714
G01 X-56.7079 Y-2.7316
G01 X-56.6781 Y-2.6926
G01 X-56.6436 Y-2.6493
G01 X-56.6120 Y-2.6118
G01 X-56.5754 Y-2.5703
G01 X-56.5420 Y-2.5343
G01 X-56.5034 Y-2.4947
G01 X-56.4638 Y-2.4561
G01 X-56.4278 Y-2.4227
G01 X-56.3911 Y-2.3902
G01 X-56.3488 Y-2.3545
G01 X-56.3105 Y-2.3238
G01 X-56.2665 Y-2.2902
G01 X-56.2216 Y-2.2579
G01 X-56.1811 Y-2.2301
G01 X-56.1347 Y-2.2000
G01 X-56.0929 Y-2.1743
G01 X-56.0505 Y-2.1496
G01 X-56.0021 Y-2.1228
G01 X-55.9529 Y-2.0974
G01 X-55.9088 Y-2.0759
G01 X-55.8642 Y-2.0554
G01 X-55.8134 Y-2.0336
G01 X-55.7678 Y-2.0153
G01 X-55.7160 Y-1.9960
G01 X-55.6695 Y-1.9800
G01 X-55.6168 Y-1.9632
G01 X-55.5637 Y-1.9479
G01 X-55.5162 Y-1.9354
G01 X-55.4685 Y-1.9241
G01 X-55.4143 Y-1.9125
G01 X-55.3661 Y-1.9035
G01 X-55.3115 Y-1.8947
G01 X-55.2567 Y-1.8873
G01 X-55.2079 Y-1.8819
G01 X-55.1527 Y-1.8772
G01 X-55.1037 Y-1.8742
G01 X-55.0485 Y-1.8723
G01 X-54.9994 Y-1.8717
G01 X-44.8795 Y-1.8717
G01 X-36.4858 Y6.5195
G01 X-36.4636 Y6.5408
G01 X-36.4277 Y6.5742
G01 X-36.3909 Y6.6067
G01 X-36.3486 Y6.6424
G01 X-36.3103 Y6.6730
G01 X-36.2663 Y6.7066
G01 X-36.2265 Y6.7353
G01 X-36.1810 Y6.7667
G01 X-36.1398 Y6.7934
G01 X-36.0928 Y6.8225
G01 X-36.0504 Y6.8472
G01 X-36.0019 Y6.8740
G01 X-35.9584 Y6.8965
G01 X-35.9087 Y6.9209
G01 X-35.8641 Y6.9413
G01 X-35.8133 Y6.9632
G01 X-35.7677 Y6.9814
G01 X-35.7159 Y7.0007
G01 X-35.6636 Y7.0186
G01 X-35.6168 Y7.0335
G01 X-35.5636 Y7.0488
G01 X-35.5162 Y7.0613
G01 X-35.4623 Y7.0740
G01 X-35.4143 Y7.0842
G01 X-35.3661 Y7.0931
G01 X-35.3115 Y7.1020
G01 X-35.2628 Y7.1086
G01 X-35.2079 Y7.1148
G01 X-35.1528 Y7.1195
G01 X-35.1038 Y7.1225
G01 X-35.0485 Y7.1244
G01 X-34.9994 Y7.1250
G01 X4.9980 Y7.1250
G00 Z1.0000
G00 X7.1250 Y-21.0007
G01 F20.00
G01 Z-0.9000
G01 F20.00
G01 X7.1250 Y-44.9994
G01 X7.1244 Y-45.0485
G01 X7.1225 Y-45.1038
G01 X7.1190 Y-45.1590
G01 X7.1148 Y-45.2079
G01 X7.1086 Y-45.2629
G01 X7.1020 Y-45.3115
G01 X7.0931 Y-45.3661
G01 X7.0842 Y-45.4144
G01 X7.0726 Y-45.4685
G01 X7.0613 Y-45.5162
G01 X7.0471 Y-45.5697
G01 X7.0334 Y-45.6169
G01 X7.0186 Y-45.6636
G01 X7.0007 Y-45.7160
G01 X6.9836 Y-45.7620
G01 X6.9631 Y-45.8134
G01 X6.9438 Y-45.8585
G01 X6.9208 Y-45.9088
G01 X6.8993 Y-45.9529
G01 X6.8739 Y-46.0021
G01 X6.8502 Y-46.0451
G01 X6.8224 Y-46.0929
G01 X6.7933 Y-46.1400
G01 X6.7665 Y-46.1811
G01 X6.7352 Y-46.2267
G01 X6.7064 Y-46.2665
G01 X6.6729 Y-46.3105
G01 X6.6422 Y-46.3488
G01 X6.6065 Y-46.3911
G01 X6.5740 Y-46.4278
G01 X6.5363 Y-46.4683
G01 X6.5020 Y-46.5035
G01 X6.4669 Y-46.5377
G01 X6.4264 Y-46.5754
G01 X6.3849 Y-46.6120
G01 X6.3474 Y-46.6436
G01 X6.3090 Y-46.6743
G01 X6.2651 Y-46.7079
G01 X6.2253 Y-46.7366
G01 X6.1797 Y-46.7680
G01 X6.1333 Y-46.7981
G01 X6.0915 Y-46.8238
G01 X6.0437 Y-46.8516
G01 X6.0007 Y-46.8753
G01 X5.9571 Y-46.8979
G01 X5.9074 Y-46.9222
G01 X5.8628 Y-46.9427
G01 X5.8120 Y-46.9646
G01 X5.7664 Y-46.9828
G01 X5.7145 Y-47.0021
G01 X5.6622 Y-47.0200
G01 X5.6154 Y-47.0349
G01 X5.5623 Y-47.0502
G01 X5.5148 Y-47.0627
G01 X5.4670 Y-47.0741
G01 X5.4129 Y-47.0856
G01 X5.3647 Y-47.0946
G01 X5.3101 Y-47.1034
G01 X5.2614 Y-47.1100
G01 X5.2064 Y-47.1162
G01 X5.1575 Y-47.1204
G01 X5.1023 Y-47.1239
G01 X5.0533 Y-47.1257
G01 X4.9980 Y-47.1265
G01 X-34.9994 Y-47.1265
G01 X-35.0485 Y-47.1259
G01 X-35.1038 Y-47.1239
G01 X-35.1528 Y-47.1209
G01 X-35.2079 Y-47.1162
G01 X-35.2567 Y-47.1108
G01 X-35.3116 Y-47.1034
G01 X-35.3662 Y-47.0946
G01 X-35.4145 Y-47.0856
G01 X-35.4625 Y-47.0754
G01 X-35.5163 Y-47.0627
G01 X-35.5638 Y-47.0502
G01 X-35.6170 Y-47.0348
G01 X-35.6697 Y-47.0181
G01 X-35.7161 Y-47.0021
G01 X-35.7680 Y-46.9827
G01 X-35.8136 Y-46.9645
G01 X-35.8644 Y-46.9426
G01 X-35.9090 Y-46.9222
G01 X-35.9531 Y-46.9006
G01 X-36.0023 Y-46.8752
G01 X-36.0507 Y-46.8485
G01 X-36.0931 Y-46.8237
G01 X-36.1402 Y-46.7946
G01 X-36.1813 Y-46.7679
G01 X-36.2218 Y-46.7401
G01 X-36.2667 Y-46.7077
G01 X-36.3058 Y-46.6780
G01 X-36.3490 Y-46.6435
G01 X-36.3913 Y-46.6078
G01 X-36.4281 Y-46.5753
G01 X-36.4640 Y-46.5418
G01 X-36.4862 Y-46.5205
G01 X-44.8799 Y-38.1247
G01 X-54.9994 Y-38.1247
G01 X-55.0547 Y-38.1239
G01 X-55.1038 Y-38.1221
G01 X-55.1527 Y-38.1191
G01 X-55.2079 Y-38.1145
G01 X-55.2567 Y-38.1091
G01 X-55.3115 Y-38.1017
G01 X-55.3599 Y-38.0939
G01 X-55.4143 Y-38.0838
G01 X-55.4624 Y-38.0737
G01 X-55.5162 Y-38.0610
G01 X-55.5637 Y-38.0484
G01 X-55.6168 Y-38.0331
G01 X-55.6695 Y-38.0163
G01 X-55.7160 Y-38.0004
G01 X-55.7678 Y-37.9810
G01 X-55.8134 Y-37.9628
G01 X-55.8642 Y-37.9409
G01 X-55.9088 Y-37.9205
G01 X-55.9585 Y-37.8961
G01 X-56.0021 Y-37.8735
G01 X-56.0451 Y-37.8499
G01 X-56.0929 Y-37.8221
G01 X-56.1400 Y-37.7930
G01 X-56.1811 Y-37.7662
G01 X-56.2216 Y-37.7385
G01 X-56.2665 Y-37.7061
G01 X-56.3055 Y-37.6764
G01 X-56.3488 Y-37.6419
G01 X-56.3863 Y-37.6103
G01 X-56.4278 Y-37.5737
G01 X-56.4683 Y-37.5360
G01 X-56.5034 Y-37.5017
G01 X-56.5420 Y-37.4621
G01 X-56.5754 Y-37.4261
G01 X-56.6120 Y-37.3846
G01 X-56.6436 Y-37.3470
G01 X-56.6743 Y-37.3087
G01 X-56.7079 Y-37.2647
G01 X-56.7402 Y-37.2198
G01 X-56.7680 Y-37.1794
G01 X-56.7981 Y-37.1330
G01 X-56.8238 Y-37.0912
G01 X-56.8485 Y-37.0488
G01 X-56.8753 Y-37.0003
G01 X-56.8979 Y-36.9568
G01 X-56.9222 Y-36.9071
G01 X-56.9427 Y-36.8624
G01 X-56.9645 Y-36.8116
G01 X-56.9850 Y-36.7602
G01 X-57.0021 Y-36.7142
G01 X-57.0200 Y-36.6619
G01 X-57.0349 Y-36.6151
G01 X-57.0485 Y-36.5680
G01 X-57.0627 Y-36.5145
G01 X-57.0740 Y-36.4667
G01 X-57.0856 Y-36.4126
G01 X-57.0946 Y-36.3644
G01 X-57.1034 Y-36.3097
G01 X-57.1108 Y-36.2549
G01 X-57.1162 Y-36.2061
G01 X-57.1209 Y-36.1510
G01 X-57.1239 Y-36.1020
G01 X-57.1257 Y-36.0530
G01 X-57.1264 Y-35.9976
G01 X-57.1264 Y-21.0007
G00 X-57.1264 Y-21.0007
G01 F20.00
G01 Z-1.8000
G01 F20.00
G01 X-57.1264 Y-35.9976
G01 X-57.1257 Y-36.0530
G01 X-57.1239 Y-36.1020
G01 X-57.1209 Y-36.1510
G01 X-57.1162 Y-36.2061
G01 X-57.1108 Y-36.2549
G01 X-57.1034 Y-36.3097
G01 X-57.0946 Y-36.3644
G01 X-57.0856 Y-36.4126
G01 X-57.0740 Y-36.4667
G01 X-57.0627 Y-36.5145
G01 X-57.0485 Y-36.5680
G01 X-57.0349 Y-36.6151
G01 X-57.0200 Y-36.6619
G01 X-57.0021 Y-36.7142
G01 X-56.9850 Y-36.7602
G01 X-56.9645 Y-36.8116
G01 X-56.9427 Y-36.8624
G01 X-56.9222 Y-36.9071
G01 X-56.8979 Y-36.9568
G01 X-56.8753 Y-37.0003
G01 X-56.8485 Y-37.0488
G01 X-56.8238 Y-37.0912
G01 X-56.7981 Y-37.1330
G01 X-56.7680 Y-37.1794
G01 X-56.7366 Y-37.2249
G01 X-56.7079 Y-37.2647
G01 X-56.6781 Y-37.3038
G01 X-56.6436 Y-37.3470
G01 X-56.6120 Y-37.3846
G01 X-56.5754 Y-37.4261
G01 X-56.5420 Y-37.4621
G01 X-56.5034 Y-37.5017
G01 X-56.4683 Y-37.5360
G01 X-56.4278 Y-37.5737
G01 X-56.3863 Y-37.6103
G01 X-56.3488 Y-37.6419
G01 X-56.3055 Y-37.6764
G01 X-56.2665 Y-37.7061
G01 X-56.2216 Y-37.7385
G01 X-56.1811 Y-37.7662
G01 X-56.1347 Y-37.7963
G01 X-56.0929 Y-37.8221
G01 X-56.0451 Y-37.8499
G01 X-56.0021 Y-37.8735
G01 X-55.9529 Y-37.8990
G01 X-55.9088 Y-37.9205
G01 X-55.8585 Y-37.9435
G01 X-55.8134 Y-37.9628
G01 X-55.7620 Y-37.9833
G01 X-55.7160 Y-38.0004
G01 X-55.6636 Y-38.0183
G01 X-55.6168 Y-38.0331
G01 X-55.5637 Y-38.0484
G01 X-55.5162 Y-38.0610
G01 X-55.4624 Y-38.0737
G01 X-55.4143 Y-38.0838
G01 X-55.3599 Y-38.0939
G01 X-55.3115 Y-38.1017
G01 X-55.2567 Y-38.1091
G01 X-55.2079 Y-38.1145
G01 X-55.1527 Y-38.1191
G01 X-55.1038 Y-38.1221
G01 X-55.0547 Y-38.1239
G01 X-54.9994 Y-38.1247
G01 X-44.8799 Y-38.1247
G01 X-36.5037 Y-46.5032
G01 X-36.4686 Y-46.5375
G01 X-36.4281 Y-46.5753
G01 X-36.3913 Y-46.6078
G01 X-36.3490 Y-46.6435
G01 X-36.3058 Y-46.6780
G01 X-36.2667 Y-46.7077
G01 X-36.2218 Y-46.7401
G01 X-36.1813 Y-46.7679
G01 X-36.1349 Y-46.7980
G01 X-36.0931 Y-46.8237
G01 X-36.0453 Y-46.8515
G01 X-36.0023 Y-46.8752
G01 X-35.9531 Y-46.9006
G01 X-35.9090 Y-46.9222
G01 X-35.8587 Y-46.9451
G01 X-35.8136 Y-46.9645
G01 X-35.7680 Y-46.9827
G01 X-35.7161 Y-47.0021
G01 X-35.6697 Y-47.0181
G01 X-35.6170 Y-47.0348
G01 X-35.5638 Y-47.0502
G01 X-35.5163 Y-47.0627
G01 X-35.4625 Y-47.0754
G01 X-35.4145 Y-47.0856
G01 X-35.3662 Y-47.0946
G01 X-35.3116 Y-47.1034
G01 X-35.2567 Y-47.1108
G01 X-35.2079 Y-47.1162
G01 X-35.1528 Y-47.1209
G01 X-35.1038 Y-47.1239
G01 X-35.0485 Y-47.1259
G01 X-34.9994 Y-47.1265
G01 X5.0225 Y-47.1263
G01 X5.0533 Y-47.1257
G01 X5.1023 Y-47.1239
G01 X5.1575 Y-47.1204
G01 X5.2064 Y-47.1162
G01 X5.2552 Y-47.1108
G01 X5.3101 Y-47.1034
G01 X5.3647 Y-47.0946
G01 X5.4129 Y-47.0856
G01 X5.4670 Y-47.0741
G01 X5.5148 Y-47.0627
G01 X5.5623 Y-47.0502
G01 X5.6154 Y-47.0349
G01 X5.6681 Y-47.0181
G01 X5.7145 Y-47.0021
G01 X5.7606 Y-46.9850
G01 X5.8120 Y-46.9646
G01 X5.8628 Y-46.9427
G01 X5.9074 Y-46.9222
G01 X5.9515 Y-46.9007
G01 X6.0007 Y-46.8753
G01 X6.0491 Y-46.8486
G01 X6.0915 Y-46.8238
G01 X6.1333 Y-46.7981
G01 X6.1797 Y-46.7680
G01 X6.2253 Y-46.7366
G01 X6.2651 Y-46.7079
G01 X6.3090 Y-46.6743
G01 X6.3474 Y-46.6436
G01 X6.3849 Y-46.6120
G01 X6.4264 Y-46.5754
G01 X6.4669 Y-46.5377
G01 X6.5020 Y-46.5035
G01 X6.5406 Y-46.4638
G01 X6.5740 Y-46.4278
G01 X6.6065 Y-46.3911
G01 X6.6422 Y-46.3488
G01 X6.6767 Y-46.3056
G01 X6.7064 Y-46.2665
G01 X6.7352 Y-46.2267
G01 X6.7665 Y-46.1811
G01 X6.7933 Y-46.1400
G01 X6.8224 Y-46.0929
G01 X6.8502 Y-46.0451
G01 X6.8739 Y-46.0021
G01 X6.8965 Y-45.9585
G01 X6.9208 Y-45.9088
G01 X6.9438 Y-45.8585
G01 X6.9631 Y-45.8134
G01 X6.9813 Y-45.7678
G01 X7.0007 Y-45.7160
G01 X7.0167 Y-45.6696
G01 X7.0334 Y-45.6169
G01 X7.0488 Y-45.5637
G01 X7.0613 Y-45.5162
G01 X7.0740 Y-45.4624
G01 X7.0842 Y-45.4144
G01 X7.0931 Y-45.3661
G01 X7.1020 Y-45.3115
G01 X7.1094 Y-45.2567
G01 X7.1148 Y-45.2079
G01 X7.1190 Y-45.1590
G01 X7.1225 Y-45.1038
G01 X7.1244 Y-45.0485
G01 X7.1250 Y-44.9994
G01 X7.1250 Y-21.0007
G00 Z1.0000
M05
G00 Z1.0000
G00 Z10.00
G00 X0.0 Y0.0

M02