(G-CODE GENERATED BY FLATCAM v8.98 - www.flatcam.org - Version Date: 2019/10/16)

(Name: Плата - CADCAM Top Copper.TXT_iso_copy_cnc)
(Type: G-code from Geometry)
(Units: MM)

(Created on Sunday, 29 December 2019 at 10:07)

(TOOL DIAMETER: 0.13 mm)
(Feedrate: 30.0 mm/min)
(Feedrate_Z: 30.0 mm/min)
(Feedrate rapids 79.9998 mm/min)

(Z_Cut: -0.06 mm)
(Z_Move: 1.999 mm)
(Z Toolchange: 12.7 mm)
(X,Y Toolchange: 0.0000, 0.0000 mm)
(Z Start: None mm)
(Z End: 12.7 mm)
(Steps per circle: 128)
(Postprocessor Geometry: default)

(X range:    2.2911 ...   50.2056  mm)
(Y range:  -35.4431 ...   -0.6579  mm)

(Spindle Speed: 300 RPM)

G21
G90
G94

G01 F30.00
G00 Z1.9990

M03 S300
G00 X3.1588 Y-4.7754
G01 F30.00
G01 Z-0.0600
G01 F30.00
G01 X3.1588 Y-4.7598
G01 X3.1887 Y-4.7676
G01 X3.1800 Y-4.7696
G01 X3.1588 Y-4.7754
G00 Z1.9990
G00 X3.0039 Y-4.9515
G01 F30.00
G01 Z-0.0600
G01 F30.00
G01 X3.0123 Y-4.9325
G01 X3.0213 Y-4.9086
G01 X3.0278 Y-4.8884
G01 X3.0322 Y-4.8721
G01 X3.0359 Y-4.8557
G01 X3.0404 Y-4.8305
G01 X3.0430 Y-4.8095
G01 X3.0446 Y-4.7883
G01 X3.0451 Y-4.7672
G01 X3.0445 Y-4.7460
G01 X3.0429 Y-4.7248
G01 X3.0403 Y-4.7038
G01 X3.0358 Y-4.6786
G01 X3.0309 Y-4.6580
G01 X3.0263 Y-4.6418
G01 X3.0211 Y-4.6258
G01 X3.0120 Y-4.6019
G01 X3.0039 Y-4.5836
G01 X3.0409 Y-4.6000
G01 X3.0915 Y-4.6196
G01 X3.1470 Y-4.6382
G01 X3.2076 Y-4.6551
G01 X3.2605 Y-4.6670
G01 X3.3225 Y-4.6779
G01 X3.3806 Y-4.6851
G01 X3.4390 Y-4.6894
G01 X3.4976 Y-4.6908
G01 X3.5561 Y-4.6894
G01 X3.6145 Y-4.6851
G01 X3.6727 Y-4.6779
G01 X3.7346 Y-4.6670
G01 X3.7875 Y-4.6551
G01 X3.8481 Y-4.6382
G01 X3.9037 Y-4.6196
G01 X3.9542 Y-4.6000
G01 X3.9945 Y-4.5822
G01 X3.9856 Y-4.6023
G01 X3.9779 Y-4.6220
G01 X3.9713 Y-4.6421
G01 X3.9646 Y-4.6667
G01 X3.9602 Y-4.6874
G01 X3.9574 Y-4.7039
G01 X3.9552 Y-4.7206
G01 X3.9532 Y-4.7460
G01 X3.9526 Y-4.7672
G01 X3.9531 Y-4.7883
G01 X3.9552 Y-4.8137
G01 X3.9579 Y-4.8347
G01 X3.9608 Y-4.8512
G01 X3.9644 Y-4.8676
G01 X3.9711 Y-4.8922
G01 X3.9777 Y-4.9123
G01 X3.9852 Y-4.9321
G01 X3.9945 Y-4.9530
G01 X3.9542 Y-4.9351
G01 X3.9037 Y-4.9156
G01 X3.8481 Y-4.8970
G01 X3.7875 Y-4.8801
G01 X3.7346 Y-4.8681
G01 X3.6727 Y-4.8572
G01 X3.6145 Y-4.8501
G01 X3.5561 Y-4.8458
G01 X3.4976 Y-4.8443
G01 X3.4390 Y-4.8458
G01 X3.3806 Y-4.8501
G01 X3.3225 Y-4.8572
G01 X3.2605 Y-4.8681
G01 X3.2076 Y-4.8801
G01 X3.1470 Y-4.8970
G01 X3.0915 Y-4.9156
G01 X3.0409 Y-4.9351
G01 X3.0039 Y-4.9515
G00 Z1.9990
G00 X3.8065 Y-4.7676
G01 F30.00
G01 Z-0.0600
G01 F30.00
G01 X3.8389 Y-4.7591
G01 X3.8389 Y-4.7761
G01 X3.8152 Y-4.7696
G01 X3.8065 Y-4.7676
G00 Z1.9990
G00 X4.5770 Y-3.4968
G01 F30.00
G01 Z-0.0600
G01 F30.00
G01 X4.5757 Y-3.4446
G01 X4.5718 Y-3.3918
G01 X4.5653 Y-3.3392
G01 X4.5562 Y-3.2870
G01 X4.5446 Y-3.2353
G01 X4.5305 Y-3.1842
G01 X4.5139 Y-3.1339
G01 X4.4948 Y-3.0845
G01 X4.4733 Y-3.0361
G01 X4.4495 Y-2.9888
G01 X4.4234 Y-2.9427
G01 X4.3951 Y-2.8979
G01 X4.3646 Y-2.8546
G01 X4.3320 Y-2.8128
G01 X4.2974 Y-2.7727
G01 X4.2608 Y-2.7343
G01 X4.2225 Y-2.6978
G01 X4.1823 Y-2.6632
G01 X4.1406 Y-2.6306
G01 X4.0973 Y-2.6001
G01 X4.0525 Y-2.5717
G01 X4.0064 Y-2.5456
G01 X3.9591 Y-2.5218
G01 X3.9106 Y-2.5003
G01 X3.8612 Y-2.4813
G01 X3.8109 Y-2.4647
G01 X3.7599 Y-2.4505
G01 X3.7082 Y-2.4389
G01 X3.6560 Y-2.4299
G01 X3.6034 Y-2.4234
G01 X3.5505 Y-2.4195
G01 X3.4976 Y-2.4182
G01 X3.4446 Y-2.4195
G01 X3.3918 Y-2.4234
G01 X3.3392 Y-2.4299
G01 X3.2870 Y-2.4389
G01 X3.2353 Y-2.4505
G01 X3.1842 Y-2.4647
G01 X3.1339 Y-2.4813
G01 X3.0845 Y-2.5003
G01 X3.0361 Y-2.5218
G01 X2.9888 Y-2.5456
G01 X2.9427 Y-2.5717
G01 X2.8979 Y-2.6001
G01 X2.8546 Y-2.6306
G01 X2.8128 Y-2.6632
G01 X2.7727 Y-2.6978
G01 X2.7343 Y-2.7343
G01 X2.6978 Y-2.7727
G01 X2.6632 Y-2.8128
G01 X2.6306 Y-2.8546
G01 X2.6001 Y-2.8979
G01 X2.5717 Y-2.9427
G01 X2.5456 Y-2.9888
G01 X2.5218 Y-3.0361
G01 X2.5003 Y-3.0845
G01 X2.4813 Y-3.1339
G01 X2.4647 Y-3.1842
G01 X2.4505 Y-3.2353
G01 X2.4389 Y-3.2870
G01 X2.4299 Y-3.3392
G01 X2.4234 Y-3.3918
G01 X2.4195 Y-3.4446
G01 X2.4182 Y-3.4976
G01 X2.4195 Y-3.5505
G01 X2.4234 Y-3.6034
G01 X2.4299 Y-3.6560
G01 X2.4389 Y-3.7082
G01 X2.4505 Y-3.7599
G01 X2.4647 Y-3.8109
G01 X2.4813 Y-3.8612
G01 X2.5003 Y-3.9106
G01 X2.5218 Y-3.9591
G01 X2.5456 Y-4.0064
G01 X2.5717 Y-4.0525
G01 X2.6001 Y-4.0973
G01 X2.6306 Y-4.1406
G01 X2.6632 Y-4.1823
G01 X2.6978 Y-4.2225
G01 X2.7343 Y-4.2608
G01 X2.7727 Y-4.2974
G01 X2.8128 Y-4.3320
G01 X2.8546 Y-4.3646
G01 X2.8979 Y-4.3951
G01 X2.9427 Y-4.4234
G01 X2.9888 Y-4.4495
G01 X3.0361 Y-4.4733
G01 X3.0845 Y-4.4948
G01 X3.1339 Y-4.5139
G01 X3.1842 Y-4.5305
G01 X3.2353 Y-4.5446
G01 X3.2870 Y-4.5562
G01 X3.3392 Y-4.5653
G01 X3.3918 Y-4.5718
G01 X3.4446 Y-4.5757
G01 X3.4976 Y-4.5770
G01 X3.5505 Y-4.5757
G01 X3.6034 Y-4.5718
G01 X3.6560 Y-4.5653
G01 X3.7082 Y-4.5562
G01 X3.7599 Y-4.5446
G01 X3.8109 Y-4.5305
G01 X3.8612 Y-4.5139
G01 X3.9106 Y-4.4948
G01 X3.9591 Y-4.4733
G01 X4.0064 Y-4.4495
G01 X4.0525 Y-4.4234
G01 X4.0973 Y-4.3951
G01 X4.1406 Y-4.3646
G01 X4.1823 Y-4.3320
G01 X4.2225 Y-4.2974
G01 X4.2608 Y-4.2608
G01 X4.2974 Y-4.2225
G01 X4.3320 Y-4.1823
G01 X4.3646 Y-4.1406
G01 X4.3951 Y-4.0973
G01 X4.4234 Y-4.0525
G01 X4.4495 Y-4.0064
G01 X4.4733 Y-3.9591
G01 X4.4948 Y-3.9106
G01 X4.5139 Y-3.8612
G01 X4.5305 Y-3.8109
G01 X4.5446 Y-3.7599
G01 X4.5562 Y-3.7082
G01 X4.5653 Y-3.6560
G01 X4.5718 Y-3.6034
G01 X4.5757 Y-3.5505
G01 X4.5770 Y-3.4968
G00 Z1.9990
G00 X6.5583 Y-3.9267
G01 F30.00
G01 Z-0.0600
G01 F30.00
G01 X6.5583 Y-3.7084
G01 X7.8080 Y-3.7084
G01 X7.8080 Y-3.8355
G01 X6.7457 Y-3.8356
G01 X6.7395 Y-3.8362
G01 X6.7304 Y-3.8382
G01 X6.7217 Y-3.8416
G01 X6.7162 Y-3.8445
G01 X6.7110 Y-3.8480
G01 X6.7039 Y-3.8541
G01 X6.6998 Y-3.8587
G01 X6.6961 Y-3.8637
G01 X6.6929 Y-3.8690
G01 X6.6891 Y-3.8775
G01 X6.6873 Y-3.8835
G01 X6.6861 Y-3.8896
G01 X6.6854 Y-3.8989
G01 X6.6854 Y-3.9267
G01 X6.5583 Y-3.9267
G00 Z1.9990
G00 X6.5583 Y-5.0700
G01 F30.00
G01 Z-0.0600
G01 F30.00
G01 X6.6854 Y-5.0700
G01 X6.6854 Y-5.0978
G01 X6.6861 Y-5.1071
G01 X6.6873 Y-5.1132
G01 X6.6891 Y-5.1191
G01 X6.6929 Y-5.1277
G01 X6.6961 Y-5.1330
G01 X6.6998 Y-5.1380
G01 X6.7062 Y-5.1448
G01 X6.7110 Y-5.1487
G01 X6.7189 Y-5.1537
G01 X6.7274 Y-5.1575
G01 X6.7334 Y-5.1593
G01 X6.7426 Y-5.1609
G01 X6.7488 Y-5.1612
G01 X9.2513 Y-5.1611
G01 X9.2605 Y-5.1600
G01 X9.2665 Y-5.1585
G01 X9.2724 Y-5.1564
G01 X9.2807 Y-5.1522
G01 X9.2859 Y-5.1487
G01 X9.2930 Y-5.1426
G01 X9.2971 Y-5.1380
G01 X9.3009 Y-5.1330
G01 X9.3041 Y-5.1277
G01 X9.3078 Y-5.1191
G01 X9.3096 Y-5.1132
G01 X9.3109 Y-5.1071
G01 X9.3115 Y-5.0978
G01 X9.3115 Y-5.0700
G01 X9.4386 Y-5.0700
G01 X9.4386 Y-23.2892
G01 X6.5550 Y-23.2892
G01 X6.5522 Y-23.2731
G01 X6.5488 Y-23.2579
G01 X6.5446 Y-23.2428
G01 X6.5392 Y-23.2266
G01 X6.5342 Y-23.2135
G01 X6.5272 Y-23.1979
G01 X6.5201 Y-23.1840
G01 X6.5132 Y-23.1718
G01 X6.5057 Y-23.1599
G01 X6.4959 Y-23.1459
G01 X6.4863 Y-23.1336
G01 X6.4761 Y-23.1218
G01 X6.4654 Y-23.1105
G01 X6.4541 Y-23.0998
G01 X6.4423 Y-23.0896
G01 X6.4300 Y-23.0800
G01 X6.4160 Y-23.0702
G01 X6.4041 Y-23.0627
G01 X6.3892 Y-23.0543
G01 X6.3767 Y-23.0480
G01 X6.3638 Y-23.0423
G01 X6.3493 Y-23.0366
G01 X6.3331 Y-23.0312
G01 X6.3181 Y-23.0270
G01 X6.3029 Y-23.0236
G01 X6.2875 Y-23.0209
G01 X6.2721 Y-23.0190
G01 X6.2565 Y-23.0178
G01 X6.2410 Y-23.0175
G01 X6.2238 Y-23.0179
G01 X6.2098 Y-23.0190
G01 X6.1928 Y-23.0211
G01 X6.1775 Y-23.0238
G01 X6.1638 Y-23.0269
G01 X6.1503 Y-23.0306
G01 X6.1340 Y-23.0359
G01 X6.1180 Y-23.0421
G01 X6.1052 Y-23.0478
G01 X6.0927 Y-23.0541
G01 X6.0777 Y-23.0625
G01 X6.0646 Y-23.0708
G01 X6.0506 Y-23.0807
G01 X6.0395 Y-23.0894
G01 X6.0289 Y-23.0985
G01 X6.0170 Y-23.1097
G01 X4.5351 Y-24.5891
G01 X4.5249 Y-24.5998
G01 X4.5157 Y-24.6104
G01 X4.5051 Y-24.6239
G01 X4.4961 Y-24.6367
G01 X4.4885 Y-24.6485
G01 X4.4800 Y-24.6634
G01 X4.4730 Y-24.6774
G01 X4.4661 Y-24.6931
G01 X4.4610 Y-24.7062
G01 X4.4566 Y-24.7195
G01 X4.4520 Y-24.7360
G01 X4.4485 Y-24.7512
G01 X4.4457 Y-24.7682
G01 X4.4440 Y-24.7821
G01 X4.4429 Y-24.7961
G01 X4.4424 Y-24.8133
G01 X4.4424 Y-32.2224
G01 X4.4428 Y-32.2380
G01 X4.4440 Y-32.2536
G01 X4.4459 Y-32.2690
G01 X4.4482 Y-32.2829
G01 X4.4523 Y-32.3011
G01 X4.4561 Y-32.3146
G01 X4.4615 Y-32.3309
G01 X4.4666 Y-32.3440
G01 X4.4729 Y-32.3582
G01 X4.4799 Y-32.3721
G01 X4.4876 Y-32.3857
G01 X4.4959 Y-32.3988
G01 X4.5049 Y-32.4116
G01 X4.5145 Y-32.4239
G01 X4.5247 Y-32.4357
G01 X4.5354 Y-32.4470
G01 X4.5456 Y-32.4567
G01 X4.5585 Y-32.4679
G01 X4.5708 Y-32.4775
G01 X4.5823 Y-32.4856
G01 X4.5981 Y-32.4956
G01 X4.6103 Y-32.5025
G01 X4.6242 Y-32.5095
G01 X4.6384 Y-32.5158
G01 X4.6515 Y-32.5209
G01 X4.6693 Y-32.5267
G01 X4.6828 Y-32.5305
G01 X4.6980 Y-32.5339
G01 X4.7134 Y-32.5365
G01 X4.7273 Y-32.5383
G01 X4.7459 Y-32.5396
G01 X4.7600 Y-32.5400
G01 X4.7755 Y-32.5396
G01 X4.7911 Y-32.5384
G01 X4.8050 Y-32.5367
G01 X4.8234 Y-32.5335
G01 X4.8371 Y-32.5305
G01 X4.8521 Y-32.5263
G01 X4.8669 Y-32.5214
G01 X4.8800 Y-32.5164
G01 X4.8957 Y-32.5095
G01 X4.9096 Y-32.5025
G01 X4.9219 Y-32.4956
G01 X4.9377 Y-32.4856
G01 X4.9491 Y-32.4775
G01 X4.9614 Y-32.4679
G01 X4.9732 Y-32.4577
G01 X4.9834 Y-32.4481
G01 X5.3483 Y-32.0832
G01 X5.3585 Y-32.0725
G01 X5.3686 Y-32.0607
G01 X5.3782 Y-32.0484
G01 X5.3863 Y-32.0369
G01 X5.3963 Y-32.0211
G01 X5.4032 Y-32.0089
G01 X5.4095 Y-31.9964
G01 X5.4165 Y-31.9807
G01 X5.4227 Y-31.9647
G01 X5.4270 Y-31.9514
G01 X5.4308 Y-31.9379
G01 X5.4346 Y-31.9212
G01 X5.4373 Y-31.9058
G01 X5.4390 Y-31.8919
G01 X5.4403 Y-31.8748
G01 X5.4407 Y-31.8592
G01 X5.4407 Y-30.6977
G01 X6.3370 Y-29.7993
G01 X15.0368 Y-29.7993
G01 X15.0524 Y-29.7989
G01 X15.0679 Y-29.7978
G01 X15.0834 Y-29.7959
G01 X15.0987 Y-29.7932
G01 X15.1139 Y-29.7898
G01 X15.1274 Y-29.7861
G01 X15.1437 Y-29.7808
G01 X15.1582 Y-29.7752
G01 X15.1710 Y-29.7695
G01 X15.1864 Y-29.7619
G01 X15.1999 Y-29.7542
G01 X15.2118 Y-29.7467
G01 X15.2258 Y-29.7369
G01 X15.2393 Y-29.7263
G01 X15.2499 Y-29.7172
G01 X15.2606 Y-29.7070
G01 X17.2068 Y-27.7634
G01 X17.2176 Y-27.7521
G01 X17.2268 Y-27.7414
G01 X17.2383 Y-27.7267
G01 X17.2464 Y-27.7152
G01 X17.2539 Y-27.7034
G01 X17.2631 Y-27.6871
G01 X17.2694 Y-27.6745
G01 X17.2758 Y-27.6603
G01 X17.2814 Y-27.6457
G01 X17.2858 Y-27.6324
G01 X17.2908 Y-27.6144
G01 X17.2939 Y-27.6007
G01 X17.2965 Y-27.5853
G01 X17.2986 Y-27.5683
G01 X17.2996 Y-27.5543
G01 X17.3000 Y-27.5395
G01 X17.3000 Y-22.2094
G01 X18.7079 Y-20.8038
G01 X18.7176 Y-20.7936
G01 X18.7289 Y-20.7807
G01 X18.7375 Y-20.7696
G01 X18.7483 Y-20.7544
G01 X18.7558 Y-20.7425
G01 X18.7635 Y-20.7289
G01 X18.7706 Y-20.7150
G01 X18.7763 Y-20.7021
G01 X18.7830 Y-20.6847
G01 X18.7874 Y-20.6713
G01 X18.7916 Y-20.6563
G01 X18.7950 Y-20.6411
G01 X18.7974 Y-20.6273
G01 X18.7997 Y-20.6087
G01 X18.8007 Y-20.5947
G01 X18.8011 Y-20.5791
G01 X18.8011 Y-6.6974
G01 X20.1975 Y-5.3010
G01 X20.7424 Y-5.3010
G01 X20.7588 Y-5.3005
G01 X20.7728 Y-5.2995
G01 X20.7867 Y-5.2978
G01 X20.8036 Y-5.2949
G01 X20.8203 Y-5.2911
G01 X20.8338 Y-5.2873
G01 X20.8471 Y-5.2830
G01 X20.8617 Y-5.2774
G01 X20.8774 Y-5.2705
G01 X20.8927 Y-5.2628
G01 X20.9049 Y-5.2558
G01 X20.9167 Y-5.2483
G01 X20.9308 Y-5.2385
G01 X20.9443 Y-5.2279
G01 X20.9549 Y-5.2188
G01 X20.9651 Y-5.2091
G01 X20.9769 Y-5.1967
G01 X20.9881 Y-5.1837
G01 X20.9967 Y-5.1726
G01 X21.0048 Y-5.1612
G01 X21.0140 Y-5.1467
G01 X21.0224 Y-5.1318
G01 X21.0287 Y-5.1192
G01 X21.0344 Y-5.1064
G01 X21.0406 Y-5.0905
G01 X21.0471 Y-5.0700
G01 X21.1862 Y-5.0700
G01 X21.1862 Y-5.0978
G01 X21.1869 Y-5.1071
G01 X21.1890 Y-5.1162
G01 X21.1911 Y-5.1220
G01 X21.1937 Y-5.1277
G01 X21.1969 Y-5.1330
G01 X21.2006 Y-5.1380
G01 X21.2071 Y-5.1448
G01 X21.2144 Y-5.1505
G01 X21.2198 Y-5.1537
G01 X21.2283 Y-5.1575
G01 X21.2342 Y-5.1593
G01 X21.2434 Y-5.1609
G01 X21.2496 Y-5.1612
G01 X23.7521 Y-5.1611
G01 X23.7614 Y-5.1600
G01 X23.7674 Y-5.1585
G01 X23.7733 Y-5.1564
G01 X23.7816 Y-5.1522
G01 X23.7868 Y-5.1487
G01 X23.7916 Y-5.1448
G01 X23.7980 Y-5.1380
G01 X23.8017 Y-5.1330
G01 X23.8049 Y-5.1277
G01 X23.8076 Y-5.1220
G01 X23.8097 Y-5.1162
G01 X23.8117 Y-5.1071
G01 X23.8124 Y-5.0978
G01 X23.8124 Y-5.0700
G01 X23.9395 Y-5.0700
G01 X23.9395 Y-6.7361
G01 X23.9398 Y-6.7501
G01 X23.9412 Y-6.7687
G01 X23.9429 Y-6.7827
G01 X23.9453 Y-6.7965
G01 X23.9490 Y-6.8132
G01 X23.9536 Y-6.8297
G01 X23.9580 Y-6.8431
G01 X23.9631 Y-6.8561
G01 X23.9700 Y-6.8718
G01 X23.9777 Y-6.8871
G01 X23.9846 Y-6.8993
G01 X23.9930 Y-6.9125
G01 X24.0020 Y-6.9252
G01 X24.0115 Y-6.9375
G01 X24.0217 Y-6.9493
G01 X24.0336 Y-6.9617
G01 X24.0449 Y-6.9724
G01 X24.0556 Y-6.9815
G01 X24.0666 Y-6.9902
G01 X24.0806 Y-7.0001
G01 X24.0938 Y-7.0084
G01 X24.1073 Y-7.0161
G01 X24.1212 Y-7.0231
G01 X24.1355 Y-7.0294
G01 X24.1515 Y-7.0356
G01 X24.1648 Y-7.0399
G01 X24.1814 Y-7.0445
G01 X24.1966 Y-7.0478
G01 X24.2104 Y-7.0502
G01 X24.2243 Y-7.0519
G01 X24.2414 Y-7.0532
G01 X24.2570 Y-7.0536
G01 X25.1821 Y-7.0536
G01 X25.4432 Y-7.3146
G01 X25.4432 Y-18.6842
G01 X25.4435 Y-18.6999
G01 X25.4449 Y-18.7170
G01 X25.4466 Y-18.7310
G01 X25.4493 Y-18.7464
G01 X25.4527 Y-18.7616
G01 X25.4565 Y-18.7752
G01 X25.4624 Y-18.7930
G01 X25.4675 Y-18.8061
G01 X25.4738 Y-18.8204
G01 X25.4809 Y-18.8344
G01 X25.4878 Y-18.8466
G01 X25.4979 Y-18.8624
G01 X25.5060 Y-18.8739
G01 X25.5157 Y-18.8862
G01 X25.5259 Y-18.8980
G01 X25.5367 Y-18.9093
G01 X25.9435 Y-19.3141
G01 X25.9435 Y-25.1821
G01 X25.6825 Y-25.4432
G01 X24.6804 Y-25.4432
G01 X24.6656 Y-25.4435
G01 X24.6516 Y-25.4445
G01 X24.6331 Y-25.4468
G01 X24.6192 Y-25.4493
G01 X24.6040 Y-25.4527
G01 X24.5890 Y-25.4568
G01 X24.5757 Y-25.4612
G01 X24.5582 Y-25.4679
G01 X24.5454 Y-25.4736
G01 X24.5329 Y-25.4799
G01 X24.5179 Y-25.4883
G01 X24.5035 Y-25.4975
G01 X24.4920 Y-25.5056
G01 X24.4810 Y-25.5143
G01 X24.4679 Y-25.5254
G01 X24.4556 Y-25.5373
G01 X24.4459 Y-25.5474
G01 X24.4357 Y-25.5592
G01 X24.4252 Y-25.5728
G01 X24.4172 Y-25.5843
G01 X24.4088 Y-25.5974
G01 X24.4004 Y-25.6124
G01 X24.3941 Y-25.6249
G01 X24.3884 Y-25.6377
G01 X24.3822 Y-25.6537
G01 X24.3769 Y-25.6700
G01 X24.3732 Y-25.6835
G01 X24.3701 Y-25.6972
G01 X24.3669 Y-25.7156
G01 X24.3652 Y-25.7296
G01 X24.3641 Y-25.7435
G01 X24.3637 Y-25.7607
G01 X24.3637 Y-31.6052
G01 X24.3640 Y-31.6208
G01 X24.3650 Y-31.6348
G01 X24.3671 Y-31.6518
G01 X24.3698 Y-31.6672
G01 X24.3728 Y-31.6809
G01 X24.3773 Y-31.6974
G01 X24.3822 Y-31.7122
G01 X24.3884 Y-31.7282
G01 X24.3941 Y-31.7410
G01 X24.4004 Y-31.7535
G01 X24.4080 Y-31.7671
G01 X24.4172 Y-31.7816
G01 X24.4261 Y-31.7944
G01 X24.4357 Y-31.8067
G01 X24.4459 Y-31.8185
G01 X24.4567 Y-31.8297
G01 X24.9647 Y-32.3377
G01 X24.9759 Y-32.3485
G01 X24.9877 Y-32.3587
G01 X25.0000 Y-32.3683
G01 X25.0128 Y-32.3772
G01 X25.0259 Y-32.3856
G01 X25.0409 Y-32.3940
G01 X25.0534 Y-32.4003
G01 X25.0662 Y-32.4060
G01 X25.0807 Y-32.4116
G01 X25.0970 Y-32.4171
G01 X25.1120 Y-32.4212
G01 X25.1272 Y-32.4246
G01 X25.1426 Y-32.4273
G01 X25.1581 Y-32.4292
G01 X25.1752 Y-32.4304
G01 X25.1907 Y-32.4307
G01 X25.2048 Y-32.4304
G01 X25.2188 Y-32.4294
G01 X25.2358 Y-32.4273
G01 X25.2511 Y-32.4246
G01 X25.2678 Y-32.4208
G01 X25.2814 Y-32.4171
G01 X25.2947 Y-32.4127
G01 X25.3107 Y-32.4066
G01 X25.3263 Y-32.3996
G01 X25.3389 Y-32.3933
G01 X25.3511 Y-32.3864
G01 X25.3656 Y-32.3772
G01 X25.3783 Y-32.3683
G01 X25.3894 Y-32.3596
G01 X25.4024 Y-32.3485
G01 X25.4137 Y-32.3377
G01 X25.9217 Y-31.8297
G01 X25.9335 Y-31.8173
G01 X25.9426 Y-31.8067
G01 X25.9522 Y-31.7944
G01 X25.9612 Y-31.7816
G01 X25.9687 Y-31.7698
G01 X25.9772 Y-31.7549
G01 X25.9849 Y-31.7396
G01 X25.9905 Y-31.7267
G01 X25.9956 Y-31.7137
G01 X26.0010 Y-31.6974
G01 X26.0056 Y-31.6809
G01 X26.0086 Y-31.6672
G01 X26.0110 Y-31.6533
G01 X26.0132 Y-31.6363
G01 X26.0143 Y-31.6208
G01 X26.0147 Y-31.6052
G01 X26.0147 Y-31.1802
G01 X26.6393 Y-30.5537
G01 X29.9347 Y-30.5537
G01 X29.9495 Y-30.5533
G01 X29.9666 Y-30.5520
G01 X29.9820 Y-30.5500
G01 X29.9958 Y-30.5476
G01 X30.0095 Y-30.5445
G01 X30.0261 Y-30.5400
G01 X30.0409 Y-30.5351
G01 X30.0554 Y-30.5295
G01 X30.0697 Y-30.5232
G01 X30.0836 Y-30.5162
G01 X30.0958 Y-30.5093
G01 X30.1116 Y-30.4993
G01 X30.1231 Y-30.4912
G01 X30.1353 Y-30.4816
G01 X30.1471 Y-30.4714
G01 X30.1579 Y-30.4612
G01 X30.8798 Y-29.7393
G01 X30.8895 Y-29.7292
G01 X30.9017 Y-29.7150
G01 X30.9103 Y-29.7040
G01 X30.9193 Y-29.6912
G01 X30.9284 Y-29.6767
G01 X30.9353 Y-29.6645
G01 X30.9416 Y-29.6520
G01 X30.9486 Y-29.6363
G01 X30.9547 Y-29.6203
G01 X30.9591 Y-29.6070
G01 X30.9629 Y-29.5935
G01 X30.9670 Y-29.5752
G01 X30.9694 Y-29.5614
G01 X30.9711 Y-29.5475
G01 X30.9724 Y-29.5304
G01 X30.9728 Y-29.5132
G01 X30.9724 Y-29.4992
G01 X30.9714 Y-29.4852
G01 X30.9694 Y-29.4682
G01 X30.9664 Y-29.4513
G01 X30.9633 Y-29.4376
G01 X30.9595 Y-29.4241
G01 X30.9547 Y-29.4093
G01 X30.9486 Y-29.3933
G01 X30.9416 Y-29.3776
G01 X30.9353 Y-29.3651
G01 X30.9284 Y-29.3529
G01 X30.9193 Y-29.3384
G01 X30.9103 Y-29.3256
G01 X30.8997 Y-29.3122
G01 X30.8905 Y-29.3016
G01 X30.8809 Y-29.2914
G01 X30.8685 Y-29.2795
G01 X30.8555 Y-29.2684
G01 X30.8444 Y-29.2598
G01 X30.8330 Y-29.2517
G01 X30.8185 Y-29.2424
G01 X30.8049 Y-29.2348
G01 X30.7896 Y-29.2271
G01 X30.7768 Y-29.2214
G01 X30.7637 Y-29.2164
G01 X30.7474 Y-29.2109
G01 X30.7324 Y-29.2068
G01 X30.7172 Y-29.2034
G01 X30.7019 Y-29.2007
G01 X30.6864 Y-29.1988
G01 X30.6708 Y-29.1977
G01 X30.6553 Y-29.1973
G01 X30.5461 Y-29.1973
G01 X30.5461 Y-27.8003
G01 X32.4510 Y-27.8003
G01 X32.4510 Y-29.1973
G01 X32.2605 Y-29.1973
G01 X32.2450 Y-29.1977
G01 X32.2294 Y-29.1988
G01 X32.2124 Y-29.2010
G01 X32.1986 Y-29.2034
G01 X32.1849 Y-29.2064
G01 X32.1684 Y-29.2109
G01 X32.1536 Y-29.2158
G01 X32.1390 Y-29.2214
G01 X32.1248 Y-29.2278
G01 X32.1122 Y-29.2340
G01 X32.0960 Y-29.2433
G01 X32.0841 Y-29.2508
G01 X32.0714 Y-29.2598
G01 X32.0591 Y-29.2693
G01 X32.0485 Y-29.2785
G01 X32.0349 Y-29.2914
G01 X32.0253 Y-29.3016
G01 X32.0151 Y-29.3134
G01 X32.0055 Y-29.3256
G01 X31.9974 Y-29.3371
G01 X31.9882 Y-29.3516
G01 X31.9798 Y-29.3665
G01 X31.9735 Y-29.3790
G01 X31.9678 Y-29.3919
G01 X31.9616 Y-29.4078
G01 X31.9567 Y-29.4226
G01 X31.9522 Y-29.4392
G01 X31.9491 Y-29.4529
G01 X31.9467 Y-29.4667
G01 X31.9445 Y-29.4837
G01 X31.9434 Y-29.4992
G01 X31.9430 Y-29.5148
G01 X31.9430 Y-29.9319
G01 X30.4323 Y-31.4426
G01 X29.9161 Y-31.4426
G01 X29.9021 Y-31.4430
G01 X29.8835 Y-31.4443
G01 X29.8696 Y-31.4461
G01 X29.8542 Y-31.4487
G01 X29.8391 Y-31.4521
G01 X29.8255 Y-31.4558
G01 X29.8093 Y-31.4612
G01 X29.7933 Y-31.4674
G01 X29.7805 Y-31.4731
G01 X29.7666 Y-31.4800
G01 X29.7530 Y-31.4877
G01 X29.7412 Y-31.4952
G01 X29.7272 Y-31.5050
G01 X29.7149 Y-31.5146
G01 X29.7042 Y-31.5237
G01 X29.6918 Y-31.5354
G01 X29.6800 Y-31.5479
G01 X29.6709 Y-31.5585
G01 X29.6622 Y-31.5695
G01 X29.6523 Y-31.5835
G01 X29.6432 Y-31.5979
G01 X29.6363 Y-31.6101
G01 X29.6299 Y-31.6226
G01 X29.6223 Y-31.6397
G01 X29.6173 Y-31.6528
G01 X29.6129 Y-31.6661
G01 X29.6082 Y-31.6825
G01 X29.6048 Y-31.6977
G01 X29.6024 Y-31.7115
G01 X29.6000 Y-31.7301
G01 X29.5990 Y-31.7440
G01 X29.5986 Y-31.7596
G01 X29.5989 Y-31.7752
G01 X29.6001 Y-31.7907
G01 X29.6019 Y-31.8061
G01 X29.6046 Y-31.8215
G01 X29.6080 Y-31.8367
G01 X29.6125 Y-31.8532
G01 X29.6175 Y-31.8679
G01 X29.6225 Y-31.8810
G01 X29.6281 Y-31.8939
G01 X29.6357 Y-31.9092
G01 X29.6426 Y-31.9214
G01 X29.6517 Y-31.9359
G01 X29.6606 Y-31.9487
G01 X29.6702 Y-31.9610
G01 X29.6793 Y-31.9716
G01 X29.6910 Y-31.9841
G01 X30.1660 Y-32.4616
G01 X30.1773 Y-32.4724
G01 X30.1891 Y-32.4827
G01 X30.2014 Y-32.4923
G01 X30.2142 Y-32.5013
G01 X30.2287 Y-32.5105
G01 X30.2410 Y-32.5175
G01 X30.2563 Y-32.5252
G01 X30.2692 Y-32.5309
G01 X30.2823 Y-32.5360
G01 X30.2971 Y-32.5410
G01 X30.3152 Y-32.5460
G01 X30.3289 Y-32.5491
G01 X30.3444 Y-32.5517
G01 X30.3614 Y-32.5538
G01 X30.3755 Y-32.5548
G01 X30.3903 Y-32.5552
G01 X31.9329 Y-32.5552
G01 X31.9485 Y-32.5548
G01 X31.9640 Y-32.5537
G01 X31.9795 Y-32.5518
G01 X31.9933 Y-32.5494
G01 X32.0115 Y-32.5453
G01 X32.0251 Y-32.5415
G01 X32.0399 Y-32.5366
G01 X32.0544 Y-32.5310
G01 X32.0686 Y-32.5247
G01 X32.0826 Y-32.5177
G01 X32.0974 Y-32.5092
G01 X32.1106 Y-32.5008
G01 X32.1220 Y-32.4927
G01 X32.1331 Y-32.4841
G01 X32.1461 Y-32.4730
G01 X32.1569 Y-32.4628
G01 X33.9608 Y-30.6588
G01 X33.9726 Y-30.6464
G01 X33.9817 Y-30.6357
G01 X33.9904 Y-30.6247
G01 X34.0003 Y-30.6107
G01 X34.0086 Y-30.5975
G01 X34.0163 Y-30.5840
G01 X34.0240 Y-30.5686
G01 X34.0302 Y-30.5543
G01 X34.0352 Y-30.5413
G01 X34.0397 Y-30.5279
G01 X34.0447 Y-30.5099
G01 X34.0477 Y-30.4962
G01 X34.0504 Y-30.4809
G01 X34.0524 Y-30.4639
G01 X34.0534 Y-30.4499
G01 X34.0538 Y-30.4351
G01 X34.0538 Y-29.5148
G01 X34.0534 Y-29.4992
G01 X34.0524 Y-29.4852
G01 X34.0501 Y-29.4667
G01 X34.0477 Y-29.4529
G01 X34.0443 Y-29.4376
G01 X34.0401 Y-29.4226
G01 X34.0352 Y-29.4078
G01 X34.0296 Y-29.3933
G01 X34.0233 Y-29.3790
G01 X34.0163 Y-29.3651
G01 X34.0086 Y-29.3516
G01 X34.0003 Y-29.3384
G01 X33.9913 Y-29.3256
G01 X33.9817 Y-29.3134
G01 X33.9705 Y-29.3004
G01 X33.9608 Y-29.2903
G01 X33.9495 Y-29.2795
G01 X33.9377 Y-29.2693
G01 X33.9242 Y-29.2588
G01 X33.9114 Y-29.2499
G01 X33.8995 Y-29.2424
G01 X33.8873 Y-29.2355
G01 X33.8720 Y-29.2278
G01 X33.8592 Y-29.2221
G01 X33.8418 Y-29.2153
G01 X33.8285 Y-29.2109
G01 X33.8134 Y-29.2068
G01 X33.7982 Y-29.2034
G01 X33.7844 Y-29.2010
G01 X33.7659 Y-29.1987
G01 X33.7519 Y-29.1977
G01 X33.7371 Y-29.1973
G01 X33.5458 Y-29.1973
G01 X33.5458 Y-27.8003
G01 X35.4508 Y-27.8003
G01 X35.4508 Y-29.1973
G01 X35.2595 Y-29.1973
G01 X35.2447 Y-29.1977
G01 X35.2292 Y-29.1988
G01 X35.2137 Y-29.2007
G01 X35.1983 Y-29.2034
G01 X35.1831 Y-29.2068
G01 X35.1681 Y-29.2109
G01 X35.1533 Y-29.2158
G01 X35.1388 Y-29.2214
G01 X35.1245 Y-29.2278
G01 X35.1106 Y-29.2348
G01 X35.0970 Y-29.2424
G01 X35.0826 Y-29.2517
G01 X35.0711 Y-29.2598
G01 X35.0601 Y-29.2684
G01 X35.0482 Y-29.2785
G01 X35.0358 Y-29.2903
G01 X35.0250 Y-29.3016
G01 X35.0148 Y-29.3134
G01 X35.0043 Y-29.3269
G01 X34.9954 Y-29.3397
G01 X34.9879 Y-29.3516
G01 X34.9810 Y-29.3638
G01 X34.9732 Y-29.3790
G01 X34.9669 Y-29.3933
G01 X34.9613 Y-29.4078
G01 X34.9560 Y-29.4241
G01 X34.9523 Y-29.4376
G01 X34.9492 Y-29.4513
G01 X34.9464 Y-29.4667
G01 X34.9441 Y-29.4852
G01 X34.9431 Y-29.4992
G01 X34.9428 Y-29.5148
G01 X34.9428 Y-30.9328
G01 X32.4337 Y-33.4442
G01 X30.3911 Y-33.4442
G01 X30.3755 Y-33.4445
G01 X30.3584 Y-33.4459
G01 X30.3445 Y-33.4476
G01 X30.3307 Y-33.4500
G01 X30.3139 Y-33.4537
G01 X30.2989 Y-33.4578
G01 X30.2827 Y-33.4633
G01 X30.2696 Y-33.4683
G01 X30.2568 Y-33.4740
G01 X30.2414 Y-33.4816
G01 X30.2279 Y-33.4893
G01 X30.2134 Y-33.4985
G01 X30.2019 Y-33.5066
G01 X30.1909 Y-33.5153
G01 X30.1779 Y-33.5264
G01 X30.1666 Y-33.5372
G01 X29.4976 Y-34.2062
G01 X28.4986 Y-34.2062
G01 X27.9542 Y-33.6595
G01 X27.9429 Y-33.6487
G01 X27.9311 Y-33.6385
G01 X27.9188 Y-33.6289
G01 X27.9073 Y-33.6208
G01 X27.8915 Y-33.6107
G01 X27.8793 Y-33.6038
G01 X27.8654 Y-33.5968
G01 X27.8511 Y-33.5904
G01 X27.8366 Y-33.5848
G01 X27.8218 Y-33.5799
G01 X27.8082 Y-33.5761
G01 X27.7900 Y-33.5720
G01 X27.7761 Y-33.5696
G01 X27.7607 Y-33.5676
G01 X27.7451 Y-33.5665
G01 X27.7295 Y-33.5661
G01 X27.7139 Y-33.5664
G01 X27.6983 Y-33.5676
G01 X27.6828 Y-33.5695
G01 X27.6690 Y-33.5718
G01 X27.6507 Y-33.5759
G01 X27.6372 Y-33.5797
G01 X27.6224 Y-33.5846
G01 X27.6078 Y-33.5902
G01 X27.5935 Y-33.5965
G01 X27.5796 Y-33.6035
G01 X27.5674 Y-33.6104
G01 X27.5516 Y-33.6204
G01 X27.5401 Y-33.6285
G01 X27.5278 Y-33.6381
G01 X27.5160 Y-33.6483
G01 X27.5047 Y-33.6591
G01 X26.9576 Y-34.2062
G01 X25.9586 Y-34.2062
G01 X25.4142 Y-33.6595
G01 X25.4029 Y-33.6487
G01 X25.3911 Y-33.6385
G01 X25.3788 Y-33.6289
G01 X25.3660 Y-33.6199
G01 X25.3529 Y-33.6115
G01 X25.3407 Y-33.6046
G01 X25.3240 Y-33.5961
G01 X25.3111 Y-33.5904
G01 X25.2966 Y-33.5848
G01 X25.2818 Y-33.5799
G01 X25.2667 Y-33.5757
G01 X25.2515 Y-33.5723
G01 X25.2377 Y-33.5698
G01 X25.2191 Y-33.5675
G01 X25.2051 Y-33.5665
G01 X25.1895 Y-33.5661
G01 X25.1739 Y-33.5664
G01 X25.1583 Y-33.5676
G01 X25.1428 Y-33.5695
G01 X25.1290 Y-33.5718
G01 X25.1107 Y-33.5759
G01 X25.0972 Y-33.5797
G01 X25.0824 Y-33.5846
G01 X25.0678 Y-33.5902
G01 X25.0535 Y-33.5965
G01 X25.0396 Y-33.6035
G01 X25.0274 Y-33.6104
G01 X25.0116 Y-33.6204
G01 X25.0001 Y-33.6285
G01 X24.9878 Y-33.6381
G01 X24.9760 Y-33.6483
G01 X24.9647 Y-33.6591
G01 X24.4176 Y-34.2062
G01 X23.4186 Y-34.2062
G01 X22.8742 Y-33.6595
G01 X22.8629 Y-33.6487
G01 X22.8511 Y-33.6385
G01 X22.8388 Y-33.6289
G01 X22.8260 Y-33.6199
G01 X22.8129 Y-33.6115
G01 X22.8007 Y-33.6046
G01 X22.7840 Y-33.5961
G01 X22.7711 Y-33.5904
G01 X22.7566 Y-33.5848
G01 X22.7418 Y-33.5799
G01 X22.7267 Y-33.5757
G01 X22.7115 Y-33.5723
G01 X22.6977 Y-33.5698
G01 X22.6791 Y-33.5675
G01 X22.6651 Y-33.5665
G01 X22.6495 Y-33.5661
G01 X22.6339 Y-33.5664
G01 X22.6183 Y-33.5676
G01 X22.6028 Y-33.5695
G01 X22.5890 Y-33.5718
G01 X22.5707 Y-33.5759
G01 X22.5572 Y-33.5797
G01 X22.5424 Y-33.5846
G01 X22.5278 Y-33.5902
G01 X22.5135 Y-33.5965
G01 X22.4996 Y-33.6035
G01 X22.4874 Y-33.6104
G01 X22.4716 Y-33.6204
G01 X22.4601 Y-33.6285
G01 X22.4478 Y-33.6381
G01 X22.4360 Y-33.6483
G01 X22.4247 Y-33.6591
G01 X21.8776 Y-34.2062
G01 X20.8786 Y-34.2062
G01 X20.3342 Y-33.6595
G01 X20.3229 Y-33.6487
G01 X20.3111 Y-33.6385
G01 X20.2988 Y-33.6289
G01 X20.2860 Y-33.6199
G01 X20.2729 Y-33.6115
G01 X20.2607 Y-33.6046
G01 X20.2440 Y-33.5961
G01 X20.2311 Y-33.5904
G01 X20.2166 Y-33.5848
G01 X20.2018 Y-33.5799
G01 X20.1867 Y-33.5757
G01 X20.1715 Y-33.5723
G01 X20.1577 Y-33.5698
G01 X20.1391 Y-33.5675
G01 X20.1251 Y-33.5665
G01 X20.1095 Y-33.5661
G01 X20.0939 Y-33.5664
G01 X20.0783 Y-33.5676
G01 X20.0628 Y-33.5695
G01 X20.0490 Y-33.5718
G01 X20.0307 Y-33.5759
G01 X20.0172 Y-33.5797
G01 X20.0024 Y-33.5846
G01 X19.9878 Y-33.5902
G01 X19.9735 Y-33.5965
G01 X19.9596 Y-33.6035
G01 X19.9474 Y-33.6104
G01 X19.9316 Y-33.6204
G01 X19.9201 Y-33.6285
G01 X19.9078 Y-33.6381
G01 X19.8960 Y-33.6483
G01 X19.8847 Y-33.6591
G01 X19.3376 Y-34.2062
G01 X18.3386 Y-34.2062
G01 X17.7942 Y-33.6595
G01 X17.7817 Y-33.6477
G01 X17.7711 Y-33.6385
G01 X17.7600 Y-33.6298
G01 X17.7460 Y-33.6199
G01 X17.7329 Y-33.6115
G01 X17.7193 Y-33.6038
G01 X17.7054 Y-33.5968
G01 X17.6911 Y-33.5904
G01 X17.6766 Y-33.5848
G01 X17.6618 Y-33.5799
G01 X17.6467 Y-33.5757
G01 X17.6315 Y-33.5723
G01 X17.6161 Y-33.5696
G01 X17.6007 Y-33.5676
G01 X17.5851 Y-33.5665
G01 X17.5695 Y-33.5661
G01 X17.5539 Y-33.5664
G01 X17.5383 Y-33.5676
G01 X17.5244 Y-33.5693
G01 X17.5059 Y-33.5724
G01 X17.4922 Y-33.5755
G01 X17.4772 Y-33.5797
G01 X17.4624 Y-33.5846
G01 X17.4493 Y-33.5896
G01 X17.4335 Y-33.5965
G01 X17.4196 Y-33.6035
G01 X17.4074 Y-33.6104
G01 X17.3928 Y-33.6195
G01 X17.3788 Y-33.6295
G01 X17.3678 Y-33.6381
G01 X17.3571 Y-33.6473
G01 X17.3447 Y-33.6591
G01 X16.8367 Y-34.1671
G01 X16.8259 Y-34.1784
G01 X16.8167 Y-34.1890
G01 X16.8061 Y-34.2024
G01 X16.7972 Y-34.2152
G01 X16.7896 Y-34.2270
G01 X16.7811 Y-34.2419
G01 X16.7735 Y-34.2573
G01 X16.7678 Y-34.2701
G01 X16.7628 Y-34.2832
G01 X16.7573 Y-34.2994
G01 X16.7528 Y-34.3160
G01 X16.7498 Y-34.3297
G01 X16.7473 Y-34.3435
G01 X16.7452 Y-34.3605
G01 X16.7440 Y-34.3760
G01 X16.7437 Y-34.3916
G01 X16.7437 Y-34.8186
G01 X16.1171 Y-35.4431
G01 X4.8151 Y-35.4431
G01 X3.5535 Y-34.1837
G01 X3.5535 Y-24.3149
G01 X5.8135 Y-22.0548
G01 X6.2408 Y-22.0548
G01 X6.2548 Y-22.0545
G01 X6.2734 Y-22.0531
G01 X6.2874 Y-22.0514
G01 X6.3027 Y-22.0487
G01 X6.3179 Y-22.0453
G01 X6.3315 Y-22.0416
G01 X6.3492 Y-22.0357
G01 X6.3623 Y-22.0307
G01 X6.3751 Y-22.0250
G01 X6.3905 Y-22.0174
G01 X6.4053 Y-22.0089
G01 X6.4172 Y-22.0013
G01 X6.4299 Y-21.9924
G01 X6.4434 Y-21.9818
G01 X6.4540 Y-21.9726
G01 X6.4653 Y-21.9618
G01 X6.4771 Y-21.9494
G01 X6.4862 Y-21.9388
G01 X6.4949 Y-21.9277
G01 X6.5048 Y-21.9137
G01 X6.5139 Y-21.8992
G01 X6.5208 Y-21.8870
G01 X6.5271 Y-21.8745
G01 X6.5347 Y-21.8574
G01 X6.5397 Y-21.8443
G01 X6.5442 Y-21.8310
G01 X6.5488 Y-21.8145
G01 X6.5522 Y-21.7993
G01 X6.5546 Y-21.7854
G01 X6.5568 Y-21.7684
G01 X6.5579 Y-21.7529
G01 X6.5583 Y-21.7373
G01 X6.5583 Y-5.0700
G00 Z1.9990
G00 X6.7457 Y-6.6622
G01 F30.00
G01 Z-0.0600
G01 F30.00
G01 X9.2481 Y-6.6623
G01 X9.2544 Y-6.6620
G01 X9.2635 Y-6.6604
G01 X9.2724 Y-6.6575
G01 X9.2780 Y-6.6548
G01 X9.2859 Y-6.6498
G01 X9.2930 Y-6.6438
G01 X9.2991 Y-6.6367
G01 X9.3025 Y-6.6315
G01 X9.3067 Y-6.6232
G01 X9.3096 Y-6.6143
G01 X9.3112 Y-6.6051
G01 X9.3115 Y-6.5989
G01 X9.3115 Y-5.4000
G01 X9.3112 Y-5.3938
G01 X9.3096 Y-5.3846
G01 X9.3067 Y-5.3758
G01 X9.3041 Y-5.3702
G01 X9.3009 Y-5.3648
G01 X9.2951 Y-5.3575
G01 X9.2884 Y-5.3510
G01 X9.2807 Y-5.3457
G01 X9.2724 Y-5.3415
G01 X9.2635 Y-5.3385
G01 X9.2544 Y-5.3369
G01 X9.2481 Y-5.3366
G01 X6.7488 Y-5.3366
G01 X6.7426 Y-5.3369
G01 X6.7334 Y-5.3385
G01 X6.7274 Y-5.3403
G01 X6.7189 Y-5.3441
G01 X6.7110 Y-5.3491
G01 X6.7039 Y-5.3552
G01 X6.6998 Y-5.3598
G01 X6.6944 Y-5.3674
G01 X6.6915 Y-5.3729
G01 X6.6881 Y-5.3816
G01 X6.6861 Y-5.3907
G01 X6.6855 Y-5.3969
G01 X6.6854 Y-6.5989
G01 X6.6861 Y-6.6082
G01 X6.6873 Y-6.6143
G01 X6.6891 Y-6.6203
G01 X6.6915 Y-6.6260
G01 X6.6944 Y-6.6315
G01 X6.6979 Y-6.6367
G01 X6.7018 Y-6.6415
G01 X6.7062 Y-6.6459
G01 X6.7110 Y-6.6498
G01 X6.7162 Y-6.6533
G01 X6.7217 Y-6.6562
G01 X6.7274 Y-6.6586
G01 X6.7334 Y-6.6604
G01 X6.7395 Y-6.6616
G01 X6.7457 Y-6.6622
G00 Z1.9990
G00 X6.7457 Y-8.1608
G01 F30.00
G01 Z-0.0600
G01 F30.00
G01 X9.2481 Y-8.1609
G01 X9.2574 Y-8.1602
G01 X9.2635 Y-8.1590
G01 X9.2724 Y-8.1561
G01 X9.2780 Y-8.1534
G01 X9.2859 Y-8.1484
G01 X9.2907 Y-8.1445
G01 X9.2971 Y-8.1377
G01 X9.3025 Y-8.1301
G01 X9.3067 Y-8.1218
G01 X9.3096 Y-8.1129
G01 X9.3112 Y-8.1037
G01 X9.3115 Y-8.0975
G01 X9.3115 Y-6.8986
G01 X9.3112 Y-6.8924
G01 X9.3096 Y-6.8832
G01 X9.3067 Y-6.8744
G01 X9.3041 Y-6.8688
G01 X9.2991 Y-6.8609
G01 X9.2930 Y-6.8538
G01 X9.2884 Y-6.8496
G01 X9.2807 Y-6.8443
G01 X9.2724 Y-6.8401
G01 X9.2635 Y-6.8371
G01 X9.2544 Y-6.8355
G01 X9.2481 Y-6.8352
G01 X6.7488 Y-6.8352
G01 X6.7426 Y-6.8355
G01 X6.7334 Y-6.8371
G01 X6.7245 Y-6.8401
G01 X6.7189 Y-6.8427
G01 X6.7110 Y-6.8477
G01 X6.7039 Y-6.8538
G01 X6.6998 Y-6.8584
G01 X6.6944 Y-6.8660
G01 X6.6915 Y-6.8715
G01 X6.6881 Y-6.8802
G01 X6.6861 Y-6.8893
G01 X6.6855 Y-6.8955
G01 X6.6854 Y-8.0975
G01 X6.6861 Y-8.1068
G01 X6.6873 Y-8.1129
G01 X6.6891 Y-8.1189
G01 X6.6915 Y-8.1246
G01 X6.6944 Y-8.1301
G01 X6.6979 Y-8.1353
G01 X6.7018 Y-8.1401
G01 X6.7062 Y-8.1445
G01 X6.7110 Y-8.1484
G01 X6.7162 Y-8.1519
G01 X6.7217 Y-8.1548
G01 X6.7274 Y-8.1572
G01 X6.7334 Y-8.1590
G01 X6.7395 Y-8.1602
G01 X6.7457 Y-8.1608
G00 Z1.9990
G00 X6.7457 Y-9.6620
G01 F30.00
G01 Z-0.0600
G01 F30.00
G01 X9.2481 Y-9.6621
G01 X9.2544 Y-9.6618
G01 X9.2635 Y-9.6602
G01 X9.2695 Y-9.6584
G01 X9.2780 Y-9.6546
G01 X9.2834 Y-9.6514
G01 X9.2907 Y-9.6456
G01 X9.2971 Y-9.6389
G01 X9.3025 Y-9.6313
G01 X9.3067 Y-9.6229
G01 X9.3096 Y-9.6141
G01 X9.3112 Y-9.6049
G01 X9.3115 Y-9.5987
G01 X9.3115 Y-8.3998
G01 X9.3112 Y-8.3936
G01 X9.3096 Y-8.3844
G01 X9.3067 Y-8.3755
G01 X9.3041 Y-8.3699
G01 X9.2991 Y-8.3620
G01 X9.2930 Y-8.3549
G01 X9.2884 Y-8.3508
G01 X9.2807 Y-8.3454
G01 X9.2724 Y-8.3412
G01 X9.2635 Y-8.3383
G01 X9.2544 Y-8.3367
G01 X9.2481 Y-8.3364
G01 X6.7488 Y-8.3364
G01 X6.7426 Y-8.3367
G01 X6.7334 Y-8.3383
G01 X6.7274 Y-8.3401
G01 X6.7189 Y-8.3439
G01 X6.7110 Y-8.3489
G01 X6.7039 Y-8.3549
G01 X6.6979 Y-8.3620
G01 X6.6944 Y-8.3672
G01 X6.6902 Y-8.3755
G01 X6.6881 Y-8.3814
G01 X6.6861 Y-8.3905
G01 X6.6855 Y-8.3967
G01 X6.6854 Y-9.5987
G01 X6.6861 Y-9.6080
G01 X6.6873 Y-9.6141
G01 X6.6891 Y-9.6200
G01 X6.6915 Y-9.6258
G01 X6.6944 Y-9.6313
G01 X6.6979 Y-9.6364
G01 X6.7018 Y-9.6412
G01 X6.7062 Y-9.6456
G01 X6.7110 Y-9.6496
G01 X6.7162 Y-9.6530
G01 X6.7217 Y-9.6560
G01 X6.7274 Y-9.6584
G01 X6.7334 Y-9.6602
G01 X6.7395 Y-9.6614
G01 X6.7457 Y-9.6620
G00 Z1.9990
G00 X6.7457 Y-11.1606
G01 F30.00
G01 Z-0.0600
G01 F30.00
G01 X9.2481 Y-11.1607
G01 X9.2544 Y-11.1604
G01 X9.2635 Y-11.1588
G01 X9.2695 Y-11.1570
G01 X9.2780 Y-11.1532
G01 X9.2834 Y-11.1500
G01 X9.2907 Y-11.1442
G01 X9.2971 Y-11.1375
G01 X9.3025 Y-11.1299
G01 X9.3067 Y-11.1215
G01 X9.3096 Y-11.1127
G01 X9.3112 Y-11.1035
G01 X9.3115 Y-11.0973
G01 X9.3115 Y-9.8984
G01 X9.3112 Y-9.8922
G01 X9.3096 Y-9.8830
G01 X9.3078 Y-9.8770
G01 X9.3041 Y-9.8685
G01 X9.3009 Y-9.8632
G01 X9.2951 Y-9.8558
G01 X9.2884 Y-9.8494
G01 X9.2807 Y-9.8440
G01 X9.2724 Y-9.8398
G01 X9.2635 Y-9.8369
G01 X9.2544 Y-9.8353
G01 X9.2481 Y-9.8350
G01 X6.7488 Y-9.8350
G01 X6.7426 Y-9.8353
G01 X6.7334 Y-9.8369
G01 X6.7245 Y-9.8398
G01 X6.7189 Y-9.8425
G01 X6.7110 Y-9.8475
G01 X6.7039 Y-9.8535
G01 X6.6998 Y-9.8582
G01 X6.6944 Y-9.8658
G01 X6.6902 Y-9.8741
G01 X6.6881 Y-9.8800
G01 X6.6861 Y-9.8891
G01 X6.6855 Y-9.8953
G01 X6.6854 Y-11.0973
G01 X6.6861 Y-11.1066
G01 X6.6873 Y-11.1127
G01 X6.6891 Y-11.1186
G01 X6.6915 Y-11.1244
G01 X6.6944 Y-11.1299
G01 X6.6979 Y-11.1350
G01 X6.7018 Y-11.1398
G01 X6.7062 Y-11.1442
G01 X6.7110 Y-11.1482
G01 X6.7162 Y-11.1516
G01 X6.7217 Y-11.1546
G01 X6.7274 Y-11.1570
G01 X6.7334 Y-11.1588
G01 X6.7395 Y-11.1600
G01 X6.7457 Y-11.1606
G00 Z1.9990
G00 X6.7457 Y-12.6617
G01 F30.00
G01 Z-0.0600
G01 F30.00
G01 X9.2481 Y-12.6618
G01 X9.2574 Y-12.6611
G01 X9.2635 Y-12.6599
G01 X9.2724 Y-12.6570
G01 X9.2780 Y-12.6543
G01 X9.2859 Y-12.6493
G01 X9.2907 Y-12.6454
G01 X9.2971 Y-12.6386
G01 X9.3025 Y-12.6310
G01 X9.3067 Y-12.6227
G01 X9.3096 Y-12.6138
G01 X9.3112 Y-12.6046
G01 X9.3115 Y-12.5984
G01 X9.3115 Y-11.3995
G01 X9.3112 Y-11.3933
G01 X9.3096 Y-11.3841
G01 X9.3078 Y-11.3782
G01 X9.3041 Y-11.3696
G01 X9.2991 Y-11.3618
G01 X9.2951 Y-11.3569
G01 X9.2884 Y-11.3505
G01 X9.2807 Y-11.3451
G01 X9.2724 Y-11.3409
G01 X9.2665 Y-11.3388
G01 X9.2574 Y-11.3368
G01 X9.2481 Y-11.3361
G01 X6.7488 Y-11.3361
G01 X6.7395 Y-11.3368
G01 X6.7334 Y-11.3380
G01 X6.7274 Y-11.3398
G01 X6.7189 Y-11.3436
G01 X6.7136 Y-11.3468
G01 X6.7062 Y-11.3525
G01 X6.6998 Y-11.3593
G01 X6.6944 Y-11.3669
G01 X6.6915 Y-11.3724
G01 X6.6881 Y-11.3811
G01 X6.6861 Y-11.3902
G01 X6.6855 Y-11.3964
G01 X6.6854 Y-12.5984
G01 X6.6861 Y-12.6077
G01 X6.6873 Y-12.6138
G01 X6.6891 Y-12.6198
G01 X6.6915 Y-12.6255
G01 X6.6944 Y-12.6310
G01 X6.6979 Y-12.6362
G01 X6.7018 Y-12.6410
G01 X6.7062 Y-12.6454
G01 X6.7110 Y-12.6493
G01 X6.7162 Y-12.6528
G01 X6.7217 Y-12.6557
G01 X6.7274 Y-12.6581
G01 X6.7334 Y-12.6599
G01 X6.7395 Y-12.6611
G01 X6.7457 Y-12.6617
G00 Z1.9990
G00 X6.7457 Y-14.1603
G01 F30.00
G01 Z-0.0600
G01 F30.00
G01 X9.2481 Y-14.1604
G01 X9.2544 Y-14.1601
G01 X9.2635 Y-14.1585
G01 X9.2695 Y-14.1567
G01 X9.2780 Y-14.1529
G01 X9.2859 Y-14.1479
G01 X9.2930 Y-14.1418
G01 X9.2991 Y-14.1348
G01 X9.3025 Y-14.1296
G01 X9.3067 Y-14.1213
G01 X9.3096 Y-14.1124
G01 X9.3112 Y-14.1032
G01 X9.3115 Y-14.0970
G01 X9.3115 Y-12.8981
G01 X9.3112 Y-12.8919
G01 X9.3096 Y-12.8827
G01 X9.3078 Y-12.8768
G01 X9.3041 Y-12.8682
G01 X9.2991 Y-12.8604
G01 X9.2930 Y-12.8533
G01 X9.2884 Y-12.8491
G01 X9.2807 Y-12.8437
G01 X9.2752 Y-12.8408
G01 X9.2665 Y-12.8374
G01 X9.2574 Y-12.8354
G01 X9.2481 Y-12.8347
G01 X6.7488 Y-12.8347
G01 X6.7395 Y-12.8354
G01 X6.7334 Y-12.8366
G01 X6.7274 Y-12.8384
G01 X6.7189 Y-12.8422
G01 X6.7110 Y-12.8472
G01 X6.7039 Y-12.8533
G01 X6.6979 Y-12.8604
G01 X6.6944 Y-12.8655
G01 X6.6902 Y-12.8739
G01 X6.6881 Y-12.8797
G01 X6.6861 Y-12.8888
G01 X6.6855 Y-12.8950
G01 X6.6854 Y-14.0970
G01 X6.6861 Y-14.1063
G01 X6.6873 Y-14.1124
G01 X6.6891 Y-14.1184
G01 X6.6915 Y-14.1241
G01 X6.6944 Y-14.1296
G01 X6.6979 Y-14.1348
G01 X6.7018 Y-14.1396
G01 X6.7062 Y-14.1440
G01 X6.7110 Y-14.1479
G01 X6.7162 Y-14.1514
G01 X6.7217 Y-14.1543
G01 X6.7274 Y-14.1567
G01 X6.7334 Y-14.1585
G01 X6.7395 Y-14.1597
G01 X6.7457 Y-14.1603
G00 Z1.9990
G00 X6.7457 Y-15.6615
G01 F30.00
G01 Z-0.0600
G01 F30.00
G01 X9.2481 Y-15.6615
G01 X9.2544 Y-15.6612
G01 X9.2635 Y-15.6596
G01 X9.2695 Y-15.6578
G01 X9.2780 Y-15.6541
G01 X9.2859 Y-15.6491
G01 X9.2930 Y-15.6430
G01 X9.2991 Y-15.6359
G01 X9.3025 Y-15.6307
G01 X9.3067 Y-15.6224
G01 X9.3096 Y-15.6135
G01 X9.3112 Y-15.6044
G01 X9.3115 Y-15.5981
G01 X9.3115 Y-14.3993
G01 X9.3112 Y-14.3930
G01 X9.3096 Y-14.3839
G01 X9.3078 Y-14.3779
G01 X9.3041 Y-14.3694
G01 X9.2991 Y-14.3615
G01 X9.2930 Y-14.3544
G01 X9.2884 Y-14.3503
G01 X9.2807 Y-14.3449
G01 X9.2752 Y-14.3419
G01 X9.2665 Y-14.3386
G01 X9.2574 Y-14.3365
G01 X9.2481 Y-14.3359
G01 X6.7488 Y-14.3359
G01 X6.7395 Y-14.3365
G01 X6.7334 Y-14.3378
G01 X6.7274 Y-14.3396
G01 X6.7189 Y-14.3433
G01 X6.7110 Y-14.3483
G01 X6.7039 Y-14.3544
G01 X6.6979 Y-14.3615
G01 X6.6944 Y-14.3667
G01 X6.6902 Y-14.3750
G01 X6.6881 Y-14.3809
G01 X6.6861 Y-14.3900
G01 X6.6855 Y-14.3961
G01 X6.6854 Y-15.5981
G01 X6.6861 Y-15.6074
G01 X6.6873 Y-15.6135
G01 X6.6891 Y-15.6195
G01 X6.6915 Y-15.6252
G01 X6.6944 Y-15.6307
G01 X6.6979 Y-15.6359
G01 X6.7018 Y-15.6407
G01 X6.7062 Y-15.6451
G01 X6.7110 Y-15.6491
G01 X6.7162 Y-15.6525
G01 X6.7217 Y-15.6555
G01 X6.7274 Y-15.6578
G01 X6.7334 Y-15.6596
G01 X6.7395 Y-15.6609
G01 X6.7457 Y-15.6615
G00 Z1.9990
G00 X6.7457 Y-17.1626
G01 F30.00
G01 Z-0.0600
G01 F30.00
G01 X9.2481 Y-17.1627
G01 X9.2544 Y-17.1624
G01 X9.2635 Y-17.1608
G01 X9.2724 Y-17.1579
G01 X9.2780 Y-17.1552
G01 X9.2834 Y-17.1520
G01 X9.2907 Y-17.1463
G01 X9.2971 Y-17.1395
G01 X9.3025 Y-17.1319
G01 X9.3067 Y-17.1235
G01 X9.3096 Y-17.1147
G01 X9.3112 Y-17.1055
G01 X9.3115 Y-17.0993
G01 X9.3115 Y-15.9004
G01 X9.3112 Y-15.8942
G01 X9.3096 Y-15.8850
G01 X9.3078 Y-15.8790
G01 X9.3041 Y-15.8705
G01 X9.2991 Y-15.8626
G01 X9.2951 Y-15.8578
G01 X9.2884 Y-15.8514
G01 X9.2807 Y-15.8460
G01 X9.2724 Y-15.8418
G01 X9.2635 Y-15.8389
G01 X9.2544 Y-15.8373
G01 X9.2481 Y-15.8370
G01 X6.7488 Y-15.8370
G01 X6.7426 Y-15.8373
G01 X6.7334 Y-15.8389
G01 X6.7245 Y-15.8418
G01 X6.7189 Y-15.8445
G01 X6.7110 Y-15.8495
G01 X6.7039 Y-15.8556
G01 X6.6979 Y-15.8626
G01 X6.6944 Y-15.8678
G01 X6.6915 Y-15.8733
G01 X6.6881 Y-15.8820
G01 X6.6861 Y-15.8911
G01 X6.6855 Y-15.8973
G01 X6.6854 Y-17.0993
G01 X6.6861 Y-17.1086
G01 X6.6873 Y-17.1147
G01 X6.6891 Y-17.1206
G01 X6.6915 Y-17.1264
G01 X6.6944 Y-17.1319
G01 X6.6979 Y-17.1370
G01 X6.7018 Y-17.1419
G01 X6.7062 Y-17.1463
G01 X6.7110 Y-17.1502
G01 X6.7162 Y-17.1537
G01 X6.7217 Y-17.1566
G01 X6.7274 Y-17.1590
G01 X6.7334 Y-17.1608
G01 X6.7395 Y-17.1620
G01 X6.7457 Y-17.1626
G00 Z1.9990
G00 X6.7457 Y-18.6612
G01 F30.00
G01 Z-0.0600
G01 F30.00
G01 X9.2481 Y-18.6613
G01 X9.2574 Y-18.6606
G01 X9.2635 Y-18.6594
G01 X9.2695 Y-18.6576
G01 X9.2780 Y-18.6538
G01 X9.2859 Y-18.6488
G01 X9.2907 Y-18.6449
G01 X9.2971 Y-18.6381
G01 X9.3025 Y-18.6305
G01 X9.3067 Y-18.6221
G01 X9.3096 Y-18.6133
G01 X9.3112 Y-18.6041
G01 X9.3115 Y-18.5979
G01 X9.3115 Y-17.3990
G01 X9.3112 Y-17.3928
G01 X9.3096 Y-17.3836
G01 X9.3078 Y-17.3776
G01 X9.3041 Y-17.3691
G01 X9.2991 Y-17.3612
G01 X9.2951 Y-17.3564
G01 X9.2884 Y-17.3500
G01 X9.2807 Y-17.3446
G01 X9.2724 Y-17.3404
G01 X9.2635 Y-17.3375
G01 X9.2544 Y-17.3359
G01 X9.2481 Y-17.3356
G01 X6.7488 Y-17.3356
G01 X6.7426 Y-17.3359
G01 X6.7334 Y-17.3375
G01 X6.7274 Y-17.3393
G01 X6.7189 Y-17.3431
G01 X6.7136 Y-17.3463
G01 X6.7062 Y-17.3520
G01 X6.6998 Y-17.3588
G01 X6.6944 Y-17.3664
G01 X6.6902 Y-17.3747
G01 X6.6881 Y-17.3806
G01 X6.6861 Y-17.3897
G01 X6.6855 Y-17.3959
G01 X6.6854 Y-18.5979
G01 X6.6861 Y-18.6072
G01 X6.6873 Y-18.6133
G01 X6.6891 Y-18.6192
G01 X6.6915 Y-18.6250
G01 X6.6944 Y-18.6305
G01 X6.6979 Y-18.6356
G01 X6.7018 Y-18.6405
G01 X6.7062 Y-18.6449
G01 X6.7110 Y-18.6488
G01 X6.7162 Y-18.6523
G01 X6.7217 Y-18.6552
G01 X6.7274 Y-18.6576
G01 X6.7334 Y-18.6594
G01 X6.7395 Y-18.6606
G01 X6.7457 Y-18.6612
G00 Z1.9990
G00 X6.7457 Y-20.1623
G01 F30.00
G01 Z-0.0600
G01 F30.00
G01 X9.2481 Y-20.1624
G01 X9.2544 Y-20.1621
G01 X9.2635 Y-20.1605
G01 X9.2724 Y-20.1576
G01 X9.2780 Y-20.1549
G01 X9.2834 Y-20.1517
G01 X9.2907 Y-20.1460
G01 X9.2971 Y-20.1392
G01 X9.3025 Y-20.1316
G01 X9.3067 Y-20.1233
G01 X9.3096 Y-20.1144
G01 X9.3112 Y-20.1052
G01 X9.3115 Y-20.0990
G01 X9.3115 Y-18.9001
G01 X9.3112 Y-18.8939
G01 X9.3096 Y-18.8847
G01 X9.3078 Y-18.8788
G01 X9.3041 Y-18.8703
G01 X9.2991 Y-18.8624
G01 X9.2951 Y-18.8576
G01 X9.2884 Y-18.8511
G01 X9.2807 Y-18.8458
G01 X9.2724 Y-18.8416
G01 X9.2635 Y-18.8386
G01 X9.2544 Y-18.8370
G01 X9.2481 Y-18.8367
G01 X6.7488 Y-18.8367
G01 X6.7426 Y-18.8370
G01 X6.7334 Y-18.8386
G01 X6.7274 Y-18.8404
G01 X6.7189 Y-18.8442
G01 X6.7136 Y-18.8474
G01 X6.7062 Y-18.8532
G01 X6.6998 Y-18.8599
G01 X6.6944 Y-18.8675
G01 X6.6902 Y-18.8759
G01 X6.6881 Y-18.8817
G01 X6.6861 Y-18.8908
G01 X6.6855 Y-18.8970
G01 X6.6854 Y-20.0990
G01 X6.6861 Y-20.1083
G01 X6.6873 Y-20.1144
G01 X6.6891 Y-20.1204
G01 X6.6915 Y-20.1261
G01 X6.6944 Y-20.1316
G01 X6.6979 Y-20.1368
G01 X6.7018 Y-20.1416
G01 X6.7062 Y-20.1460
G01 X6.7110 Y-20.1499
G01 X6.7162 Y-20.1534
G01 X6.7217 Y-20.1563
G01 X6.7274 Y-20.1587
G01 X6.7334 Y-20.1605
G01 X6.7395 Y-20.1617
G01 X6.7457 Y-20.1623
G00 Z1.9990
G00 X6.7457 Y-21.6609
G01 F30.00
G01 Z-0.0600
G01 F30.00
G01 X9.2481 Y-21.6610
G01 X9.2544 Y-21.6607
G01 X9.2635 Y-21.6591
G01 X9.2724 Y-21.6562
G01 X9.2780 Y-21.6535
G01 X9.2834 Y-21.6503
G01 X9.2907 Y-21.6446
G01 X9.2971 Y-21.6378
G01 X9.3025 Y-21.6302
G01 X9.3067 Y-21.6219
G01 X9.3096 Y-21.6130
G01 X9.3112 Y-21.6038
G01 X9.3115 Y-21.5976
G01 X9.3115 Y-20.3987
G01 X9.3112 Y-20.3925
G01 X9.3096 Y-20.3833
G01 X9.3078 Y-20.3774
G01 X9.3041 Y-20.3689
G01 X9.2991 Y-20.3610
G01 X9.2951 Y-20.3562
G01 X9.2884 Y-20.3497
G01 X9.2807 Y-20.3444
G01 X9.2724 Y-20.3402
G01 X9.2635 Y-20.3372
G01 X9.2544 Y-20.3356
G01 X9.2481 Y-20.3353
G01 X6.7488 Y-20.3353
G01 X6.7426 Y-20.3356
G01 X6.7334 Y-20.3372
G01 X6.7274 Y-20.3390
G01 X6.7189 Y-20.3428
G01 X6.7136 Y-20.3460
G01 X6.7062 Y-20.3518
G01 X6.6998 Y-20.3585
G01 X6.6944 Y-20.3661
G01 X6.6902 Y-20.3745
G01 X6.6881 Y-20.3803
G01 X6.6861 Y-20.3894
G01 X6.6855 Y-20.3956
G01 X6.6854 Y-21.5976
G01 X6.6861 Y-21.6069
G01 X6.6873 Y-21.6130
G01 X6.6891 Y-21.6190
G01 X6.6915 Y-21.6247
G01 X6.6944 Y-21.6302
G01 X6.6979 Y-21.6354
G01 X6.7018 Y-21.6402
G01 X6.7062 Y-21.6446
G01 X6.7110 Y-21.6485
G01 X6.7162 Y-21.6520
G01 X6.7217 Y-21.6549
G01 X6.7274 Y-21.6573
G01 X6.7334 Y-21.6591
G01 X6.7395 Y-21.6603
G01 X6.7457 Y-21.6609
G00 Z1.9990
G00 X6.5179 Y-22.0679
G01 F30.00
G01 Z-0.0600
G01 F30.00
G01 X6.5305 Y-22.0570
G01 X6.5458 Y-22.0424
G01 X6.5604 Y-22.0270
G01 X6.5715 Y-22.0142
G01 X6.5715 Y-22.0679
G01 X6.5179 Y-22.0679
G00 Z1.9990
G00 X6.1309 Y-22.8168
G01 F30.00
G01 Z-0.0600
G01 F30.00
G01 X6.6854 Y-22.8168
G01 X6.6854 Y-23.0988
G01 X6.6861 Y-23.1081
G01 X6.6881 Y-23.1172
G01 X6.6902 Y-23.1230
G01 X6.6929 Y-23.1286
G01 X6.6979 Y-23.1365
G01 X6.7018 Y-23.1413
G01 X6.7062 Y-23.1457
G01 X6.7136 Y-23.1515
G01 X6.7217 Y-23.1561
G01 X6.7304 Y-23.1594
G01 X6.7364 Y-23.1609
G01 X6.7426 Y-23.1619
G01 X6.7488 Y-23.1622
G01 X9.2481 Y-23.1622
G01 X9.2574 Y-23.1615
G01 X9.2665 Y-23.1594
G01 X9.2752 Y-23.1561
G01 X9.2834 Y-23.1515
G01 X9.2907 Y-23.1457
G01 X9.2951 Y-23.1413
G01 X9.2991 Y-23.1365
G01 X9.3041 Y-23.1286
G01 X9.3078 Y-23.1201
G01 X9.3103 Y-23.1111
G01 X9.3115 Y-23.1019
G01 X9.3115 Y-21.8999
G01 X9.3109 Y-21.8906
G01 X9.3088 Y-21.8815
G01 X9.3055 Y-21.8728
G01 X9.3025 Y-21.8673
G01 X9.2991 Y-21.8621
G01 X9.2930 Y-21.8550
G01 X9.2859 Y-21.8490
G01 X9.2807 Y-21.8455
G01 X9.2752 Y-21.8426
G01 X9.2665 Y-21.8392
G01 X9.2574 Y-21.8372
G01 X9.2481 Y-21.8365
G01 X6.7488 Y-21.8365
G01 X6.7426 Y-21.8368
G01 X6.7364 Y-21.8377
G01 X6.7304 Y-21.8392
G01 X6.7217 Y-21.8426
G01 X6.7136 Y-21.8472
G01 X6.7062 Y-21.8529
G01 X6.7018 Y-21.8573
G01 X6.6979 Y-21.8621
G01 X6.6929 Y-21.8700
G01 X6.6902 Y-21.8756
G01 X6.6881 Y-21.8815
G01 X6.6861 Y-21.8906
G01 X6.6854 Y-21.8999
G01 X6.6854 Y-22.1818
G01 X5.9995 Y-22.1818
G01 X5.9855 Y-22.1821
G01 X5.9684 Y-22.1833
G01 X5.9529 Y-22.1852
G01 X5.9376 Y-22.1879
G01 X5.9224 Y-22.1913
G01 X5.9074 Y-22.1954
G01 X5.8926 Y-22.2003
G01 X5.8781 Y-22.2059
G01 X5.8652 Y-22.2116
G01 X5.8499 Y-22.2192
G01 X5.8377 Y-22.2261
G01 X5.8219 Y-22.2361
G01 X5.8105 Y-22.2442
G01 X5.7982 Y-22.2538
G01 X5.7864 Y-22.2639
G01 X5.7757 Y-22.2741
G01 X3.7736 Y-24.2736
G01 X3.7628 Y-24.2849
G01 X3.7526 Y-24.2967
G01 X3.7430 Y-24.3090
G01 X3.7349 Y-24.3205
G01 X3.7249 Y-24.3363
G01 X3.7180 Y-24.3485
G01 X3.7103 Y-24.3639
G01 X3.7046 Y-24.3767
G01 X3.6985 Y-24.3927
G01 X3.6941 Y-24.4061
G01 X3.6904 Y-24.4196
G01 X3.6869 Y-24.4348
G01 X3.6839 Y-24.4517
G01 X3.6820 Y-24.4672
G01 X3.6808 Y-24.4827
G01 X3.6804 Y-24.4983
G01 X3.6804 Y-33.9979
G01 X3.6808 Y-34.0135
G01 X3.6818 Y-34.0275
G01 X3.6841 Y-34.0460
G01 X3.6865 Y-34.0598
G01 X3.6899 Y-34.0751
G01 X3.6941 Y-34.0901
G01 X3.6990 Y-34.1049
G01 X3.7046 Y-34.1194
G01 X3.7103 Y-34.1322
G01 X3.7187 Y-34.1489
G01 X3.7256 Y-34.1611
G01 X3.7339 Y-34.1743
G01 X3.7429 Y-34.1871
G01 X3.7525 Y-34.1993
G01 X3.7627 Y-34.2111
G01 X3.7734 Y-34.2224
G01 X4.7742 Y-35.2232
G01 X4.7855 Y-35.2339
G01 X4.7973 Y-35.2441
G01 X4.8083 Y-35.2528
G01 X4.8236 Y-35.2635
G01 X4.8355 Y-35.2710
G01 X4.8490 Y-35.2787
G01 X4.8630 Y-35.2857
G01 X4.8758 Y-35.2914
G01 X4.8932 Y-35.2981
G01 X4.9065 Y-35.3025
G01 X4.9216 Y-35.3067
G01 X4.9368 Y-35.3101
G01 X4.9506 Y-35.3125
G01 X4.9691 Y-35.3148
G01 X4.9831 Y-35.3158
G01 X4.9987 Y-35.3162
G01 X15.9342 Y-35.3162
G01 X15.9490 Y-35.3158
G01 X15.9645 Y-35.3147
G01 X15.9800 Y-35.3128
G01 X15.9938 Y-35.3104
G01 X16.0121 Y-35.3063
G01 X16.0256 Y-35.3025
G01 X16.0404 Y-35.2976
G01 X16.0549 Y-35.2920
G01 X16.0692 Y-35.2857
G01 X16.0831 Y-35.2787
G01 X16.0953 Y-35.2718
G01 X16.1111 Y-35.2618
G01 X16.1226 Y-35.2537
G01 X16.1349 Y-35.2441
G01 X16.1467 Y-35.2339
G01 X16.1579 Y-35.2232
G01 X16.5237 Y-34.8574
G01 X16.5334 Y-34.8473
G01 X16.5446 Y-34.8343
G01 X16.5533 Y-34.8233
G01 X16.5640 Y-34.8080
G01 X16.5715 Y-34.7961
G01 X16.5792 Y-34.7826
G01 X16.5862 Y-34.7687
G01 X16.5931 Y-34.7530
G01 X16.5981 Y-34.7399
G01 X16.6030 Y-34.7251
G01 X16.6072 Y-34.7101
G01 X16.6103 Y-34.6964
G01 X16.6135 Y-34.6779
G01 X16.6152 Y-34.6640
G01 X16.6164 Y-34.6469
G01 X16.6167 Y-34.6329
G01 X16.6167 Y-34.0312
G01 X16.6628 Y-34.0160
G01 X16.7108 Y-33.9975
G01 X16.7607 Y-33.9754
G01 X16.8080 Y-33.9516
G01 X16.8528 Y-33.9263
G01 X16.8989 Y-33.8972
G01 X16.9434 Y-33.8657
G01 X16.9839 Y-33.8341
G01 X17.0241 Y-33.7995
G01 X17.0635 Y-33.7618
G01 X17.0990 Y-33.7246
G01 X17.1336 Y-33.6844
G01 X17.1662 Y-33.6427
G01 X17.1958 Y-33.6006
G01 X17.2250 Y-33.5546
G01 X17.2511 Y-33.5085
G01 X17.2743 Y-33.4626
G01 X17.2964 Y-33.4127
G01 X17.3155 Y-33.3633
G01 X17.3316 Y-33.3145
G01 X17.3462 Y-33.2620
G01 X17.3578 Y-33.2103
G01 X17.3666 Y-33.1596
G01 X17.3735 Y-33.1039
G01 X17.3773 Y-33.0526
G01 X17.3786 Y-32.9989
G01 X17.3773 Y-32.9467
G01 X17.3734 Y-32.8939
G01 X17.3669 Y-32.8413
G01 X17.3578 Y-32.7891
G01 X17.3462 Y-32.7374
G01 X17.3321 Y-32.6863
G01 X17.3155 Y-32.6360
G01 X17.2964 Y-32.5866
G01 X17.2749 Y-32.5382
G01 X17.2511 Y-32.4909
G01 X17.2250 Y-32.4448
G01 X17.1967 Y-32.4000
G01 X17.1662 Y-32.3567
G01 X17.1336 Y-32.3149
G01 X17.0990 Y-32.2748
G01 X17.0624 Y-32.2364
G01 X17.0241 Y-32.1999
G01 X16.9839 Y-32.1653
G01 X16.9422 Y-32.1327
G01 X16.8989 Y-32.1022
G01 X16.8541 Y-32.0738
G01 X16.8080 Y-32.0477
G01 X16.7607 Y-32.0239
G01 X16.7122 Y-32.0024
G01 X16.6628 Y-31.9834
G01 X16.6125 Y-31.9668
G01 X16.5615 Y-31.9526
G01 X16.5098 Y-31.9410
G01 X16.4576 Y-31.9320
G01 X16.4065 Y-31.9256
G01 X16.3521 Y-31.9216
G01 X16.2992 Y-31.9203
G01 X16.2462 Y-31.9216
G01 X16.1949 Y-31.9253
G01 X16.1393 Y-31.9322
G01 X16.0886 Y-31.9410
G01 X16.0354 Y-31.9530
G01 X15.9858 Y-31.9668
G01 X15.9355 Y-31.9834
G01 X15.8861 Y-32.0024
G01 X15.8377 Y-32.0239
G01 X15.7904 Y-32.0477
G01 X15.7443 Y-32.0738
G01 X15.6995 Y-32.1022
G01 X15.6562 Y-32.1327
G01 X15.6144 Y-32.1653
G01 X15.5743 Y-32.1999
G01 X15.5359 Y-32.2364
G01 X15.5005 Y-32.2737
G01 X15.4648 Y-32.3149
G01 X15.4331 Y-32.3554
G01 X15.4008 Y-32.4013
G01 X15.3733 Y-32.4448
G01 X15.3472 Y-32.4909
G01 X15.3234 Y-32.5382
G01 X15.3019 Y-32.5866
G01 X15.2829 Y-32.6360
G01 X15.2663 Y-32.6863
G01 X15.2521 Y-32.7374
G01 X15.2408 Y-32.7876
G01 X15.2313 Y-32.8428
G01 X15.2250 Y-32.8939
G01 X15.2210 Y-32.9483
G01 X15.2198 Y-32.9997
G01 X15.2211 Y-33.0526
G01 X15.2250 Y-33.1055
G01 X15.2317 Y-33.1596
G01 X15.2405 Y-33.2103
G01 X15.2521 Y-33.2620
G01 X15.2663 Y-33.3130
G01 X15.2829 Y-33.3633
G01 X15.3019 Y-33.4127
G01 X15.3234 Y-33.4612
G01 X15.3472 Y-33.5085
G01 X15.3733 Y-33.5546
G01 X15.4017 Y-33.5994
G01 X15.4322 Y-33.6427
G01 X15.4648 Y-33.6844
G01 X15.4984 Y-33.7234
G01 X15.5359 Y-33.7629
G01 X15.5732 Y-33.7984
G01 X15.6156 Y-33.8350
G01 X15.6562 Y-33.8667
G01 X15.6995 Y-33.8972
G01 X15.7443 Y-33.9255
G01 X15.7904 Y-33.9516
G01 X15.8377 Y-33.9754
G01 X15.8861 Y-33.9969
G01 X15.9355 Y-34.0160
G01 X15.9817 Y-34.0312
G01 X15.9817 Y-34.5014
G01 X15.8019 Y-34.6811
G01 X5.1302 Y-34.6811
G01 X4.3155 Y-33.8664
G01 X4.3155 Y-24.6299
G01 X6.1309 Y-22.8168
G00 Z1.9990
G00 X6.5715 Y-23.0581
G01 F30.00
G01 Z-0.0600
G01 F30.00
G01 X6.5605 Y-23.0454
G01 X6.5489 Y-23.0331
G01 X6.5338 Y-23.0184
G01 X6.5146 Y-23.0016
G01 X6.4944 Y-22.9860
G01 X6.4806 Y-22.9764
G01 X6.4664 Y-22.9673
G01 X6.4443 Y-22.9546
G01 X6.4214 Y-22.9433
G01 X6.4060 Y-22.9365
G01 X6.3912 Y-22.9307
G01 X6.5715 Y-22.9307
G01 X6.5715 Y-23.0581
G00 Z1.9990
G00 X4.5770 Y-16.5778
G01 F30.00
G01 Z-0.0600
G01 F30.00
G01 X4.5757 Y-16.5256
G01 X4.5718 Y-16.4728
G01 X4.5653 Y-16.4202
G01 X4.5562 Y-16.3680
G01 X4.5446 Y-16.3163
G01 X4.5305 Y-16.2652
G01 X4.5139 Y-16.2149
G01 X4.4948 Y-16.1655
G01 X4.4733 Y-16.1171
G01 X4.4495 Y-16.0698
G01 X4.4234 Y-16.0237
G01 X4.3951 Y-15.9789
G01 X4.3646 Y-15.9356
G01 X4.3320 Y-15.8938
G01 X4.2974 Y-15.8537
G01 X4.2608 Y-15.8153
G01 X4.2225 Y-15.7788
G01 X4.1823 Y-15.7442
G01 X4.1406 Y-15.7116
G01 X4.0973 Y-15.6811
G01 X4.0525 Y-15.6527
G01 X4.0064 Y-15.6266
G01 X3.9591 Y-15.6028
G01 X3.9106 Y-15.5813
G01 X3.8612 Y-15.5623
G01 X3.8109 Y-15.5457
G01 X3.7599 Y-15.5315
G01 X3.7082 Y-15.5199
G01 X3.6560 Y-15.5109
G01 X3.6034 Y-15.5044
G01 X3.5505 Y-15.5005
G01 X3.4976 Y-15.4992
G01 X3.4446 Y-15.5005
G01 X3.3918 Y-15.5044
G01 X3.3392 Y-15.5109
G01 X3.2870 Y-15.5199
G01 X3.2353 Y-15.5315
G01 X3.1842 Y-15.5457
G01 X3.1339 Y-15.5623
G01 X3.0845 Y-15.5813
G01 X3.0361 Y-15.6028
G01 X2.9888 Y-15.6266
G01 X2.9427 Y-15.6527
G01 X2.8979 Y-15.6811
G01 X2.8546 Y-15.7116
G01 X2.8128 Y-15.7442
G01 X2.7727 Y-15.7788
G01 X2.7343 Y-15.8153
G01 X2.6978 Y-15.8537
G01 X2.6632 Y-15.8938
G01 X2.6306 Y-15.9356
G01 X2.6001 Y-15.9789
G01 X2.5717 Y-16.0237
G01 X2.5456 Y-16.0698
G01 X2.5218 Y-16.1171
G01 X2.5003 Y-16.1655
G01 X2.4813 Y-16.2149
G01 X2.4647 Y-16.2652
G01 X2.4505 Y-16.3163
G01 X2.4389 Y-16.3680
G01 X2.4299 Y-16.4202
G01 X2.4234 Y-16.4728
G01 X2.4195 Y-16.5256
G01 X2.4182 Y-16.5786
G01 X2.4195 Y-16.6315
G01 X2.4234 Y-16.6844
G01 X2.4299 Y-16.7370
G01 X2.4389 Y-16.7892
G01 X2.4505 Y-16.8409
G01 X2.4647 Y-16.8919
G01 X2.4813 Y-16.9422
G01 X2.5003 Y-16.9916
G01 X2.5218 Y-17.0401
G01 X2.5456 Y-17.0874
G01 X2.5717 Y-17.1335
G01 X2.6001 Y-17.1783
G01 X2.6306 Y-17.2216
G01 X2.6632 Y-17.2633
G01 X2.6978 Y-17.3035
G01 X2.7343 Y-17.3418
G01 X2.7727 Y-17.3784
G01 X2.8128 Y-17.4130
G01 X2.8546 Y-17.4456
G01 X2.8979 Y-17.4761
G01 X2.9427 Y-17.5044
G01 X2.9888 Y-17.5305
G01 X3.0361 Y-17.5543
G01 X3.0845 Y-17.5758
G01 X3.1339 Y-17.5949
G01 X3.1842 Y-17.6115
G01 X3.2353 Y-17.6256
G01 X3.2870 Y-17.6372
G01 X3.3392 Y-17.6463
G01 X3.3918 Y-17.6528
G01 X3.4446 Y-17.6567
G01 X3.4976 Y-17.6580
G01 X3.5505 Y-17.6567
G01 X3.6034 Y-17.6528
G01 X3.6560 Y-17.6463
G01 X3.7082 Y-17.6372
G01 X3.7599 Y-17.6256
G01 X3.8109 Y-17.6115
G01 X3.8612 Y-17.5949
G01 X3.9106 Y-17.5758
G01 X3.9591 Y-17.5543
G01 X4.0064 Y-17.5305
G01 X4.0525 Y-17.5044
G01 X4.0973 Y-17.4761
G01 X4.1406 Y-17.4456
G01 X4.1823 Y-17.4130
G01 X4.2225 Y-17.3784
G01 X4.2608 Y-17.3418
G01 X4.2974 Y-17.3035
G01 X4.3320 Y-17.2633
G01 X4.3646 Y-17.2216
G01 X4.3951 Y-17.1783
G01 X4.4234 Y-17.1335
G01 X4.4495 Y-17.0874
G01 X4.4733 Y-17.0401
G01 X4.4948 Y-16.9916
G01 X4.5139 Y-16.9422
G01 X4.5305 Y-16.8919
G01 X4.5446 Y-16.8409
G01 X4.5562 Y-16.7892
G01 X4.5653 Y-16.7370
G01 X4.5718 Y-16.6844
G01 X4.5757 Y-16.6315
G01 X4.5770 Y-16.5778
G00 Z1.9990
G00 X3.8389 Y-15.3171
G01 F30.00
G01 Z-0.0600
G01 F30.00
G01 X3.8152 Y-15.3106
G01 X3.8065 Y-15.3086
G01 X3.8389 Y-15.3001
G01 X3.8389 Y-15.3171
G00 Z1.9990
G00 X3.1588 Y-15.3008
G01 F30.00
G01 Z-0.0600
G01 F30.00
G01 X3.1800 Y-15.3065
G01 X3.1887 Y-15.3086
G01 X3.1588 Y-15.3164
G01 X3.1588 Y-15.3008
G00 Z1.9990
G00 X3.0039 Y-15.1246
G01 F30.00
G01 Z-0.0600
G01 F30.00
G01 X3.0409 Y-15.1410
G01 X3.0915 Y-15.1606
G01 X3.1470 Y-15.1792
G01 X3.2076 Y-15.1961
G01 X3.2605 Y-15.2080
G01 X3.3225 Y-15.2189
G01 X3.3806 Y-15.2261
G01 X3.4390 Y-15.2304
G01 X3.4976 Y-15.2318
G01 X3.5561 Y-15.2304
G01 X3.6145 Y-15.2261
G01 X3.6727 Y-15.2189
G01 X3.7346 Y-15.2080
G01 X3.7875 Y-15.1961
G01 X3.8481 Y-15.1792
G01 X3.9037 Y-15.1606
G01 X3.9542 Y-15.1410
G01 X3.9945 Y-15.1232
G01 X3.9856 Y-15.1433
G01 X3.9779 Y-15.1630
G01 X3.9713 Y-15.1831
G01 X3.9646 Y-15.2077
G01 X3.9602 Y-15.2284
G01 X3.9574 Y-15.2449
G01 X3.9552 Y-15.2616
G01 X3.9532 Y-15.2870
G01 X3.9526 Y-15.3082
G01 X3.9531 Y-15.3293
G01 X3.9552 Y-15.3547
G01 X3.9572 Y-15.3714
G01 X3.9600 Y-15.3879
G01 X3.9644 Y-15.4086
G01 X3.9711 Y-15.4332
G01 X3.9777 Y-15.4533
G01 X3.9852 Y-15.4731
G01 X3.9945 Y-15.4940
G01 X3.9542 Y-15.4761
G01 X3.9037 Y-15.4566
G01 X3.8481 Y-15.4380
G01 X3.7875 Y-15.4211
G01 X3.7346 Y-15.4091
G01 X3.6727 Y-15.3982
G01 X3.6145 Y-15.3911
G01 X3.5561 Y-15.3868
G01 X3.4976 Y-15.3853
G01 X3.4390 Y-15.3868
G01 X3.3806 Y-15.3911
G01 X3.3225 Y-15.3982
G01 X3.2605 Y-15.4091
G01 X3.2076 Y-15.4211
G01 X3.1470 Y-15.4380
G01 X3.0915 Y-15.4566
G01 X3.0409 Y-15.4761
G01 X3.0039 Y-15.4925
G01 X3.0123 Y-15.4735
G01 X3.0213 Y-15.4496
G01 X3.0278 Y-15.4294
G01 X3.0322 Y-15.4131
G01 X3.0359 Y-15.3967
G01 X3.0404 Y-15.3715
G01 X3.0430 Y-15.3505
G01 X3.0446 Y-15.3293
G01 X3.0451 Y-15.3082
G01 X3.0445 Y-15.2870
G01 X3.0429 Y-15.2658
G01 X3.0403 Y-15.2448
G01 X3.0358 Y-15.2196
G01 X3.0309 Y-15.1990
G01 X3.0263 Y-15.1828
G01 X3.0211 Y-15.1668
G01 X3.0120 Y-15.1429
G01 X3.0039 Y-15.1246
G00 Z1.9990
G00 X4.5770 Y-14.0378
G01 F30.00
G01 Z-0.0600
G01 F30.00
G01 X4.5757 Y-13.9856
G01 X4.5718 Y-13.9328
G01 X4.5653 Y-13.8802
G01 X4.5562 Y-13.8280
G01 X4.5446 Y-13.7763
G01 X4.5305 Y-13.7252
G01 X4.5139 Y-13.6749
G01 X4.4948 Y-13.6255
G01 X4.4733 Y-13.5771
G01 X4.4495 Y-13.5298
G01 X4.4234 Y-13.4837
G01 X4.3951 Y-13.4389
G01 X4.3646 Y-13.3956
G01 X4.3320 Y-13.3538
G01 X4.2974 Y-13.3137
G01 X4.2608 Y-13.2753
G01 X4.2225 Y-13.2388
G01 X4.1823 Y-13.2042
G01 X4.1406 Y-13.1716
G01 X4.0973 Y-13.1411
G01 X4.0525 Y-13.1127
G01 X4.0064 Y-13.0866
G01 X3.9591 Y-13.0628
G01 X3.9106 Y-13.0413
G01 X3.8612 Y-13.0223
G01 X3.8109 Y-13.0057
G01 X3.7599 Y-12.9915
G01 X3.7082 Y-12.9799
G01 X3.6560 Y-12.9709
G01 X3.6034 Y-12.9644
G01 X3.5505 Y-12.9605
G01 X3.4976 Y-12.9592
G01 X3.4446 Y-12.9605
G01 X3.3918 Y-12.9644
G01 X3.3392 Y-12.9709
G01 X3.2870 Y-12.9799
G01 X3.2353 Y-12.9915
G01 X3.1842 Y-13.0057
G01 X3.1339 Y-13.0223
G01 X3.0845 Y-13.0413
G01 X3.0361 Y-13.0628
G01 X2.9888 Y-13.0866
G01 X2.9427 Y-13.1127
G01 X2.8979 Y-13.1411
G01 X2.8546 Y-13.1716
G01 X2.8128 Y-13.2042
G01 X2.7727 Y-13.2388
G01 X2.7343 Y-13.2753
G01 X2.6978 Y-13.3137
G01 X2.6632 Y-13.3538
G01 X2.6306 Y-13.3956
G01 X2.6001 Y-13.4389
G01 X2.5717 Y-13.4837
G01 X2.5456 Y-13.5298
G01 X2.5218 Y-13.5771
G01 X2.5003 Y-13.6255
G01 X2.4813 Y-13.6749
G01 X2.4647 Y-13.7252
G01 X2.4505 Y-13.7763
G01 X2.4389 Y-13.8280
G01 X2.4299 Y-13.8802
G01 X2.4234 Y-13.9328
G01 X2.4195 Y-13.9856
G01 X2.4182 Y-14.0386
G01 X2.4195 Y-14.0915
G01 X2.4234 Y-14.1444
G01 X2.4299 Y-14.1970
G01 X2.4389 Y-14.2492
G01 X2.4505 Y-14.3009
G01 X2.4647 Y-14.3519
G01 X2.4813 Y-14.4022
G01 X2.5003 Y-14.4516
G01 X2.5218 Y-14.5001
G01 X2.5456 Y-14.5474
G01 X2.5717 Y-14.5935
G01 X2.6001 Y-14.6383
G01 X2.6306 Y-14.6816
G01 X2.6632 Y-14.7233
G01 X2.6978 Y-14.7635
G01 X2.7343 Y-14.8018
G01 X2.7727 Y-14.8384
G01 X2.8128 Y-14.8730
G01 X2.8546 Y-14.9056
G01 X2.8979 Y-14.9361
G01 X2.9427 Y-14.9644
G01 X2.9888 Y-14.9905
G01 X3.0361 Y-15.0143
G01 X3.0845 Y-15.0358
G01 X3.1339 Y-15.0549
G01 X3.1842 Y-15.0715
G01 X3.2353 Y-15.0856
G01 X3.2870 Y-15.0972
G01 X3.3392 Y-15.1063
G01 X3.3918 Y-15.1128
G01 X3.4446 Y-15.1167
G01 X3.4976 Y-15.1180
G01 X3.5505 Y-15.1167
G01 X3.6034 Y-15.1128
G01 X3.6560 Y-15.1063
G01 X3.7082 Y-15.0972
G01 X3.7599 Y-15.0856
G01 X3.8109 Y-15.0715
G01 X3.8612 Y-15.0549
G01 X3.9106 Y-15.0358
G01 X3.9591 Y-15.0143
G01 X4.0064 Y-14.9905
G01 X4.0525 Y-14.9644
G01 X4.0973 Y-14.9361
G01 X4.1406 Y-14.9056
G01 X4.1823 Y-14.8730
G01 X4.2225 Y-14.8384
G01 X4.2608 Y-14.8018
G01 X4.2974 Y-14.7635
G01 X4.3320 Y-14.7233
G01 X4.3646 Y-14.6816
G01 X4.3951 Y-14.6383
G01 X4.4234 Y-14.5935
G01 X4.4495 Y-14.5474
G01 X4.4733 Y-14.5001
G01 X4.4948 Y-14.4516
G01 X4.5139 Y-14.4022
G01 X4.5305 Y-14.3519
G01 X4.5446 Y-14.3009
G01 X4.5562 Y-14.2492
G01 X4.5653 Y-14.1970
G01 X4.5718 Y-14.1444
G01 X4.5757 Y-14.0915
G01 X4.5770 Y-14.0378
G00 Z1.9990
G00 X3.8389 Y-12.7771
G01 F30.00
G01 Z-0.0600
G01 F30.00
G01 X3.8152 Y-12.7706
G01 X3.8065 Y-12.7686
G01 X3.8389 Y-12.7601
G01 X3.8389 Y-12.7771
G00 Z1.9990
G00 X3.1588 Y-12.7608
G01 F30.00
G01 Z-0.0600
G01 F30.00
G01 X3.1800 Y-12.7665
G01 X3.1887 Y-12.7686
G01 X3.1588 Y-12.7764
G01 X3.1588 Y-12.7608
G00 Z1.9990
G00 X3.0039 Y-12.5846
G01 F30.00
G01 Z-0.0600
G01 F30.00
G01 X3.0409 Y-12.6010
G01 X3.0915 Y-12.6206
G01 X3.1470 Y-12.6392
G01 X3.2076 Y-12.6561
G01 X3.2605 Y-12.6680
G01 X3.3225 Y-12.6789
G01 X3.3806 Y-12.6861
G01 X3.4390 Y-12.6904
G01 X3.4976 Y-12.6918
G01 X3.5561 Y-12.6904
G01 X3.6145 Y-12.6861
G01 X3.6727 Y-12.6789
G01 X3.7346 Y-12.6680
G01 X3.7875 Y-12.6561
G01 X3.8481 Y-12.6392
G01 X3.9037 Y-12.6206
G01 X3.9542 Y-12.6010
G01 X3.9945 Y-12.5832
G01 X3.9856 Y-12.6033
G01 X3.9779 Y-12.6230
G01 X3.9713 Y-12.6431
G01 X3.9646 Y-12.6677
G01 X3.9602 Y-12.6884
G01 X3.9574 Y-12.7049
G01 X3.9552 Y-12.7216
G01 X3.9532 Y-12.7470
G01 X3.9526 Y-12.7682
G01 X3.9531 Y-12.7893
G01 X3.9552 Y-12.8147
G01 X3.9572 Y-12.8314
G01 X3.9600 Y-12.8479
G01 X3.9644 Y-12.8686
G01 X3.9711 Y-12.8932
G01 X3.9777 Y-12.9133
G01 X3.9852 Y-12.9331
G01 X3.9945 Y-12.9540
G01 X3.9542 Y-12.9361
G01 X3.9037 Y-12.9166
G01 X3.8481 Y-12.8980
G01 X3.7875 Y-12.8811
G01 X3.7346 Y-12.8691
G01 X3.6727 Y-12.8582
G01 X3.6145 Y-12.8511
G01 X3.5561 Y-12.8468
G01 X3.4976 Y-12.8453
G01 X3.4390 Y-12.8468
G01 X3.3806 Y-12.8511
G01 X3.3225 Y-12.8582
G01 X3.2605 Y-12.8691
G01 X3.2076 Y-12.8811
G01 X3.1470 Y-12.8980
G01 X3.0915 Y-12.9166
G01 X3.0409 Y-12.9361
G01 X3.0039 Y-12.9525
G01 X3.0123 Y-12.9335
G01 X3.0213 Y-12.9096
G01 X3.0278 Y-12.8894
G01 X3.0322 Y-12.8731
G01 X3.0359 Y-12.8567
G01 X3.0404 Y-12.8315
G01 X3.0430 Y-12.8105
G01 X3.0446 Y-12.7893
G01 X3.0451 Y-12.7682
G01 X3.0445 Y-12.7470
G01 X3.0429 Y-12.7258
G01 X3.0403 Y-12.7048
G01 X3.0358 Y-12.6796
G01 X3.0320 Y-12.6632
G01 X3.0275 Y-12.6470
G01 X3.0211 Y-12.6268
G01 X3.0120 Y-12.6029
G01 X3.0039 Y-12.5846
G00 Z1.9990
G00 X2.2911 Y-11.6890
G01 F30.00
G01 Z-0.0600
G01 F30.00
G01 X2.4354 Y-11.6890
G01 X2.4389 Y-11.7092
G01 X2.4509 Y-11.7624
G01 X2.4647 Y-11.8119
G01 X2.4818 Y-11.8637
G01 X2.5003 Y-11.9116
G01 X2.5218 Y-11.9601
G01 X2.5456 Y-12.0074
G01 X2.5726 Y-12.0548
G01 X2.6001 Y-12.0983
G01 X2.6306 Y-12.1416
G01 X2.6632 Y-12.1833
G01 X2.6978 Y-12.2235
G01 X2.7343 Y-12.2618
G01 X2.7727 Y-12.2984
G01 X2.8128 Y-12.3330
G01 X2.8546 Y-12.3656
G01 X2.8979 Y-12.3961
G01 X2.9413 Y-12.4236
G01 X2.9888 Y-12.4505
G01 X3.0361 Y-12.4743
G01 X3.0831 Y-12.4952
G01 X3.1354 Y-12.5154
G01 X3.1842 Y-12.5315
G01 X3.2353 Y-12.5456
G01 X3.2870 Y-12.5572
G01 X3.3377 Y-12.5660
G01 X3.3933 Y-12.5729
G01 X3.4446 Y-12.5767
G01 X3.4976 Y-12.5780
G01 X3.5505 Y-12.5767
G01 X3.6018 Y-12.5729
G01 X3.6575 Y-12.5660
G01 X3.7082 Y-12.5572
G01 X3.7599 Y-12.5456
G01 X3.8109 Y-12.5315
G01 X3.8597 Y-12.5154
G01 X3.9121 Y-12.4952
G01 X3.9591 Y-12.4743
G01 X4.0064 Y-12.4505
G01 X4.0525 Y-12.4244
G01 X4.0960 Y-12.3969
G01 X4.1406 Y-12.3656
G01 X4.1823 Y-12.3330
G01 X4.2225 Y-12.2984
G01 X4.2608 Y-12.2618
G01 X4.2974 Y-12.2235
G01 X4.3320 Y-12.1833
G01 X4.3646 Y-12.1416
G01 X4.3951 Y-12.0983
G01 X4.4226 Y-12.0548
G01 X4.4495 Y-12.0074
G01 X4.4733 Y-11.9601
G01 X4.4948 Y-11.9116
G01 X4.5133 Y-11.8637
G01 X4.5305 Y-11.8119
G01 X4.5442 Y-11.7624
G01 X4.5562 Y-11.7092
G01 X4.5597 Y-11.6890
G01 X4.7041 Y-11.6890
G01 X4.7041 Y-11.9995
G01 X4.1595 Y-12.5441
G01 X4.1488 Y-12.5553
G01 X4.1386 Y-12.5671
G01 X4.1290 Y-12.5794
G01 X4.1201 Y-12.5921
G01 X4.1117 Y-12.6053
G01 X4.1048 Y-12.6174
G01 X4.0964 Y-12.6341
G01 X4.0907 Y-12.6469
G01 X4.0851 Y-12.6614
G01 X4.0802 Y-12.6762
G01 X4.0761 Y-12.6912
G01 X4.0727 Y-12.7064
G01 X4.0702 Y-12.7202
G01 X4.0679 Y-12.7387
G01 X4.0669 Y-12.7527
G01 X4.0665 Y-12.7683
G01 X4.0669 Y-12.7838
G01 X4.0680 Y-12.7993
G01 X4.0699 Y-12.8148
G01 X4.0723 Y-12.8286
G01 X4.0763 Y-12.8468
G01 X4.0801 Y-12.8603
G01 X4.0849 Y-12.8751
G01 X4.0905 Y-12.8897
G01 X4.0961 Y-12.9025
G01 X4.1045 Y-12.9192
G01 X4.1114 Y-12.9314
G01 X4.1197 Y-12.9445
G01 X4.1287 Y-12.9573
G01 X4.1382 Y-12.9696
G01 X4.1484 Y-12.9814
G01 X4.1591 Y-12.9927
G01 X4.7041 Y-13.5398
G01 X4.7041 Y-14.5395
G01 X4.1595 Y-15.0841
G01 X4.1488 Y-15.0953
G01 X4.1386 Y-15.1071
G01 X4.1290 Y-15.1194
G01 X4.1201 Y-15.1321
G01 X4.1117 Y-15.1453
G01 X4.1048 Y-15.1574
G01 X4.0964 Y-15.1741
G01 X4.0907 Y-15.1869
G01 X4.0851 Y-15.2014
G01 X4.0802 Y-15.2162
G01 X4.0761 Y-15.2312
G01 X4.0727 Y-15.2464
G01 X4.0702 Y-15.2602
G01 X4.0679 Y-15.2787
G01 X4.0669 Y-15.2927
G01 X4.0665 Y-15.3083
G01 X4.0669 Y-15.3238
G01 X4.0680 Y-15.3393
G01 X4.0699 Y-15.3548
G01 X4.0723 Y-15.3686
G01 X4.0763 Y-15.3868
G01 X4.0801 Y-15.4003
G01 X4.0849 Y-15.4151
G01 X4.0905 Y-15.4297
G01 X4.0961 Y-15.4425
G01 X4.1045 Y-15.4592
G01 X4.1114 Y-15.4714
G01 X4.1197 Y-15.4845
G01 X4.1287 Y-15.4973
G01 X4.1382 Y-15.5096
G01 X4.1484 Y-15.5214
G01 X4.1591 Y-15.5327
G01 X4.7041 Y-16.0798
G01 X4.7041 Y-17.0795
G01 X3.9985 Y-17.7851
G01 X2.9989 Y-17.7851
G01 X2.2911 Y-17.0793
G01 X2.2911 Y-16.0802
G01 X2.8382 Y-15.5331
G01 X2.8489 Y-15.5218
G01 X2.8591 Y-15.5100
G01 X2.8687 Y-15.4977
G01 X2.8777 Y-15.4849
G01 X2.8861 Y-15.4717
G01 X2.8930 Y-15.4595
G01 X2.9014 Y-15.4428
G01 X2.9071 Y-15.4299
G01 X2.9127 Y-15.4154
G01 X2.9176 Y-15.4006
G01 X2.9217 Y-15.3855
G01 X2.9251 Y-15.3703
G01 X2.9275 Y-15.3565
G01 X2.9298 Y-15.3379
G01 X2.9308 Y-15.3239
G01 X2.9312 Y-15.3083
G01 X2.9308 Y-15.2927
G01 X2.9296 Y-15.2771
G01 X2.9277 Y-15.2616
G01 X2.9253 Y-15.2478
G01 X2.9212 Y-15.2295
G01 X2.9174 Y-15.2160
G01 X2.9125 Y-15.2012
G01 X2.9068 Y-15.1866
G01 X2.9011 Y-15.1738
G01 X2.8927 Y-15.1571
G01 X2.8857 Y-15.1449
G01 X2.8774 Y-15.1317
G01 X2.8684 Y-15.1190
G01 X2.8587 Y-15.1067
G01 X2.8485 Y-15.0949
G01 X2.8377 Y-15.0836
G01 X2.2911 Y-14.5391
G01 X2.2911 Y-13.5402
G01 X2.8382 Y-12.9931
G01 X2.8489 Y-12.9818
G01 X2.8591 Y-12.9700
G01 X2.8687 Y-12.9577
G01 X2.8777 Y-12.9449
G01 X2.8861 Y-12.9317
G01 X2.8930 Y-12.9195
G01 X2.9014 Y-12.9028
G01 X2.9071 Y-12.8899
G01 X2.9127 Y-12.8754
G01 X2.9176 Y-12.8606
G01 X2.9217 Y-12.8455
G01 X2.9251 Y-12.8303
G01 X2.9275 Y-12.8165
G01 X2.9298 Y-12.7979
G01 X2.9308 Y-12.7839
G01 X2.9312 Y-12.7683
G01 X2.9308 Y-12.7527
G01 X2.9296 Y-12.7371
G01 X2.9277 Y-12.7216
G01 X2.9253 Y-12.7078
G01 X2.9212 Y-12.6895
G01 X2.9174 Y-12.6760
G01 X2.9125 Y-12.6612
G01 X2.9068 Y-12.6466
G01 X2.9005 Y-12.6324
G01 X2.8935 Y-12.6184
G01 X2.8865 Y-12.6062
G01 X2.8765 Y-12.5904
G01 X2.8684 Y-12.5790
G01 X2.8587 Y-12.5667
G01 X2.8485 Y-12.5549
G01 X2.8377 Y-12.5436
G01 X2.2911 Y-11.9991
G01 X2.2911 Y-11.6890
G00 Z1.9990
G00 X2.2911 Y-11.3081
G01 F30.00
G01 Z-0.0600
G01 F30.00
G01 X2.2911 Y-11.0002
G01 X2.9992 Y-10.2921
G01 X3.3071 Y-10.2921
G01 X3.3071 Y-10.4364
G01 X3.2870 Y-10.4399
G01 X3.2338 Y-10.4519
G01 X3.1842 Y-10.4657
G01 X3.1325 Y-10.4828
G01 X3.0845 Y-10.5013
G01 X3.0361 Y-10.5228
G01 X2.9888 Y-10.5466
G01 X2.9427 Y-10.5727
G01 X2.8979 Y-10.6011
G01 X2.8558 Y-10.6307
G01 X2.8116 Y-10.6652
G01 X2.7727 Y-10.6988
G01 X2.7343 Y-10.7353
G01 X2.6978 Y-10.7737
G01 X2.6642 Y-10.8126
G01 X2.6306 Y-10.8556
G01 X2.5992 Y-10.9002
G01 X2.5717 Y-10.9437
G01 X2.5464 Y-10.9884
G01 X2.5218 Y-11.0371
G01 X2.4998 Y-11.0870
G01 X2.4813 Y-11.1349
G01 X2.4651 Y-11.1838
G01 X2.4505 Y-11.2363
G01 X2.4389 Y-11.2880
G01 X2.4354 Y-11.3081
G01 X2.2911 Y-11.3081
G00 Z1.9990
G00 X3.6880 Y-10.4364
G01 F30.00
G01 Z-0.0600
G01 F30.00
G01 X3.6880 Y-10.2921
G01 X3.9983 Y-10.2921
G01 X4.7041 Y-10.9999
G01 X4.7041 Y-11.3081
G01 X4.5597 Y-11.3081
G01 X4.5562 Y-11.2880
G01 X4.5442 Y-11.2348
G01 X4.5305 Y-11.1852
G01 X4.5133 Y-11.1335
G01 X4.4948 Y-11.0855
G01 X4.4733 Y-11.0371
G01 X4.4495 Y-10.9898
G01 X4.4234 Y-10.9437
G01 X4.3951 Y-10.8989
G01 X4.3655 Y-10.8568
G01 X4.3310 Y-10.8126
G01 X4.2974 Y-10.7737
G01 X4.2608 Y-10.7353
G01 X4.2225 Y-10.6988
G01 X4.1835 Y-10.6652
G01 X4.1406 Y-10.6316
G01 X4.0960 Y-10.6002
G01 X4.0525 Y-10.5727
G01 X4.0078 Y-10.5474
G01 X3.9591 Y-10.5228
G01 X3.9092 Y-10.5008
G01 X3.8612 Y-10.4823
G01 X3.8124 Y-10.4661
G01 X3.7599 Y-10.4515
G01 X3.7082 Y-10.4399
G01 X3.6880 Y-10.4364
G00 Z1.9990
G00 X3.6880 Y-7.0997
G01 F30.00
G01 Z-0.0600
G01 F30.00
G01 X3.7082 Y-7.0962
G01 X3.7599 Y-7.0846
G01 X3.8109 Y-7.0705
G01 X3.8612 Y-7.0539
G01 X3.9106 Y-7.0348
G01 X3.9591 Y-7.0133
G01 X4.0064 Y-6.9895
G01 X4.0525 Y-6.9634
G01 X4.0973 Y-6.9351
G01 X4.1406 Y-6.9046
G01 X4.1823 Y-6.8720
G01 X4.2225 Y-6.8374
G01 X4.2619 Y-6.7997
G01 X4.2974 Y-6.7625
G01 X4.3329 Y-6.7211
G01 X4.3655 Y-6.6793
G01 X4.3951 Y-6.6373
G01 X4.4128 Y-6.6092
G01 X4.4999 Y-6.6092
G01 X4.5268 Y-6.6085
G01 X4.5553 Y-6.6064
G01 X4.5835 Y-6.6028
G01 X4.6116 Y-6.5979
G01 X4.6394 Y-6.5916
G01 X4.6555 Y-6.5870
G01 X3.9985 Y-7.2441
G01 X3.6880 Y-7.2441
G01 X3.6880 Y-7.0997
G00 Z1.9990
G00 X2.4354 Y-6.2280
G01 F30.00
G01 Z-0.0600
G01 F30.00
G01 X2.4389 Y-6.2482
G01 X2.4505 Y-6.2999
G01 X2.4651 Y-6.3524
G01 X2.4813 Y-6.4012
G01 X2.4998 Y-6.4492
G01 X2.5218 Y-6.4991
G01 X2.5464 Y-6.5478
G01 X2.5717 Y-6.5925
G01 X2.5992 Y-6.6360
G01 X2.6306 Y-6.6806
G01 X2.6642 Y-6.7235
G01 X2.6978 Y-6.7625
G01 X2.7343 Y-6.8008
G01 X2.7727 Y-6.8374
G01 X2.8116 Y-6.8710
G01 X2.8558 Y-6.9055
G01 X2.8979 Y-6.9351
G01 X2.9427 Y-6.9634
G01 X2.9888 Y-6.9895
G01 X3.0361 Y-7.0133
G01 X3.0845 Y-7.0348
G01 X3.1325 Y-7.0533
G01 X3.1842 Y-7.0705
G01 X3.2338 Y-7.0842
G01 X3.2870 Y-7.0962
G01 X3.3071 Y-7.0997
G01 X3.3071 Y-7.2441
G01 X2.9989 Y-7.2441
G01 X2.2911 Y-6.5383
G01 X2.2911 Y-6.2280
G01 X2.4354 Y-6.2280
G00 Z1.9990
G00 X2.2911 Y-5.8471
G01 F30.00
G01 Z-0.0600
G01 F30.00
G01 X2.2911 Y-5.5392
G01 X2.8382 Y-4.9921
G01 X2.8489 Y-4.9808
G01 X2.8591 Y-4.9690
G01 X2.8687 Y-4.9567
G01 X2.8777 Y-4.9439
G01 X2.8861 Y-4.9307
G01 X2.8930 Y-4.9185
G01 X2.9014 Y-4.9018
G01 X2.9071 Y-4.8889
G01 X2.9127 Y-4.8744
G01 X2.9176 Y-4.8596
G01 X2.9217 Y-4.8445
G01 X2.9251 Y-4.8293
G01 X2.9275 Y-4.8155
G01 X2.9298 Y-4.7969
G01 X2.9308 Y-4.7829
G01 X2.9312 Y-4.7673
G01 X2.9308 Y-4.7517
G01 X2.9296 Y-4.7361
G01 X2.9277 Y-4.7206
G01 X2.9253 Y-4.7068
G01 X2.9212 Y-4.6885
G01 X2.9174 Y-4.6750
G01 X2.9125 Y-4.6602
G01 X2.9068 Y-4.6456
G01 X2.9005 Y-4.6314
G01 X2.8935 Y-4.6174
G01 X2.8865 Y-4.6052
G01 X2.8765 Y-4.5894
G01 X2.8684 Y-4.5780
G01 X2.8587 Y-4.5657
G01 X2.8485 Y-4.5539
G01 X2.8377 Y-4.5426
G01 X2.2911 Y-3.9981
G01 X2.2911 Y-2.9992
G01 X2.9992 Y-2.2911
G01 X3.9983 Y-2.2911
G01 X4.7041 Y-2.9989
G01 X4.7041 Y-3.9985
G01 X4.1595 Y-4.5431
G01 X4.1478 Y-4.5555
G01 X4.1386 Y-4.5661
G01 X4.1300 Y-4.5771
G01 X4.1201 Y-4.5911
G01 X4.1117 Y-4.6043
G01 X4.1048 Y-4.6164
G01 X4.0964 Y-4.6331
G01 X4.0907 Y-4.6459
G01 X4.0857 Y-4.6590
G01 X4.0798 Y-4.6767
G01 X4.0761 Y-4.6902
G01 X4.0727 Y-4.7054
G01 X4.0700 Y-4.7207
G01 X4.0682 Y-4.7346
G01 X4.0669 Y-4.7533
G01 X4.0665 Y-4.7673
G01 X4.0670 Y-4.7844
G01 X4.0680 Y-4.7983
G01 X4.0699 Y-4.8138
G01 X4.0725 Y-4.8291
G01 X4.0759 Y-4.8443
G01 X4.0801 Y-4.8593
G01 X4.0849 Y-4.8741
G01 X4.0905 Y-4.8887
G01 X4.0961 Y-4.9015
G01 X4.1038 Y-4.9168
G01 X4.1106 Y-4.9290
G01 X4.1206 Y-4.9448
G01 X4.1287 Y-4.9563
G01 X4.1382 Y-4.9686
G01 X4.1484 Y-4.9804
G01 X4.1585 Y-4.9911
G01 X4.4424 Y-5.2761
G01 X4.3478 Y-5.3731
G01 X4.3320 Y-5.3528
G01 X4.2974 Y-5.3127
G01 X4.2608 Y-5.2743
G01 X4.2225 Y-5.2378
G01 X4.1823 Y-5.2032
G01 X4.1418 Y-5.1715
G01 X4.0960 Y-5.1392
G01 X4.0525 Y-5.1117
G01 X4.0064 Y-5.0856
G01 X3.9591 Y-5.0618
G01 X3.9121 Y-5.0410
G01 X3.8612 Y-5.0213
G01 X3.8124 Y-5.0051
G01 X3.7583 Y-4.9902
G01 X3.7066 Y-4.9786
G01 X3.6560 Y-4.9699
G01 X3.6049 Y-4.9635
G01 X3.5505 Y-4.9595
G01 X3.4976 Y-4.9582
G01 X3.4431 Y-4.9596
G01 X3.3918 Y-4.9634
G01 X3.3407 Y-4.9697
G01 X3.2870 Y-4.9789
G01 X3.2338 Y-4.9909
G01 X3.1842 Y-5.0047
G01 X3.1354 Y-5.0208
G01 X3.0860 Y-5.0398
G01 X3.0361 Y-5.0618
G01 X2.9888 Y-5.0856
G01 X2.9413 Y-5.1126
G01 X2.8979 Y-5.1401
G01 X2.8558 Y-5.1697
G01 X2.8128 Y-5.2032
G01 X2.7727 Y-5.2378
G01 X2.7343 Y-5.2743
G01 X2.6989 Y-5.3116
G01 X2.6622 Y-5.3540
G01 X2.6306 Y-5.3946
G01 X2.6001 Y-5.4379
G01 X2.5717 Y-5.4827
G01 X2.5464 Y-5.5274
G01 X2.5212 Y-5.5775
G01 X2.5003 Y-5.6245
G01 X2.4813 Y-5.6739
G01 X2.4647 Y-5.7242
G01 X2.4509 Y-5.7738
G01 X2.4389 Y-5.8270
G01 X2.4354 Y-5.8471
G01 X2.2911 Y-5.8471
G00 Z1.9990
G00 X8.1889 Y-3.7084
G01 F30.00
G01 Z-0.0600
G01 F30.00
G01 X8.8908 Y-3.7084
G01 X8.9056 Y-3.7080
G01 X8.9211 Y-3.7069
G01 X8.9366 Y-3.7050
G01 X8.9535 Y-3.7020
G01 X8.9672 Y-3.6989
G01 X8.9807 Y-3.6952
G01 X8.9955 Y-3.6904
G01 X9.0115 Y-3.6843
G01 X9.0272 Y-3.6773
G01 X9.0397 Y-3.6709
G01 X9.0519 Y-3.6640
G01 X9.0664 Y-3.6549
G01 X9.0804 Y-3.6450
G01 X9.0914 Y-3.6364
G01 X9.1021 Y-3.6272
G01 X9.1145 Y-3.6154
G01 X9.1263 Y-3.6030
G01 X9.1355 Y-3.5923
G01 X9.1441 Y-3.5813
G01 X9.1540 Y-3.5673
G01 X9.1631 Y-3.5528
G01 X9.1700 Y-3.5406
G01 X9.1764 Y-3.5281
G01 X9.1834 Y-3.5124
G01 X9.1895 Y-3.4964
G01 X9.1939 Y-3.4831
G01 X9.1980 Y-3.4681
G01 X9.2014 Y-3.4528
G01 X9.2038 Y-3.4390
G01 X9.2061 Y-3.4205
G01 X9.2071 Y-3.4065
G01 X9.2075 Y-3.3917
G01 X9.2075 Y-0.6579
G01 X21.2903 Y-0.6579
G01 X21.2903 Y-3.3909
G01 X21.2906 Y-3.4065
G01 X21.2916 Y-3.4205
G01 X21.2937 Y-3.4375
G01 X21.2964 Y-3.4528
G01 X21.2994 Y-3.4665
G01 X21.3044 Y-3.4846
G01 X21.3088 Y-3.4979
G01 X21.3138 Y-3.5110
G01 X21.3201 Y-3.5252
G01 X21.3277 Y-3.5406
G01 X21.3354 Y-3.5541
G01 X21.3438 Y-3.5673
G01 X21.3537 Y-3.5813
G01 X21.3633 Y-3.5935
G01 X21.3725 Y-3.6041
G01 X21.3822 Y-3.6143
G01 X21.3945 Y-3.6262
G01 X21.4063 Y-3.6364
G01 X21.4186 Y-3.6459
G01 X21.4327 Y-3.6558
G01 X21.4459 Y-3.6640
G01 X21.4581 Y-3.6709
G01 X21.4706 Y-3.6773
G01 X21.4863 Y-3.6843
G01 X21.5008 Y-3.6899
G01 X21.5156 Y-3.6948
G01 X21.5291 Y-3.6985
G01 X21.5474 Y-3.7026
G01 X21.5612 Y-3.7050
G01 X21.5767 Y-3.7069
G01 X21.5922 Y-3.7080
G01 X21.6062 Y-3.7084
G01 X22.3089 Y-3.7084
G01 X22.3089 Y-3.8355
G01 X21.2465 Y-3.8356
G01 X21.2403 Y-3.8362
G01 X21.2312 Y-3.8382
G01 X21.2225 Y-3.8416
G01 X21.2170 Y-3.8445
G01 X21.2119 Y-3.8480
G01 X21.2048 Y-3.8541
G01 X21.2006 Y-3.8587
G01 X21.1969 Y-3.8637
G01 X21.1937 Y-3.8690
G01 X21.1911 Y-3.8746
G01 X21.1881 Y-3.8835
G01 X21.1869 Y-3.8896
G01 X21.1862 Y-3.8989
G01 X21.1862 Y-3.9267
G01 X21.0592 Y-3.9267
G01 X21.0592 Y-3.8557
G01 X21.0587 Y-3.8386
G01 X21.0576 Y-3.8246
G01 X21.0557 Y-3.8091
G01 X21.0531 Y-3.7938
G01 X21.0493 Y-3.7771
G01 X21.0455 Y-3.7635
G01 X21.0411 Y-3.7502
G01 X21.0356 Y-3.7357
G01 X21.0287 Y-3.7200
G01 X21.0224 Y-3.7074
G01 X21.0140 Y-3.6925
G01 X21.0057 Y-3.6793
G01 X20.9967 Y-3.6666
G01 X20.9871 Y-3.6543
G01 X20.9769 Y-3.6425
G01 X20.9651 Y-3.6301
G01 X20.9537 Y-3.6194
G01 X20.9431 Y-3.6103
G01 X20.9320 Y-3.6016
G01 X20.9180 Y-3.5917
G01 X20.9049 Y-3.5834
G01 X20.8913 Y-3.5757
G01 X20.8774 Y-3.5687
G01 X20.8632 Y-3.5624
G01 X20.8486 Y-3.5568
G01 X20.8338 Y-3.5519
G01 X20.8173 Y-3.5473
G01 X20.8021 Y-3.5440
G01 X20.7882 Y-3.5416
G01 X20.7743 Y-3.5399
G01 X20.7572 Y-3.5386
G01 X20.7424 Y-3.5382
G01 X9.7561 Y-3.5382
G01 X9.7421 Y-3.5385
G01 X9.7250 Y-3.5397
G01 X9.7095 Y-3.5416
G01 X9.6942 Y-3.5443
G01 X9.6775 Y-3.5481
G01 X9.6640 Y-3.5519
G01 X9.6477 Y-3.5573
G01 X9.6332 Y-3.5630
G01 X9.6204 Y-3.5687
G01 X9.6078 Y-3.5750
G01 X9.5929 Y-3.5834
G01 X9.5797 Y-3.5917
G01 X9.5670 Y-3.6007
G01 X9.5547 Y-3.6103
G01 X9.5429 Y-3.6204
G01 X9.5316 Y-3.6312
G01 X9.5209 Y-3.6425
G01 X9.5097 Y-3.6555
G01 X9.5011 Y-3.6666
G01 X9.4913 Y-3.6806
G01 X9.4838 Y-3.6925
G01 X9.4769 Y-3.7047
G01 X9.4698 Y-3.7186
G01 X9.4628 Y-3.7342
G01 X9.4572 Y-3.7487
G01 X9.4523 Y-3.7635
G01 X9.4481 Y-3.7786
G01 X9.4447 Y-3.7938
G01 X9.4420 Y-3.8091
G01 X9.4401 Y-3.8246
G01 X9.4391 Y-3.8386
G01 X9.4386 Y-3.8557
G01 X9.4386 Y-3.9267
G01 X9.3115 Y-3.9267
G01 X9.3115 Y-3.8989
G01 X9.3109 Y-3.8896
G01 X9.3096 Y-3.8835
G01 X9.3067 Y-3.8746
G01 X9.3041 Y-3.8690
G01 X9.3009 Y-3.8637
G01 X9.2951 Y-3.8563
G01 X9.2907 Y-3.8519
G01 X9.2859 Y-3.8480
G01 X9.2780 Y-3.8430
G01 X9.2724 Y-3.8403
G01 X9.2635 Y-3.8374
G01 X9.2574 Y-3.8362
G01 X9.2513 Y-3.8356
G01 X8.1889 Y-3.8355
G01 X8.1889 Y-3.7084
G00 Z1.9990
G00 X9.1669 Y-3.7216
G01 F30.00
G01 Z-0.0600
G01 F30.00
G01 X9.1797 Y-3.7105
G01 X9.1919 Y-3.6990
G01 X9.2125 Y-3.6773
G01 X9.2235 Y-3.6646
G01 X9.2365 Y-3.6479
G01 X9.2487 Y-3.6306
G01 X9.2577 Y-3.6164
G01 X9.2725 Y-3.5904
G01 X9.2800 Y-3.5753
G01 X9.2886 Y-3.5560
G01 X9.2976 Y-3.5321
G01 X9.3028 Y-3.5161
G01 X9.3077 Y-3.4987
G01 X9.3170 Y-3.5041
G01 X9.3247 Y-3.5080
G01 X9.3408 Y-3.5146
G01 X9.3575 Y-3.5197
G01 X9.3745 Y-3.5231
G01 X9.3832 Y-3.5241
G01 X9.4005 Y-3.5250
G01 X9.4792 Y-3.5250
G01 X9.4664 Y-3.5361
G01 X9.4542 Y-3.5476
G01 X9.4365 Y-3.5660
G01 X9.4227 Y-3.5820
G01 X9.4123 Y-3.5953
G01 X9.3951 Y-3.6197
G01 X9.3861 Y-3.6339
G01 X9.3778 Y-3.6486
G01 X9.3644 Y-3.6752
G01 X9.3576 Y-3.6906
G01 X9.3500 Y-3.7104
G01 X9.3433 Y-3.7305
G01 X9.3388 Y-3.7466
G01 X9.3239 Y-3.7387
G01 X9.3079 Y-3.7320
G01 X9.2912 Y-3.7269
G01 X9.2742 Y-3.7236
G01 X9.2655 Y-3.7225
G01 X9.2481 Y-3.7216
G01 X9.1669 Y-3.7216
G00 Z1.9990
G00 X9.3974 Y-3.4110
G01 F30.00
G01 Z-0.0600
G01 F30.00
G01 X10.6025 Y-3.4110
G01 X10.6118 Y-3.4099
G01 X10.6178 Y-3.4084
G01 X10.6265 Y-3.4050
G01 X10.6346 Y-3.4004
G01 X10.6396 Y-3.3967
G01 X10.6464 Y-3.3903
G01 X10.6521 Y-3.3829
G01 X10.6567 Y-3.3748
G01 X10.6591 Y-3.3691
G01 X10.6616 Y-3.3601
G01 X10.6625 Y-3.3539
G01 X10.6628 Y-3.3477
G01 X10.6628 Y-0.8484
G01 X10.6625 Y-0.8421
G01 X10.6609 Y-0.8330
G01 X10.6580 Y-0.8241
G01 X10.6538 Y-0.8158
G01 X10.6484 Y-0.8081
G01 X10.6420 Y-0.8014
G01 X10.6346 Y-0.7956
G01 X10.6265 Y-0.7910
G01 X10.6208 Y-0.7887
G01 X10.6118 Y-0.7862
G01 X10.6056 Y-0.7853
G01 X10.5994 Y-0.7850
G01 X9.4005 Y-0.7850
G01 X9.3943 Y-0.7853
G01 X9.3851 Y-0.7869
G01 X9.3763 Y-0.7898
G01 X9.3679 Y-0.7940
G01 X9.3603 Y-0.7994
G01 X9.3536 Y-0.8058
G01 X9.3478 Y-0.8131
G01 X9.3432 Y-0.8213
G01 X9.3408 Y-0.8270
G01 X9.3384 Y-0.8360
G01 X9.3374 Y-0.8421
G01 X9.3371 Y-0.8484
G01 X9.3371 Y-3.3477
G01 X9.3378 Y-3.3570
G01 X9.3390 Y-3.3631
G01 X9.3408 Y-3.3691
G01 X9.3432 Y-3.3748
G01 X9.3462 Y-3.3803
G01 X9.3496 Y-3.3855
G01 X9.3536 Y-3.3903
G01 X9.3580 Y-3.3947
G01 X9.3628 Y-3.3986
G01 X9.3679 Y-3.4021
G01 X9.3734 Y-3.4050
G01 X9.3792 Y-3.4074
G01 X9.3851 Y-3.4092
G01 X9.3912 Y-3.4104
G01 X9.3974 Y-3.4110
G00 Z1.9990
G00 X10.8960 Y-3.4110
G01 F30.00
G01 Z-0.0600
G01 F30.00
G01 X12.1011 Y-3.4110
G01 X12.1104 Y-3.4099
G01 X12.1194 Y-3.4074
G01 X12.1251 Y-3.4050
G01 X12.1332 Y-3.4004
G01 X12.1406 Y-3.3947
G01 X12.1470 Y-3.3879
G01 X12.1524 Y-3.3803
G01 X12.1553 Y-3.3748
G01 X12.1577 Y-3.3691
G01 X12.1595 Y-3.3631
G01 X12.1607 Y-3.3570
G01 X12.1614 Y-3.3477
G01 X12.1614 Y-0.8484
G01 X12.1607 Y-0.8391
G01 X12.1587 Y-0.8300
G01 X12.1553 Y-0.8213
G01 X12.1507 Y-0.8131
G01 X12.1450 Y-0.8058
G01 X12.1382 Y-0.7994
G01 X12.1306 Y-0.7940
G01 X12.1251 Y-0.7910
G01 X12.1164 Y-0.7877
G01 X12.1104 Y-0.7862
G01 X12.1042 Y-0.7853
G01 X12.0980 Y-0.7850
G01 X10.8991 Y-0.7850
G01 X10.8929 Y-0.7853
G01 X10.8837 Y-0.7869
G01 X10.8749 Y-0.7898
G01 X10.8665 Y-0.7940
G01 X10.8589 Y-0.7994
G01 X10.8522 Y-0.8058
G01 X10.8464 Y-0.8131
G01 X10.8418 Y-0.8213
G01 X10.8394 Y-0.8270
G01 X10.8376 Y-0.8330
G01 X10.8364 Y-0.8391
G01 X10.8357 Y-0.8484
G01 X10.8357 Y-3.3477
G01 X10.8360 Y-3.3539
G01 X10.8370 Y-3.3601
G01 X10.8385 Y-3.3661
G01 X10.8406 Y-3.3720
G01 X10.8432 Y-3.3776
G01 X10.8464 Y-3.3829
G01 X10.8501 Y-3.3879
G01 X10.8543 Y-3.3926
G01 X10.8589 Y-3.3967
G01 X10.8639 Y-3.4004
G01 X10.8720 Y-3.4050
G01 X10.8778 Y-3.4074
G01 X10.8837 Y-3.4092
G01 X10.8898 Y-3.4104
G01 X10.8960 Y-3.4110
G00 Z1.9990
G00 X12.3972 Y-3.4110
G01 F30.00
G01 Z-0.0600
G01 F30.00
G01 X13.6023 Y-3.4110
G01 X13.6085 Y-3.4104
G01 X13.6176 Y-3.4084
G01 X13.6263 Y-3.4050
G01 X13.6344 Y-3.4004
G01 X13.6417 Y-3.3947
G01 X13.6461 Y-3.3903
G01 X13.6519 Y-3.3829
G01 X13.6565 Y-3.3748
G01 X13.6598 Y-3.3661
G01 X13.6613 Y-3.3601
G01 X13.6623 Y-3.3539
G01 X13.6626 Y-3.3477
G01 X13.6626 Y-0.8484
G01 X13.6623 Y-0.8421
G01 X13.6607 Y-0.8330
G01 X13.6577 Y-0.8241
G01 X13.6535 Y-0.8158
G01 X13.6482 Y-0.8081
G01 X13.6417 Y-0.8014
G01 X13.6344 Y-0.7956
G01 X13.6263 Y-0.7910
G01 X13.6176 Y-0.7877
G01 X13.6115 Y-0.7862
G01 X13.6054 Y-0.7853
G01 X13.5992 Y-0.7850
G01 X12.4003 Y-0.7850
G01 X12.3941 Y-0.7853
G01 X12.3849 Y-0.7869
G01 X12.3760 Y-0.7898
G01 X12.3677 Y-0.7940
G01 X12.3601 Y-0.7994
G01 X12.3533 Y-0.8058
G01 X12.3476 Y-0.8131
G01 X12.3430 Y-0.8213
G01 X12.3406 Y-0.8270
G01 X12.3388 Y-0.8330
G01 X12.3376 Y-0.8391
G01 X12.3369 Y-0.8484
G01 X12.3369 Y-3.3477
G01 X12.3372 Y-3.3539
G01 X12.3381 Y-3.3601
G01 X12.3396 Y-3.3661
G01 X12.3417 Y-3.3720
G01 X12.3444 Y-3.3776
G01 X12.3476 Y-3.3829
G01 X12.3513 Y-3.3879
G01 X12.3554 Y-3.3926
G01 X12.3601 Y-3.3967
G01 X12.3651 Y-3.4004
G01 X12.3732 Y-3.4050
G01 X12.3789 Y-3.4074
G01 X12.3849 Y-3.4092
G01 X12.3910 Y-3.4104
G01 X12.3972 Y-3.4110
G00 Z1.9990
G00 X13.8958 Y-3.4110
G01 F30.00
G01 Z-0.0600
G01 F30.00
G01 X15.1009 Y-3.4110
G01 X15.1071 Y-3.4104
G01 X15.1162 Y-3.4084
G01 X15.1249 Y-3.4050
G01 X15.1330 Y-3.4004
G01 X15.1403 Y-3.3947
G01 X15.1447 Y-3.3903
G01 X15.1505 Y-3.3829
G01 X15.1551 Y-3.3748
G01 X15.1584 Y-3.3661
G01 X15.1599 Y-3.3601
G01 X15.1609 Y-3.3539
G01 X15.1612 Y-3.3477
G01 X15.1612 Y-0.8484
G01 X15.1609 Y-0.8421
G01 X15.1593 Y-0.8330
G01 X15.1563 Y-0.8241
G01 X15.1521 Y-0.8158
G01 X15.1468 Y-0.8081
G01 X15.1403 Y-0.8014
G01 X15.1330 Y-0.7956
G01 X15.1249 Y-0.7910
G01 X15.1162 Y-0.7877
G01 X15.1101 Y-0.7862
G01 X15.1040 Y-0.7853
G01 X15.0978 Y-0.7850
G01 X13.8989 Y-0.7850
G01 X13.8927 Y-0.7853
G01 X13.8835 Y-0.7869
G01 X13.8746 Y-0.7898
G01 X13.8663 Y-0.7940
G01 X13.8587 Y-0.7994
G01 X13.8519 Y-0.8058
G01 X13.8462 Y-0.8131
G01 X13.8416 Y-0.8213
G01 X13.8392 Y-0.8270
G01 X13.8367 Y-0.8360
G01 X13.8358 Y-0.8421
G01 X13.8355 Y-0.8484
G01 X13.8355 Y-3.3477
G01 X13.8362 Y-3.3570
G01 X13.8374 Y-3.3631
G01 X13.8392 Y-3.3691
G01 X13.8416 Y-3.3748
G01 X13.8445 Y-3.3803
G01 X13.8480 Y-3.3855
G01 X13.8519 Y-3.3903
G01 X13.8563 Y-3.3947
G01 X13.8611 Y-3.3986
G01 X13.8663 Y-3.4021
G01 X13.8718 Y-3.4050
G01 X13.8775 Y-3.4074
G01 X13.8835 Y-3.4092
G01 X13.8896 Y-3.4104
G01 X13.8958 Y-3.4110
G00 Z1.9990
G00 X15.3969 Y-3.4110
G01 F30.00
G01 Z-0.0600
G01 F30.00
G01 X16.6020 Y-3.4110
G01 X16.6082 Y-3.4104
G01 X16.6173 Y-3.4084
G01 X16.6260 Y-3.4050
G01 X16.6341 Y-3.4004
G01 X16.6415 Y-3.3947
G01 X16.6479 Y-3.3879
G01 X16.6516 Y-3.3829
G01 X16.6562 Y-3.3748
G01 X16.6586 Y-3.3691
G01 X16.6604 Y-3.3631
G01 X16.6616 Y-3.3570
G01 X16.6623 Y-3.3477
G01 X16.6623 Y-0.8484
G01 X16.6616 Y-0.8391
G01 X16.6596 Y-0.8300
G01 X16.6562 Y-0.8213
G01 X16.6516 Y-0.8131
G01 X16.6479 Y-0.8081
G01 X16.6415 Y-0.8014
G01 X16.6341 Y-0.7956
G01 X16.6260 Y-0.7910
G01 X16.6203 Y-0.7887
G01 X16.6113 Y-0.7862
G01 X16.6051 Y-0.7853
G01 X16.5989 Y-0.7850
G01 X15.4000 Y-0.7850
G01 X15.3938 Y-0.7853
G01 X15.3846 Y-0.7869
G01 X15.3758 Y-0.7898
G01 X15.3674 Y-0.7940
G01 X15.3598 Y-0.7994
G01 X15.3530 Y-0.8058
G01 X15.3473 Y-0.8131
G01 X15.3427 Y-0.8213
G01 X15.3403 Y-0.8270
G01 X15.3385 Y-0.8330
G01 X15.3373 Y-0.8391
G01 X15.3366 Y-0.8484
G01 X15.3366 Y-3.3477
G01 X15.3369 Y-3.3539
G01 X15.3378 Y-3.3601
G01 X15.3393 Y-3.3661
G01 X15.3414 Y-3.3720
G01 X15.3441 Y-3.3776
G01 X15.3473 Y-3.3829
G01 X15.3510 Y-3.3879
G01 X15.3552 Y-3.3926
G01 X15.3598 Y-3.3967
G01 X15.3648 Y-3.4004
G01 X15.3701 Y-3.4036
G01 X15.3758 Y-3.4063
G01 X15.3846 Y-3.4092
G01 X15.3907 Y-3.4104
G01 X15.3969 Y-3.4110
G00 Z1.9990
G00 X16.8955 Y-3.4110
G01 F30.00
G01 Z-0.0600
G01 F30.00
G01 X18.1006 Y-3.4110
G01 X18.1068 Y-3.4104
G01 X18.1159 Y-3.4084
G01 X18.1246 Y-3.4050
G01 X18.1327 Y-3.4004
G01 X18.1401 Y-3.3947
G01 X18.1445 Y-3.3903
G01 X18.1502 Y-3.3829
G01 X18.1548 Y-3.3748
G01 X18.1572 Y-3.3691
G01 X18.1597 Y-3.3601
G01 X18.1606 Y-3.3539
G01 X18.1609 Y-3.3477
G01 X18.1609 Y-0.8484
G01 X18.1606 Y-0.8421
G01 X18.1590 Y-0.8330
G01 X18.1561 Y-0.8241
G01 X18.1519 Y-0.8158
G01 X18.1465 Y-0.8081
G01 X18.1401 Y-0.8014
G01 X18.1327 Y-0.7956
G01 X18.1246 Y-0.7910
G01 X18.1189 Y-0.7887
G01 X18.1099 Y-0.7862
G01 X18.1037 Y-0.7853
G01 X18.0975 Y-0.7850
G01 X16.8986 Y-0.7850
G01 X16.8924 Y-0.7853
G01 X16.8832 Y-0.7869
G01 X16.8744 Y-0.7898
G01 X16.8660 Y-0.7940
G01 X16.8584 Y-0.7994
G01 X16.8516 Y-0.8058
G01 X16.8459 Y-0.8131
G01 X16.8413 Y-0.8213
G01 X16.8379 Y-0.8300
G01 X16.8364 Y-0.8360
G01 X16.8355 Y-0.8421
G01 X16.8352 Y-0.8484
G01 X16.8352 Y-3.3477
G01 X16.8359 Y-3.3570
G01 X16.8371 Y-3.3631
G01 X16.8389 Y-3.3691
G01 X16.8413 Y-3.3748
G01 X16.8442 Y-3.3803
G01 X16.8477 Y-3.3855
G01 X16.8516 Y-3.3903
G01 X16.8560 Y-3.3947
G01 X16.8609 Y-3.3986
G01 X16.8660 Y-3.4021
G01 X16.8715 Y-3.4050
G01 X16.8773 Y-3.4074
G01 X16.8832 Y-3.4092
G01 X16.8893 Y-3.4104
G01 X16.8955 Y-3.4110
G00 Z1.9990
G00 X18.3966 Y-3.4110
G01 F30.00
G01 Z-0.0600
G01 F30.00
G01 X19.6018 Y-3.4110
G01 X19.6079 Y-3.4104
G01 X19.6170 Y-3.4084
G01 X19.6257 Y-3.4050
G01 X19.6339 Y-3.4004
G01 X19.6412 Y-3.3947
G01 X19.6476 Y-3.3879
G01 X19.6514 Y-3.3829
G01 X19.6560 Y-3.3748
G01 X19.6583 Y-3.3691
G01 X19.6601 Y-3.3631
G01 X19.6614 Y-3.3570
G01 X19.6620 Y-3.3477
G01 X19.6620 Y-0.8484
G01 X19.6614 Y-0.8391
G01 X19.6593 Y-0.8300
G01 X19.6560 Y-0.8213
G01 X19.6514 Y-0.8131
G01 X19.6476 Y-0.8081
G01 X19.6412 Y-0.8014
G01 X19.6339 Y-0.7956
G01 X19.6257 Y-0.7910
G01 X19.6200 Y-0.7887
G01 X19.6110 Y-0.7862
G01 X19.6049 Y-0.7853
G01 X19.5986 Y-0.7850
G01 X18.3998 Y-0.7850
G01 X18.3935 Y-0.7853
G01 X18.3844 Y-0.7869
G01 X18.3755 Y-0.7898
G01 X18.3672 Y-0.7940
G01 X18.3595 Y-0.7994
G01 X18.3528 Y-0.8058
G01 X18.3470 Y-0.8131
G01 X18.3424 Y-0.8213
G01 X18.3391 Y-0.8300
G01 X18.3376 Y-0.8360
G01 X18.3367 Y-0.8421
G01 X18.3364 Y-0.8484
G01 X18.3364 Y-3.3477
G01 X18.3370 Y-3.3570
G01 X18.3383 Y-3.3631
G01 X18.3401 Y-3.3691
G01 X18.3424 Y-3.3748
G01 X18.3454 Y-3.3803
G01 X18.3488 Y-3.3855
G01 X18.3528 Y-3.3903
G01 X18.3572 Y-3.3947
G01 X18.3620 Y-3.3986
G01 X18.3672 Y-3.4021
G01 X18.3727 Y-3.4050
G01 X18.3784 Y-3.4074
G01 X18.3844 Y-3.4092
G01 X18.3905 Y-3.4104
G01 X18.3966 Y-3.4110
G00 Z1.9990
G00 X19.8952 Y-3.4110
G01 F30.00
G01 Z-0.0600
G01 F30.00
G01 X21.1004 Y-3.4110
G01 X21.1065 Y-3.4104
G01 X21.1156 Y-3.4084
G01 X21.1243 Y-3.4050
G01 X21.1325 Y-3.4004
G01 X21.1398 Y-3.3947
G01 X21.1442 Y-3.3903
G01 X21.1500 Y-3.3829
G01 X21.1546 Y-3.3748
G01 X21.1569 Y-3.3691
G01 X21.1594 Y-3.3601
G01 X21.1603 Y-3.3539
G01 X21.1606 Y-3.3477
G01 X21.1606 Y-0.8484
G01 X21.1603 Y-0.8421
G01 X21.1587 Y-0.8330
G01 X21.1558 Y-0.8241
G01 X21.1516 Y-0.8158
G01 X21.1462 Y-0.8081
G01 X21.1398 Y-0.8014
G01 X21.1325 Y-0.7956
G01 X21.1243 Y-0.7910
G01 X21.1186 Y-0.7887
G01 X21.1096 Y-0.7862
G01 X21.1035 Y-0.7853
G01 X21.0972 Y-0.7850
G01 X19.8984 Y-0.7850
G01 X19.8921 Y-0.7853
G01 X19.8830 Y-0.7869
G01 X19.8741 Y-0.7898
G01 X19.8658 Y-0.7940
G01 X19.8581 Y-0.7994
G01 X19.8514 Y-0.8058
G01 X19.8456 Y-0.8131
G01 X19.8410 Y-0.8213
G01 X19.8377 Y-0.8300
G01 X19.8362 Y-0.8360
G01 X19.8353 Y-0.8421
G01 X19.8350 Y-0.8484
G01 X19.8350 Y-3.3477
G01 X19.8356 Y-3.3570
G01 X19.8369 Y-3.3631
G01 X19.8387 Y-3.3691
G01 X19.8410 Y-3.3748
G01 X19.8440 Y-3.3803
G01 X19.8474 Y-3.3855
G01 X19.8514 Y-3.3903
G01 X19.8558 Y-3.3947
G01 X19.8606 Y-3.3986
G01 X19.8658 Y-3.4021
G01 X19.8713 Y-3.4050
G01 X19.8770 Y-3.4074
G01 X19.8830 Y-3.4092
G01 X19.8891 Y-3.4104
G01 X19.8952 Y-3.4110
G00 Z1.9990
G00 X21.0186 Y-3.5250
G01 F30.00
G01 Z-0.0600
G01 F30.00
G01 X21.0972 Y-3.5250
G01 X21.1146 Y-3.5241
G01 X21.1233 Y-3.5231
G01 X21.1403 Y-3.5197
G01 X21.1570 Y-3.5146
G01 X21.1730 Y-3.5080
G01 X21.1808 Y-3.5041
G01 X21.1901 Y-3.4987
G01 X21.1950 Y-3.5161
G01 X21.2002 Y-3.5321
G01 X21.2092 Y-3.5560
G01 X21.2178 Y-3.5753
G01 X21.2253 Y-3.5904
G01 X21.2400 Y-3.6164
G01 X21.2491 Y-3.6306
G01 X21.2613 Y-3.6479
G01 X21.2743 Y-3.6646
G01 X21.2853 Y-3.6773
G01 X21.3059 Y-3.6990
G01 X21.3181 Y-3.7105
G01 X21.3309 Y-3.7216
G01 X21.2496 Y-3.7216
G01 X21.2323 Y-3.7225
G01 X21.2236 Y-3.7236
G01 X21.2066 Y-3.7269
G01 X21.1899 Y-3.7320
G01 X21.1738 Y-3.7387
G01 X21.1590 Y-3.7466
G01 X21.1545 Y-3.7305
G01 X21.1478 Y-3.7104
G01 X21.1402 Y-3.6906
G01 X21.1334 Y-3.6752
G01 X21.1200 Y-3.6486
G01 X21.1117 Y-3.6339
G01 X21.1027 Y-3.6197
G01 X21.0855 Y-3.5953
G01 X21.0751 Y-3.5820
G01 X21.0613 Y-3.5660
G01 X21.0436 Y-3.5476
G01 X21.0313 Y-3.5361
G01 X21.0186 Y-3.5250
G00 Z1.9990
G00 X22.6898 Y-3.7084
G01 F30.00
G01 Z-0.0600
G01 F30.00
G01 X23.9395 Y-3.7084
G01 X23.9395 Y-3.9267
G01 X23.8124 Y-3.9267
G01 X23.8124 Y-3.8989
G01 X23.8117 Y-3.8896
G01 X23.8105 Y-3.8835
G01 X23.8076 Y-3.8746
G01 X23.8049 Y-3.8690
G01 X23.8017 Y-3.8637
G01 X23.7960 Y-3.8563
G01 X23.7916 Y-3.8519
G01 X23.7868 Y-3.8480
G01 X23.7789 Y-3.8430
G01 X23.7704 Y-3.8392
G01 X23.7644 Y-3.8374
G01 X23.7583 Y-3.8362
G01 X23.7521 Y-3.8356
G01 X22.6898 Y-3.8355
G01 X22.6898 Y-3.7084
G00 Z1.9990
G00 X21.0189 Y-5.3140
G01 F30.00
G01 Z-0.0600
G01 F30.00
G01 X21.0313 Y-5.3031
G01 X21.0467 Y-5.2885
G01 X21.0613 Y-5.2732
G01 X21.0723 Y-5.2605
G01 X21.0907 Y-5.2369
G01 X21.1003 Y-5.2231
G01 X21.1104 Y-5.2074
G01 X21.1183 Y-5.2168
G01 X21.1306 Y-5.2291
G01 X21.1440 Y-5.2402
G01 X21.1571 Y-5.2489
G01 X21.1440 Y-5.2577
G01 X21.1372 Y-5.2630
G01 X21.1243 Y-5.2747
G01 X21.1126 Y-5.2876
G01 X21.1073 Y-5.2944
G01 X21.1022 Y-5.3016
G01 X21.0947 Y-5.3140
G01 X21.0189 Y-5.3140
G00 Z1.9990
G00 X21.2465 Y-8.1608
G01 F30.00
G01 Z-0.0600
G01 F30.00
G01 X23.7490 Y-8.1609
G01 X23.7552 Y-8.1606
G01 X23.7644 Y-8.1590
G01 X23.7733 Y-8.1561
G01 X23.7789 Y-8.1534
G01 X23.7842 Y-8.1502
G01 X23.7916 Y-8.1445
G01 X23.7980 Y-8.1377
G01 X23.8017 Y-8.1327
G01 X23.8049 Y-8.1274
G01 X23.8076 Y-8.1218
G01 X23.8097 Y-8.1159
G01 X23.8117 Y-8.1068
G01 X23.8124 Y-8.0975
G01 X23.8124 Y-7.8156
G01 X24.6812 Y-7.8156
G01 X24.6812 Y-18.9992
G01 X24.6815 Y-19.0132
G01 X24.6829 Y-19.0319
G01 X24.6846 Y-19.0458
G01 X24.6873 Y-19.0611
G01 X24.6907 Y-19.0764
G01 X24.6944 Y-19.0899
G01 X24.7003 Y-19.1076
G01 X24.7053 Y-19.1207
G01 X24.7116 Y-19.1350
G01 X24.7186 Y-19.1489
G01 X24.7255 Y-19.1611
G01 X24.7355 Y-19.1769
G01 X24.7436 Y-19.1884
G01 X24.7532 Y-19.2006
G01 X24.7634 Y-19.2124
G01 X24.7742 Y-19.2237
G01 X25.1815 Y-19.6311
G01 X25.1815 Y-24.6812
G01 X23.9192 Y-24.6812
G01 X23.9036 Y-24.6815
G01 X23.8896 Y-24.6825
G01 X23.8726 Y-24.6846
G01 X23.8572 Y-24.6873
G01 X23.8435 Y-24.6903
G01 X23.8270 Y-24.6948
G01 X23.8122 Y-24.6997
G01 X23.7991 Y-24.7047
G01 X23.7834 Y-24.7116
G01 X23.7681 Y-24.7194
G01 X23.7559 Y-24.7263
G01 X23.7428 Y-24.7347
G01 X23.7288 Y-24.7446
G01 X23.7177 Y-24.7532
G01 X23.7071 Y-24.7624
G01 X23.6947 Y-24.7742
G01 X23.6829 Y-24.7866
G01 X23.6737 Y-24.7972
G01 X23.6651 Y-24.8083
G01 X23.6543 Y-24.8236
G01 X23.6468 Y-24.8354
G01 X23.6399 Y-24.8476
G01 X23.6321 Y-24.8629
G01 X23.6258 Y-24.8772
G01 X23.6208 Y-24.8902
G01 X23.6149 Y-24.9080
G01 X23.6112 Y-24.9215
G01 X23.6081 Y-24.9352
G01 X23.6051 Y-24.9521
G01 X23.6032 Y-24.9676
G01 X23.6021 Y-24.9815
G01 X23.6017 Y-24.9987
G01 X23.6017 Y-31.9681
G01 X23.5555 Y-31.9834
G01 X23.5061 Y-32.0024
G01 X23.4577 Y-32.0239
G01 X23.4117 Y-32.0470
G01 X23.3629 Y-32.0747
G01 X23.3195 Y-32.1022
G01 X23.2774 Y-32.1318
G01 X23.2332 Y-32.1663
G01 X23.1943 Y-32.1999
G01 X23.1559 Y-32.2364
G01 X23.1184 Y-32.2760
G01 X23.0848 Y-32.3149
G01 X23.0531 Y-32.3554
G01 X23.0208 Y-32.4013
G01 X22.9933 Y-32.4448
G01 X22.9672 Y-32.4909
G01 X22.9434 Y-32.5382
G01 X22.9226 Y-32.5852
G01 X22.9029 Y-32.6360
G01 X22.8858 Y-32.6878
G01 X22.8721 Y-32.7374
G01 X22.8605 Y-32.7891
G01 X22.8515 Y-32.8413
G01 X22.8451 Y-32.8923
G01 X22.8410 Y-32.9483
G01 X22.8398 Y-32.9997
G01 X22.8412 Y-33.0542
G01 X22.8450 Y-33.1055
G01 X22.8513 Y-33.1565
G01 X22.8602 Y-33.2087
G01 X22.8721 Y-33.2620
G01 X22.8863 Y-33.3130
G01 X22.9029 Y-33.3633
G01 X22.9219 Y-33.4127
G01 X22.9434 Y-33.4612
G01 X22.9672 Y-33.5085
G01 X22.9933 Y-33.5546
G01 X23.0226 Y-33.6006
G01 X23.0522 Y-33.6427
G01 X23.0858 Y-33.6856
G01 X23.1194 Y-33.7246
G01 X23.1548 Y-33.7618
G01 X23.1932 Y-33.7984
G01 X23.2344 Y-33.8341
G01 X23.2762 Y-33.8667
G01 X23.3195 Y-33.8972
G01 X23.3643 Y-33.9255
G01 X23.4104 Y-33.9516
G01 X23.4577 Y-33.9754
G01 X23.5061 Y-33.9969
G01 X23.5570 Y-34.0165
G01 X23.6073 Y-34.0330
G01 X23.6569 Y-34.0467
G01 X23.7071 Y-34.0580
G01 X23.7608 Y-34.0674
G01 X23.8118 Y-34.0737
G01 X23.8662 Y-34.0778
G01 X23.9192 Y-34.0791
G01 X23.9721 Y-34.0778
G01 X24.0250 Y-34.0739
G01 X24.0776 Y-34.0674
G01 X24.1298 Y-34.0583
G01 X24.1815 Y-34.0467
G01 X24.2310 Y-34.0330
G01 X24.2828 Y-34.0160
G01 X24.3308 Y-33.9975
G01 X24.3821 Y-33.9748
G01 X24.4280 Y-33.9516
G01 X24.4741 Y-33.9255
G01 X24.5189 Y-33.8972
G01 X24.5622 Y-33.8667
G01 X24.6039 Y-33.8341
G01 X24.6441 Y-33.7995
G01 X24.6824 Y-33.7629
G01 X24.7190 Y-33.7246
G01 X24.7536 Y-33.6844
G01 X24.7862 Y-33.6427
G01 X24.8167 Y-33.5994
G01 X24.8442 Y-33.5559
G01 X24.8711 Y-33.5085
G01 X24.8943 Y-33.4626
G01 X24.9170 Y-33.4113
G01 X24.9355 Y-33.3633
G01 X24.9521 Y-33.3130
G01 X24.9662 Y-33.2620
G01 X24.9778 Y-33.2103
G01 X24.9869 Y-33.1581
G01 X24.9934 Y-33.1055
G01 X24.9973 Y-33.0526
G01 X24.9986 Y-33.0012
G01 X24.9972 Y-32.9452
G01 X24.9934 Y-32.8939
G01 X24.9869 Y-32.8413
G01 X24.9778 Y-32.7891
G01 X24.9666 Y-32.7389
G01 X24.9516 Y-32.6849
G01 X24.9355 Y-32.6360
G01 X24.9164 Y-32.5866
G01 X24.8949 Y-32.5382
G01 X24.8718 Y-32.4922
G01 X24.8442 Y-32.4434
G01 X24.8167 Y-32.4000
G01 X24.7862 Y-32.3567
G01 X24.7526 Y-32.3137
G01 X24.7190 Y-32.2748
G01 X24.6824 Y-32.2364
G01 X24.6441 Y-32.1999
G01 X24.6051 Y-32.1663
G01 X24.5609 Y-32.1318
G01 X24.5189 Y-32.1022
G01 X24.4754 Y-32.0747
G01 X24.4266 Y-32.0470
G01 X24.3807 Y-32.0239
G01 X24.3322 Y-32.0024
G01 X24.2828 Y-31.9834
G01 X24.2367 Y-31.9681
G01 X24.2367 Y-25.3162
G01 X25.4991 Y-25.3162
G01 X25.5146 Y-25.3158
G01 X25.5302 Y-25.3147
G01 X25.5457 Y-25.3128
G01 X25.5610 Y-25.3101
G01 X25.5762 Y-25.3067
G01 X25.5897 Y-25.3030
G01 X25.6075 Y-25.2971
G01 X25.6206 Y-25.2920
G01 X25.6348 Y-25.2857
G01 X25.6487 Y-25.2787
G01 X25.6610 Y-25.2718
G01 X25.6768 Y-25.2618
G01 X25.6882 Y-25.2537
G01 X25.7005 Y-25.2441
G01 X25.7123 Y-25.2340
G01 X25.7225 Y-25.2243
G01 X25.7354 Y-25.2108
G01 X25.7445 Y-25.2001
G01 X25.7541 Y-25.1878
G01 X25.7631 Y-25.1751
G01 X25.7706 Y-25.1632
G01 X25.7798 Y-25.1470
G01 X25.7861 Y-25.1344
G01 X25.7924 Y-25.1202
G01 X25.7980 Y-25.1057
G01 X25.8029 Y-25.0909
G01 X25.8071 Y-25.0758
G01 X25.8102 Y-25.0621
G01 X25.8134 Y-25.0437
G01 X25.8151 Y-25.0298
G01 X25.8162 Y-25.0143
G01 X25.8166 Y-24.9987
G01 X25.8166 Y-19.4996
G01 X25.8162 Y-19.4840
G01 X25.8152 Y-19.4700
G01 X25.8129 Y-19.4515
G01 X25.8105 Y-19.4376
G01 X25.8071 Y-19.4224
G01 X25.8024 Y-19.4059
G01 X25.7980 Y-19.3926
G01 X25.7924 Y-19.3781
G01 X25.7854 Y-19.3624
G01 X25.7791 Y-19.3499
G01 X25.7714 Y-19.3363
G01 X25.7622 Y-19.3219
G01 X25.7541 Y-19.3104
G01 X25.7445 Y-19.2981
G01 X25.7343 Y-19.2863
G01 X25.7236 Y-19.2751
G01 X25.3162 Y-18.8677
G01 X25.3162 Y-7.4981
G01 X25.3158 Y-7.4825
G01 X25.3147 Y-7.4670
G01 X25.3128 Y-7.4515
G01 X25.3104 Y-7.4377
G01 X25.3063 Y-7.4194
G01 X25.3025 Y-7.4059
G01 X25.2976 Y-7.3911
G01 X25.2914 Y-7.3751
G01 X25.2857 Y-7.3623
G01 X25.2787 Y-7.3484
G01 X25.2702 Y-7.3335
G01 X25.2627 Y-7.3217
G01 X25.2537 Y-7.3089
G01 X25.2441 Y-7.2966
G01 X25.2350 Y-7.2860
G01 X25.2221 Y-7.2725
G01 X25.2119 Y-7.2628
G01 X25.2013 Y-7.2536
G01 X25.1878 Y-7.2430
G01 X25.1751 Y-7.2341
G01 X25.1632 Y-7.2265
G01 X25.1470 Y-7.2173
G01 X25.1344 Y-7.2110
G01 X25.1216 Y-7.2053
G01 X25.1042 Y-7.1986
G01 X25.0909 Y-7.1942
G01 X25.0758 Y-7.1901
G01 X25.0606 Y-7.1867
G01 X25.0468 Y-7.1842
G01 X25.0283 Y-7.1819
G01 X25.0143 Y-7.1809
G01 X24.9987 Y-7.1806
G01 X23.8124 Y-7.1806
G01 X23.8124 Y-6.8986
G01 X23.8117 Y-6.8893
G01 X23.8105 Y-6.8832
G01 X23.8087 Y-6.8773
G01 X23.8049 Y-6.8688
G01 X23.7999 Y-6.8609
G01 X23.7938 Y-6.8538
G01 X23.7868 Y-6.8477
G01 X23.7816 Y-6.8443
G01 X23.7761 Y-6.8413
G01 X23.7674 Y-6.8380
G01 X23.7583 Y-6.8359
G01 X23.7490 Y-6.8352
G01 X21.2496 Y-6.8352
G01 X21.2434 Y-6.8355
G01 X21.2373 Y-6.8365
G01 X21.2312 Y-6.8380
G01 X21.2254 Y-6.8401
G01 X21.2170 Y-6.8443
G01 X21.2119 Y-6.8477
G01 X21.2071 Y-6.8517
G01 X21.2006 Y-6.8584
G01 X21.1969 Y-6.8634
G01 X21.1937 Y-6.8688
G01 X21.1899 Y-6.8773
G01 X21.1875 Y-6.8863
G01 X21.1863 Y-6.8955
G01 X21.1862 Y-8.0975
G01 X21.1869 Y-8.1068
G01 X21.1881 Y-8.1129
G01 X21.1899 Y-8.1189
G01 X21.1923 Y-8.1246
G01 X21.1953 Y-8.1301
G01 X21.1987 Y-8.1353
G01 X21.2027 Y-8.1401
G01 X21.2071 Y-8.1445
G01 X21.2119 Y-8.1484
G01 X21.2170 Y-8.1519
G01 X21.2225 Y-8.1548
G01 X21.2283 Y-8.1572
G01 X21.2342 Y-8.1590
G01 X21.2403 Y-8.1602
G01 X21.2465 Y-8.1608
G00 Z1.9990
G00 X21.2465 Y-9.6620
G01 F30.00
G01 Z-0.0600
G01 F30.00
G01 X23.7490 Y-9.6621
G01 X23.7552 Y-9.6618
G01 X23.7644 Y-9.6602
G01 X23.7733 Y-9.6572
G01 X23.7789 Y-9.6546
G01 X23.7868 Y-9.6496
G01 X23.7938 Y-9.6435
G01 X23.7980 Y-9.6389
G01 X23.8034 Y-9.6313
G01 X23.8076 Y-9.6229
G01 X23.8105 Y-9.6141
G01 X23.8121 Y-9.6049
G01 X23.8124 Y-9.5987
G01 X23.8124 Y-8.3998
G01 X23.8121 Y-8.3936
G01 X23.8105 Y-8.3844
G01 X23.8076 Y-8.3755
G01 X23.8049 Y-8.3699
G01 X23.7999 Y-8.3620
G01 X23.7938 Y-8.3549
G01 X23.7868 Y-8.3489
G01 X23.7816 Y-8.3454
G01 X23.7733 Y-8.3412
G01 X23.7644 Y-8.3383
G01 X23.7552 Y-8.3367
G01 X23.7490 Y-8.3364
G01 X21.2496 Y-8.3364
G01 X21.2434 Y-8.3367
G01 X21.2342 Y-8.3383
G01 X21.2254 Y-8.3412
G01 X21.2198 Y-8.3439
G01 X21.2119 Y-8.3489
G01 X21.2071 Y-8.3528
G01 X21.2006 Y-8.3596
G01 X21.1953 Y-8.3672
G01 X21.1911 Y-8.3755
G01 X21.1890 Y-8.3814
G01 X21.1869 Y-8.3905
G01 X21.1863 Y-8.3967
G01 X21.1862 Y-9.5987
G01 X21.1869 Y-9.6080
G01 X21.1881 Y-9.6141
G01 X21.1899 Y-9.6200
G01 X21.1923 Y-9.6258
G01 X21.1953 Y-9.6313
G01 X21.1987 Y-9.6364
G01 X21.2027 Y-9.6412
G01 X21.2071 Y-9.6456
G01 X21.2119 Y-9.6496
G01 X21.2170 Y-9.6530
G01 X21.2225 Y-9.6560
G01 X21.2283 Y-9.6584
G01 X21.2342 Y-9.6602
G01 X21.2403 Y-9.6614
G01 X21.2465 Y-9.6620
G00 Z1.9990
G00 X21.2465 Y-11.1606
G01 F30.00
G01 Z-0.0600
G01 F30.00
G01 X23.7490 Y-11.1607
G01 X23.7552 Y-11.1604
G01 X23.7644 Y-11.1588
G01 X23.7733 Y-11.1558
G01 X23.7789 Y-11.1532
G01 X23.7868 Y-11.1482
G01 X23.7938 Y-11.1421
G01 X23.7980 Y-11.1375
G01 X23.8034 Y-11.1299
G01 X23.8076 Y-11.1215
G01 X23.8105 Y-11.1127
G01 X23.8121 Y-11.1035
G01 X23.8124 Y-11.0973
G01 X23.8124 Y-9.8984
G01 X23.8121 Y-9.8922
G01 X23.8105 Y-9.8830
G01 X23.8076 Y-9.8741
G01 X23.8049 Y-9.8685
G01 X23.7999 Y-9.8606
G01 X23.7938 Y-9.8535
G01 X23.7868 Y-9.8475
G01 X23.7816 Y-9.8440
G01 X23.7733 Y-9.8398
G01 X23.7644 Y-9.8369
G01 X23.7552 Y-9.8353
G01 X23.7490 Y-9.8350
G01 X21.2496 Y-9.8350
G01 X21.2434 Y-9.8353
G01 X21.2342 Y-9.8369
G01 X21.2254 Y-9.8398
G01 X21.2198 Y-9.8425
G01 X21.2119 Y-9.8475
G01 X21.2071 Y-9.8514
G01 X21.2006 Y-9.8582
G01 X21.1953 Y-9.8658
G01 X21.1911 Y-9.8741
G01 X21.1890 Y-9.8800
G01 X21.1869 Y-9.8891
G01 X21.1863 Y-9.8953
G01 X21.1862 Y-11.0973
G01 X21.1869 Y-11.1066
G01 X21.1881 Y-11.1127
G01 X21.1899 Y-11.1186
G01 X21.1923 Y-11.1244
G01 X21.1953 Y-11.1299
G01 X21.1987 Y-11.1350
G01 X21.2027 Y-11.1398
G01 X21.2071 Y-11.1442
G01 X21.2119 Y-11.1482
G01 X21.2170 Y-11.1516
G01 X21.2225 Y-11.1546
G01 X21.2283 Y-11.1570
G01 X21.2342 Y-11.1588
G01 X21.2403 Y-11.1600
G01 X21.2465 Y-11.1606
G00 Z1.9990
G00 X21.2465 Y-12.6617
G01 F30.00
G01 Z-0.0600
G01 F30.00
G01 X23.7490 Y-12.6618
G01 X23.7583 Y-12.6611
G01 X23.7644 Y-12.6599
G01 X23.7733 Y-12.6570
G01 X23.7789 Y-12.6543
G01 X23.7842 Y-12.6511
G01 X23.7916 Y-12.6454
G01 X23.7980 Y-12.6386
G01 X23.8034 Y-12.6310
G01 X23.8076 Y-12.6227
G01 X23.8105 Y-12.6138
G01 X23.8121 Y-12.6046
G01 X23.8124 Y-12.5984
G01 X23.8124 Y-11.3995
G01 X23.8121 Y-11.3933
G01 X23.8105 Y-11.3841
G01 X23.8076 Y-11.3753
G01 X23.8049 Y-11.3696
G01 X23.7999 Y-11.3618
G01 X23.7960 Y-11.3569
G01 X23.7892 Y-11.3505
G01 X23.7816 Y-11.3451
G01 X23.7733 Y-11.3409
G01 X23.7674 Y-11.3388
G01 X23.7583 Y-11.3368
G01 X23.7490 Y-11.3361
G01 X21.2496 Y-11.3361
G01 X21.2403 Y-11.3368
G01 X21.2342 Y-11.3380
G01 X21.2254 Y-11.3409
G01 X21.2198 Y-11.3436
G01 X21.2144 Y-11.3468
G01 X21.2071 Y-11.3525
G01 X21.2006 Y-11.3593
G01 X21.1953 Y-11.3669
G01 X21.1911 Y-11.3753
G01 X21.1890 Y-11.3811
G01 X21.1869 Y-11.3902
G01 X21.1863 Y-11.3964
G01 X21.1862 Y-12.5984
G01 X21.1869 Y-12.6077
G01 X21.1881 Y-12.6138
G01 X21.1899 Y-12.6198
G01 X21.1923 Y-12.6255
G01 X21.1953 Y-12.6310
G01 X21.1987 Y-12.6362
G01 X21.2027 Y-12.6410
G01 X21.2071 Y-12.6454
G01 X21.2119 Y-12.6493
G01 X21.2170 Y-12.6528
G01 X21.2225 Y-12.6557
G01 X21.2283 Y-12.6581
G01 X21.2342 Y-12.6599
G01 X21.2403 Y-12.6611
G01 X21.2465 Y-12.6617
G00 Z1.9990
G00 X21.2465 Y-14.1603
G01 F30.00
G01 Z-0.0600
G01 F30.00
G01 X23.7490 Y-14.1604
G01 X23.7552 Y-14.1601
G01 X23.7644 Y-14.1585
G01 X23.7733 Y-14.1556
G01 X23.7789 Y-14.1529
G01 X23.7868 Y-14.1479
G01 X23.7938 Y-14.1418
G01 X23.7999 Y-14.1348
G01 X23.8034 Y-14.1296
G01 X23.8076 Y-14.1213
G01 X23.8105 Y-14.1124
G01 X23.8121 Y-14.1032
G01 X23.8124 Y-14.0970
G01 X23.8124 Y-12.8981
G01 X23.8121 Y-12.8919
G01 X23.8105 Y-12.8827
G01 X23.8087 Y-12.8768
G01 X23.8049 Y-12.8682
G01 X23.7999 Y-12.8604
G01 X23.7938 Y-12.8533
G01 X23.7892 Y-12.8491
G01 X23.7816 Y-12.8437
G01 X23.7761 Y-12.8408
G01 X23.7674 Y-12.8374
G01 X23.7583 Y-12.8354
G01 X23.7490 Y-12.8347
G01 X21.2496 Y-12.8347
G01 X21.2403 Y-12.8354
G01 X21.2342 Y-12.8366
G01 X21.2254 Y-12.8395
G01 X21.2198 Y-12.8422
G01 X21.2119 Y-12.8472
G01 X21.2071 Y-12.8511
G01 X21.2006 Y-12.8579
G01 X21.1953 Y-12.8655
G01 X21.1923 Y-12.8710
G01 X21.1890 Y-12.8797
G01 X21.1869 Y-12.8888
G01 X21.1863 Y-12.8950
G01 X21.1862 Y-14.0970
G01 X21.1869 Y-14.1063
G01 X21.1881 Y-14.1124
G01 X21.1899 Y-14.1184
G01 X21.1923 Y-14.1241
G01 X21.1953 Y-14.1296
G01 X21.1987 Y-14.1348
G01 X21.2027 Y-14.1396
G01 X21.2071 Y-14.1440
G01 X21.2119 Y-14.1479
G01 X21.2170 Y-14.1514
G01 X21.2225 Y-14.1543
G01 X21.2283 Y-14.1567
G01 X21.2342 Y-14.1585
G01 X21.2403 Y-14.1597
G01 X21.2465 Y-14.1603
G00 Z1.9990
G00 X21.2465 Y-15.6615
G01 F30.00
G01 Z-0.0600
G01 F30.00
G01 X23.7490 Y-15.6615
G01 X23.7552 Y-15.6612
G01 X23.7644 Y-15.6596
G01 X23.7733 Y-15.6567
G01 X23.7789 Y-15.6541
G01 X23.7868 Y-15.6491
G01 X23.7938 Y-15.6430
G01 X23.7999 Y-15.6359
G01 X23.8034 Y-15.6307
G01 X23.8076 Y-15.6224
G01 X23.8105 Y-15.6135
G01 X23.8121 Y-15.6044
G01 X23.8124 Y-15.5981
G01 X23.8124 Y-14.3993
G01 X23.8121 Y-14.3930
G01 X23.8105 Y-14.3839
G01 X23.8087 Y-14.3779
G01 X23.8049 Y-14.3694
G01 X23.7999 Y-14.3615
G01 X23.7938 Y-14.3544
G01 X23.7892 Y-14.3503
G01 X23.7816 Y-14.3449
G01 X23.7761 Y-14.3419
G01 X23.7674 Y-14.3386
G01 X23.7583 Y-14.3365
G01 X23.7490 Y-14.3359
G01 X21.2496 Y-14.3359
G01 X21.2403 Y-14.3365
G01 X21.2342 Y-14.3378
G01 X21.2254 Y-14.3407
G01 X21.2198 Y-14.3433
G01 X21.2119 Y-14.3483
G01 X21.2071 Y-14.3523
G01 X21.2006 Y-14.3590
G01 X21.1953 Y-14.3667
G01 X21.1923 Y-14.3722
G01 X21.1890 Y-14.3809
G01 X21.1869 Y-14.3900
G01 X21.1863 Y-14.3961
G01 X21.1862 Y-15.5981
G01 X21.1869 Y-15.6074
G01 X21.1881 Y-15.6135
G01 X21.1899 Y-15.6195
G01 X21.1923 Y-15.6252
G01 X21.1953 Y-15.6307
G01 X21.1987 Y-15.6359
G01 X21.2027 Y-15.6407
G01 X21.2071 Y-15.6451
G01 X21.2119 Y-15.6491
G01 X21.2170 Y-15.6525
G01 X21.2225 Y-15.6555
G01 X21.2283 Y-15.6578
G01 X21.2342 Y-15.6596
G01 X21.2403 Y-15.6609
G01 X21.2465 Y-15.6615
G00 Z1.9990
G00 X21.2465 Y-17.1626
G01 F30.00
G01 Z-0.0600
G01 F30.00
G01 X23.7490 Y-17.1627
G01 X23.7552 Y-17.1624
G01 X23.7644 Y-17.1608
G01 X23.7733 Y-17.1579
G01 X23.7789 Y-17.1552
G01 X23.7842 Y-17.1520
G01 X23.7916 Y-17.1463
G01 X23.7980 Y-17.1395
G01 X23.8034 Y-17.1319
G01 X23.8076 Y-17.1235
G01 X23.8105 Y-17.1147
G01 X23.8121 Y-17.1055
G01 X23.8124 Y-17.0993
G01 X23.8124 Y-15.9004
G01 X23.8121 Y-15.8942
G01 X23.8105 Y-15.8850
G01 X23.8087 Y-15.8790
G01 X23.8049 Y-15.8705
G01 X23.8017 Y-15.8652
G01 X23.7960 Y-15.8578
G01 X23.7892 Y-15.8514
G01 X23.7816 Y-15.8460
G01 X23.7733 Y-15.8418
G01 X23.7644 Y-15.8389
G01 X23.7552 Y-15.8373
G01 X23.7490 Y-15.8370
G01 X21.2496 Y-15.8370
G01 X21.2434 Y-15.8373
G01 X21.2342 Y-15.8389
G01 X21.2283 Y-15.8407
G01 X21.2198 Y-15.8445
G01 X21.2119 Y-15.8495
G01 X21.2048 Y-15.8556
G01 X21.1987 Y-15.8626
G01 X21.1953 Y-15.8678
G01 X21.1911 Y-15.8761
G01 X21.1890 Y-15.8820
G01 X21.1869 Y-15.8911
G01 X21.1863 Y-15.8973
G01 X21.1862 Y-17.0993
G01 X21.1869 Y-17.1086
G01 X21.1881 Y-17.1147
G01 X21.1899 Y-17.1206
G01 X21.1923 Y-17.1264
G01 X21.1953 Y-17.1319
G01 X21.1987 Y-17.1370
G01 X21.2027 Y-17.1419
G01 X21.2071 Y-17.1463
G01 X21.2119 Y-17.1502
G01 X21.2170 Y-17.1537
