(G-CODE GENERATED BY FLATCAM v8.98 - www.flatcam.org - Version Date: 2019/10/16)

(Name: Плата - CADCAM Bottom Copper.TXT_iso_copy_cnc)
(Type: G-code from Geometry)
(Units: MM)

(Created on Wednesday, 08 January 2020 at 10:27)

(TOOL DIAMETER: 0.2 mm)
(Feedrate: 20.0 mm/min)
(Feedrate_Z: 20.0 mm/min)
(Feedrate rapids 20.0 mm/min)

(Z_Cut: -0.06 mm)
(DepthPerCut: 0.06 mm <=>1 passes)
(Z_Move: 1.0 mm)
(Z Toolchange: 10.0 mm)
(X,Y Toolchange: 0.0000, 0.0000 mm)
(Z Start: None mm)
(Z End: 10.0 mm)
(Steps per circle: 128)
(Postprocessor Geometry: default)

(X range:  -53.1712 ...    3.8403  mm)
(Y range:  -44.6190 ...    2.1690  mm)

(Spindle Speed: 500 RPM)

G21
G90
G94

G01 F20.00
G00 Z1.0000

M03 S500
G00 X-4.5048 Y1.0012
G01 F20.00
G01 Z-0.0600
G01 F20.00
G01 X-4.5062 Y1.0547
G01 X-4.5102 Y1.1092
G01 X-4.5169 Y1.1635
G01 X-4.5263 Y1.2174
G01 X-4.5382 Y1.2708
G01 X-4.5528 Y1.3235
G01 X-4.5700 Y1.3754
G01 X-4.5897 Y1.4265
G01 X-4.6118 Y1.4765
G01 X-4.6364 Y1.5253
G01 X-4.6634 Y1.5729
G01 X-4.6927 Y1.6191
G01 X-4.7241 Y1.6638
G01 X-4.7578 Y1.7070
G01 X-4.7935 Y1.7484
G01 X-4.8312 Y1.7880
G01 X-4.8709 Y1.8257
G01 X-4.9123 Y1.8614
G01 X-4.9554 Y1.8951
G01 X-5.0001 Y1.9266
G01 X-5.0463 Y1.9559
G01 X-5.0939 Y1.9828
G01 X-5.1428 Y2.0074
G01 X-5.1928 Y2.0296
G01 X-5.2438 Y2.0493
G01 X-5.2957 Y2.0664
G01 X-5.3485 Y2.0810
G01 X-5.4018 Y2.0930
G01 X-5.4557 Y2.1023
G01 X-5.5100 Y2.1090
G01 X-5.5646 Y2.1131
G01 X-5.6192 Y2.1144
G01 X-5.6739 Y2.1131
G01 X-5.7285 Y2.1090
G01 X-5.7828 Y2.1023
G01 X-5.8366 Y2.0930
G01 X-5.8900 Y2.0810
G01 X-5.9427 Y2.0664
G01 X-5.9947 Y2.0493
G01 X-6.0457 Y2.0296
G01 X-6.0957 Y2.0074
G01 X-6.1446 Y1.9828
G01 X-6.1922 Y1.9559
G01 X-6.2384 Y1.9266
G01 X-6.2831 Y1.8951
G01 X-6.3262 Y1.8614
G01 X-6.3676 Y1.8257
G01 X-6.4072 Y1.7880
G01 X-6.4450 Y1.7484
G01 X-6.4807 Y1.7070
G01 X-6.5143 Y1.6638
G01 X-6.5458 Y1.6191
G01 X-6.5751 Y1.5729
G01 X-6.6021 Y1.5253
G01 X-6.6266 Y1.4765
G01 X-6.6488 Y1.4265
G01 X-6.6685 Y1.3754
G01 X-6.6857 Y1.3235
G01 X-6.7002 Y1.2708
G01 X-6.7122 Y1.2174
G01 X-6.7216 Y1.1635
G01 X-6.7283 Y1.1092
G01 X-6.7323 Y1.0547
G01 X-6.7336 Y1.0000
G01 X-6.7323 Y0.9453
G01 X-6.7283 Y0.8908
G01 X-6.7216 Y0.8365
G01 X-6.7122 Y0.7826
G01 X-6.7002 Y0.7292
G01 X-6.6857 Y0.6765
G01 X-6.6685 Y0.6246
G01 X-6.6488 Y0.5735
G01 X-6.6266 Y0.5235
G01 X-6.6021 Y0.4747
G01 X-6.5751 Y0.4271
G01 X-6.5458 Y0.3809
G01 X-6.5143 Y0.3362
G01 X-6.4807 Y0.2930
G01 X-6.4450 Y0.2516
G01 X-6.4072 Y0.2120
G01 X-6.3676 Y0.1743
G01 X-6.3262 Y0.1386
G01 X-6.2831 Y0.1049
G01 X-6.2384 Y0.0734
G01 X-6.1922 Y0.0441
G01 X-6.1446 Y0.0172
G01 X-6.0957 Y-0.0074
G01 X-6.0457 Y-0.0296
G01 X-5.9947 Y-0.0493
G01 X-5.9427 Y-0.0664
G01 X-5.8900 Y-0.0810
G01 X-5.8366 Y-0.0930
G01 X-5.7828 Y-0.1023
G01 X-5.7285 Y-0.1090
G01 X-5.6739 Y-0.1131
G01 X-5.6192 Y-0.1144
G01 X-5.5646 Y-0.1131
G01 X-5.5100 Y-0.1090
G01 X-5.4557 Y-0.1023
G01 X-5.4018 Y-0.0930
G01 X-5.3485 Y-0.0810
G01 X-5.2957 Y-0.0664
G01 X-5.2438 Y-0.0493
G01 X-5.1928 Y-0.0296
G01 X-5.1428 Y-0.0074
G01 X-5.0939 Y0.0172
G01 X-5.0463 Y0.0441
G01 X-5.0001 Y0.0734
G01 X-4.9554 Y0.1049
G01 X-4.9123 Y0.1386
G01 X-4.8709 Y0.1743
G01 X-4.8312 Y0.2120
G01 X-4.7935 Y0.2516
G01 X-4.7578 Y0.2930
G01 X-4.7241 Y0.3362
G01 X-4.6927 Y0.3809
G01 X-4.6634 Y0.4271
G01 X-4.6364 Y0.4747
G01 X-4.6118 Y0.5235
G01 X-4.5897 Y0.5735
G01 X-4.5700 Y0.6246
G01 X-4.5528 Y0.6765
G01 X-4.5382 Y0.7292
G01 X-4.5263 Y0.7826
G01 X-4.5169 Y0.8365
G01 X-4.5102 Y0.8908
G01 X-4.5062 Y0.9453
G01 X-4.5048 Y1.0012
G00 Z1.0000
G00 X-6.1050 Y2.1690
G01 F20.00
G01 Z-0.0600
G01 F20.00
G01 X-5.1335 Y2.1690
G01 X-4.4477 Y1.4832
G01 X-4.4477 Y0.5168
G01 X-5.1335 Y-0.1690
G01 X-6.1050 Y-0.1690
G01 X-6.7908 Y0.5168
G01 X-6.7908 Y1.4832
G01 X-6.1050 Y2.1690
G00 Z1.0000
G00 X-9.5848 Y1.0012
G01 F20.00
G01 Z-0.0600
G01 F20.00
G01 X-9.5862 Y1.0547
G01 X-9.5902 Y1.1092
G01 X-9.5969 Y1.1635
G01 X-9.6063 Y1.2174
G01 X-9.6182 Y1.2708
G01 X-9.6328 Y1.3235
G01 X-9.6500 Y1.3754
G01 X-9.6697 Y1.4265
G01 X-9.6918 Y1.4765
G01 X-9.7164 Y1.5253
G01 X-9.7434 Y1.5729
G01 X-9.7727 Y1.6191
G01 X-9.8041 Y1.6638
G01 X-9.8378 Y1.7070
G01 X-9.8735 Y1.7484
G01 X-9.9112 Y1.7880
G01 X-9.9509 Y1.8257
G01 X-9.9923 Y1.8614
G01 X-10.0354 Y1.8951
G01 X-10.0801 Y1.9266
G01 X-10.1263 Y1.9559
G01 X-10.1739 Y1.9828
G01 X-10.2228 Y2.0074
G01 X-10.2728 Y2.0296
G01 X-10.3238 Y2.0493
G01 X-10.3757 Y2.0664
G01 X-10.4285 Y2.0810
G01 X-10.4818 Y2.0930
G01 X-10.5357 Y2.1023
G01 X-10.5900 Y2.1090
G01 X-10.6446 Y2.1131
G01 X-10.6992 Y2.1144
G01 X-10.7539 Y2.1131
G01 X-10.8085 Y2.1090
G01 X-10.8628 Y2.1023
G01 X-10.9166 Y2.0930
G01 X-10.9700 Y2.0810
G01 X-11.0227 Y2.0664
G01 X-11.0747 Y2.0493
G01 X-11.1257 Y2.0296
G01 X-11.1757 Y2.0074
G01 X-11.2246 Y1.9828
G01 X-11.2722 Y1.9559
G01 X-11.3184 Y1.9266
G01 X-11.3631 Y1.8951
G01 X-11.4062 Y1.8614
G01 X-11.4476 Y1.8257
G01 X-11.4872 Y1.7880
G01 X-11.5250 Y1.7484
G01 X-11.5607 Y1.7070
G01 X-11.5943 Y1.6638
G01 X-11.6258 Y1.6191
G01 X-11.6551 Y1.5729
G01 X-11.6821 Y1.5253
G01 X-11.7066 Y1.4765
G01 X-11.7288 Y1.4265
G01 X-11.7485 Y1.3754
G01 X-11.7657 Y1.3235
G01 X-11.7802 Y1.2708
G01 X-11.7922 Y1.2174
G01 X-11.8016 Y1.1635
G01 X-11.8083 Y1.1092
G01 X-11.8123 Y1.0547
G01 X-11.8136 Y1.0000
G01 X-11.8123 Y0.9453
G01 X-11.8083 Y0.8908
G01 X-11.8016 Y0.8365
G01 X-11.7922 Y0.7826
G01 X-11.7802 Y0.7292
G01 X-11.7657 Y0.6765
G01 X-11.7485 Y0.6246
G01 X-11.7288 Y0.5735
G01 X-11.7066 Y0.5235
G01 X-11.6821 Y0.4747
G01 X-11.6551 Y0.4271
G01 X-11.6258 Y0.3809
G01 X-11.5943 Y0.3362
G01 X-11.5607 Y0.2930
G01 X-11.5250 Y0.2516
G01 X-11.4872 Y0.2120
G01 X-11.4476 Y0.1743
G01 X-11.4062 Y0.1386
G01 X-11.3631 Y0.1049
G01 X-11.3184 Y0.0734
G01 X-11.2722 Y0.0441
G01 X-11.2246 Y0.0172
G01 X-11.1757 Y-0.0074
G01 X-11.1257 Y-0.0296
G01 X-11.0747 Y-0.0493
G01 X-11.0227 Y-0.0664
G01 X-10.9700 Y-0.0810
G01 X-10.9166 Y-0.0930
G01 X-10.8628 Y-0.1023
G01 X-10.8085 Y-0.1090
G01 X-10.7539 Y-0.1131
G01 X-10.6992 Y-0.1144
G01 X-10.6446 Y-0.1131
G01 X-10.5900 Y-0.1090
G01 X-10.5357 Y-0.1023
G01 X-10.4818 Y-0.0930
G01 X-10.4285 Y-0.0810
G01 X-10.3757 Y-0.0664
G01 X-10.3238 Y-0.0493
G01 X-10.2728 Y-0.0296
G01 X-10.2228 Y-0.0074
G01 X-10.1739 Y0.0172
G01 X-10.1263 Y0.0441
G01 X-10.0801 Y0.0734
G01 X-10.0354 Y0.1049
G01 X-9.9923 Y0.1386
G01 X-9.9509 Y0.1743
G01 X-9.9112 Y0.2120
G01 X-9.8735 Y0.2516
G01 X-9.8378 Y0.2930
G01 X-9.8041 Y0.3362
G01 X-9.7727 Y0.3809
G01 X-9.7434 Y0.4271
G01 X-9.7164 Y0.4747
G01 X-9.6918 Y0.5235
G01 X-9.6697 Y0.5735
G01 X-9.6500 Y0.6246
G01 X-9.6328 Y0.6765
G01 X-9.6182 Y0.7292
G01 X-9.6063 Y0.7826
G01 X-9.5969 Y0.8365
G01 X-9.5902 Y0.8908
G01 X-9.5862 Y0.9453
G01 X-9.5848 Y1.0012
G00 Z1.0000
G00 X-11.1850 Y2.1690
G01 F20.00
G01 Z-0.0600
G01 F20.00
G01 X-10.2135 Y2.1690
G01 X-9.5277 Y1.4832
G01 X-9.5277 Y0.5168
G01 X-10.2135 Y-0.1690
G01 X-11.1850 Y-0.1690
G01 X-11.8708 Y0.5168
G01 X-11.8708 Y1.4832
G01 X-11.1850 Y2.1690
G00 Z1.0000
G00 X-14.4743 Y-6.1596
G01 F20.00
G01 Z-0.0600
G01 F20.00
G01 X-14.1917 Y-6.1596
G01 X-14.1821 Y-6.1591
G01 X-14.1725 Y-6.1577
G01 X-14.1632 Y-6.1554
G01 X-14.1541 Y-6.1521
G01 X-14.1454 Y-6.1480
G01 X-14.1371 Y-6.1430
G01 X-14.1293 Y-6.1373
G01 X-14.1222 Y-6.1308
G01 X-14.1157 Y-6.1236
G01 X-14.1073 Y-6.1118
G01 X-14.1028 Y-6.1033
G01 X-14.0991 Y-6.0943
G01 X-14.0952 Y-6.0804
G01 X-14.0935 Y-6.0660
G01 X-14.0933 Y-5.6517
G01 X-14.0362 Y-5.6517
G01 X-14.0362 Y-6.2167
G01 X-14.4743 Y-6.2167
G01 X-14.4743 Y-6.1596
G00 Z1.0000
G00 X-15.2126 Y-6.1595
G01 F20.00
G01 Z-0.0600
G01 F20.00
G01 X-14.9252 Y-6.1596
G01 X-14.9252 Y-6.2167
G01 X-15.3633 Y-6.2167
G01 X-15.3633 Y-5.5247
G01 X-15.3061 Y-5.5247
G01 X-15.3061 Y-6.0612
G01 X-15.3051 Y-6.0756
G01 X-15.3032 Y-6.0851
G01 X-15.3004 Y-6.0943
G01 X-15.2967 Y-6.1033
G01 X-15.2896 Y-6.1159
G01 X-15.2806 Y-6.1273
G01 X-15.2702 Y-6.1373
G01 X-15.2583 Y-6.1456
G01 X-15.2454 Y-6.1521
G01 X-15.2363 Y-6.1554
G01 X-15.2269 Y-6.1577
G01 X-15.2126 Y-6.1595
G00 Z1.0000
G00 X-18.5129 Y-4.3808
G01 F20.00
G01 Z-0.0600
G01 F20.00
G01 X-18.4995 Y-4.3792
G01 X-18.4863 Y-4.3768
G01 X-18.4695 Y-4.3726
G01 X-18.4566 Y-4.3685
G01 X-18.4441 Y-4.3635
G01 X-18.4285 Y-4.3562
G01 X-18.4167 Y-4.3496
G01 X-18.4073 Y-4.3437
G01 X-18.3964 Y-4.3358
G01 X-18.3830 Y-4.3249
G01 X-18.3732 Y-4.3156
G01 X-18.3655 Y-4.3076
G01 X-18.3583 Y-4.2992
G01 X-18.3501 Y-4.2886
G01 X-18.3405 Y-4.2742
G01 X-18.3349 Y-4.2646
G01 X-18.3288 Y-4.2526
G01 X-18.3243 Y-4.2425
G01 X-18.3203 Y-4.2322
G01 X-18.3162 Y-4.2193
G01 X-18.3139 Y-4.2110
G01 X-18.3110 Y-4.1978
G01 X-18.3093 Y-4.1869
G01 X-18.3076 Y-4.1697
G01 X-18.3071 Y-4.1562
G01 X-18.3071 Y-3.8279
G01 X-18.0684 Y-3.5892
G01 X-12.5300 Y-3.5892
G01 X-12.0033 Y-4.1158
G01 X-11.9944 Y-4.1242
G01 X-11.9810 Y-4.1352
G01 X-11.9700 Y-4.1430
G01 X-11.9586 Y-4.1501
G01 X-11.9489 Y-4.1555
G01 X-11.9333 Y-4.1629
G01 X-11.9207 Y-4.1678
G01 X-11.9102 Y-4.1713
G01 X-11.8996 Y-4.1742
G01 X-11.8864 Y-4.1771
G01 X-11.8693 Y-4.1797
G01 X-11.8558 Y-4.1807
G01 X-11.8448 Y-4.1810
G01 X-11.2193 Y-4.1810
G01 X-10.7774 Y-4.6230
G01 X-10.7628 Y-4.6363
G01 X-10.7523 Y-4.6446
G01 X-10.7452 Y-4.6496
G01 X-10.7318 Y-4.6581
G01 X-10.7144 Y-4.6674
G01 X-10.6962 Y-4.6750
G01 X-10.6811 Y-4.6800
G01 X-10.6619 Y-4.6847
G01 X-10.6425 Y-4.6877
G01 X-10.6266 Y-4.6888
G01 X-4.6794 Y-4.6890
G01 X-4.6597 Y-4.6881
G01 X-4.6440 Y-4.6862
G01 X-4.6247 Y-4.6822
G01 X-4.6058 Y-4.6766
G01 X-4.5909 Y-4.6709
G01 X-4.5753 Y-4.6635
G01 X-4.5615 Y-4.6557
G01 X-4.5451 Y-4.6446
G01 X-4.5298 Y-4.6322
G01 X-4.5200 Y-4.6230
G01 X-4.0780 Y-4.1810
G01 X-3.3199 Y-4.1810
G01 X-3.1311 Y-4.3698
G01 X-3.1174 Y-4.3823
G01 X-3.1069 Y-4.3906
G01 X-3.0905 Y-4.4017
G01 X-3.0788 Y-4.4084
G01 X-3.0611 Y-4.4169
G01 X-3.0462 Y-4.4226
G01 X-3.0273 Y-4.4282
G01 X-3.0080 Y-4.4322
G01 X-2.9923 Y-4.4341
G01 X-2.9750 Y-4.4350
G01 X0.8107 Y-4.4350
G01 X0.8285 Y-4.4342
G01 X0.8437 Y-4.4324
G01 X0.8623 Y-4.4287
G01 X0.8805 Y-4.4235
G01 X0.8927 Y-4.4191
G01 X0.9015 Y-4.4154
G01 X0.9790 Y-4.3803
G01 X1.0889 Y-4.4226
G01 X1.1088 Y-4.4285
G01 X1.1234 Y-4.4316
G01 X1.1418 Y-4.4340
G01 X1.1603 Y-4.4350
G01 X1.2945 Y-4.4350
G01 X1.3056 Y-4.4346
G01 X1.3228 Y-4.4329
G01 X1.3361 Y-4.4307
G01 X1.3492 Y-4.4276
G01 X1.3658 Y-4.4226
G01 X1.3784 Y-4.4178
G01 X1.3907 Y-4.4123
G01 X1.4059 Y-4.4041
G01 X1.4174 Y-4.3970
G01 X1.4264 Y-4.3906
G01 X1.4351 Y-4.3838
G01 X1.4435 Y-4.3766
G01 X1.5125 Y-4.3080
G01 X2.4840 Y-4.3080
G01 X3.1698 Y-4.9938
G01 X3.1698 Y-5.9630
G01 X2.5446 Y-6.5904
G01 X2.5354 Y-6.6002
G01 X2.5230 Y-6.6155
G01 X2.5167 Y-6.6246
G01 X2.5108 Y-6.6339
G01 X2.5053 Y-6.6436
G01 X2.5004 Y-6.6534
G01 X2.4928 Y-6.6716
G01 X2.4878 Y-6.6867
G01 X2.4856 Y-6.6950
G01 X2.4827 Y-6.7082
G01 X2.4799 Y-6.7277
G01 X2.4791 Y-6.7387
G01 X2.4789 Y-6.7497
G01 X2.4792 Y-6.7608
G01 X2.4800 Y-6.7718
G01 X2.4828 Y-6.7913
G01 X2.4857 Y-6.8045
G01 X2.4879 Y-6.8128
G01 X2.4929 Y-6.8279
G01 X2.5006 Y-6.8460
G01 X2.5055 Y-6.8559
G01 X2.5110 Y-6.8655
G01 X2.5169 Y-6.8748
G01 X2.5233 Y-6.8839
G01 X2.5357 Y-6.8992
G01 X2.5449 Y-6.9090
G01 X3.1698 Y-7.5338
G01 X3.1698 Y-8.5030
G01 X2.5446 Y-9.1304
G01 X2.5354 Y-9.1402
G01 X2.5230 Y-9.1555
G01 X2.5167 Y-9.1646
G01 X2.5108 Y-9.1739
G01 X2.5053 Y-9.1836
G01 X2.5004 Y-9.1934
G01 X2.4928 Y-9.2116
G01 X2.4878 Y-9.2267
G01 X2.4856 Y-9.2350
G01 X2.4827 Y-9.2482
G01 X2.4799 Y-9.2677
G01 X2.4791 Y-9.2787
G01 X2.4789 Y-9.2897
G01 X2.4792 Y-9.3008
G01 X2.4800 Y-9.3118
G01 X2.4828 Y-9.3313
G01 X2.4857 Y-9.3445
G01 X2.4879 Y-9.3528
G01 X2.4929 Y-9.3679
G01 X2.5006 Y-9.3860
G01 X2.5055 Y-9.3959
G01 X2.5110 Y-9.4055
G01 X2.5169 Y-9.4148
G01 X2.5233 Y-9.4239
G01 X2.5357 Y-9.4392
G01 X2.5449 Y-9.4490
G01 X3.1698 Y-10.0738
G01 X3.1698 Y-11.0430
G01 X2.5446 Y-11.6704
G01 X2.5354 Y-11.6802
G01 X2.5230 Y-11.6955
G01 X2.5167 Y-11.7046
G01 X2.5108 Y-11.7139
G01 X2.5053 Y-11.7236
G01 X2.5004 Y-11.7334
G01 X2.4928 Y-11.7516
G01 X2.4878 Y-11.7667
G01 X2.4856 Y-11.7750
G01 X2.4827 Y-11.7882
G01 X2.4799 Y-11.8077
G01 X2.4791 Y-11.8187
G01 X2.4789 Y-11.8297
G01 X2.4792 Y-11.8408
G01 X2.4800 Y-11.8518
G01 X2.4828 Y-11.8713
G01 X2.4857 Y-11.8845
G01 X2.4879 Y-11.8928
G01 X2.4929 Y-11.9079
G01 X2.5006 Y-11.9260
G01 X2.5055 Y-11.9359
G01 X2.5110 Y-11.9455
G01 X2.5169 Y-11.9548
G01 X2.5233 Y-11.9639
G01 X2.5357 Y-11.9792
G01 X2.5449 Y-11.9890
G01 X3.1698 Y-12.6138
G01 X3.1698 Y-12.8741
G01 X3.0894 Y-12.8741
G01 X3.0792 Y-12.8288
G01 X3.0646 Y-12.7760
G01 X3.0475 Y-12.7241
G01 X3.0287 Y-12.6753
G01 X3.0046 Y-12.6209
G01 X2.9810 Y-12.5742
G01 X2.9553 Y-12.5287
G01 X2.9234 Y-12.4784
G01 X2.8933 Y-12.4357
G01 X2.8597 Y-12.3926
G01 X2.8239 Y-12.3512
G01 X2.7879 Y-12.3133
G01 X2.7448 Y-12.2722
G01 X2.7052 Y-12.2381
G01 X2.6640 Y-12.2059
G01 X2.6173 Y-12.1730
G01 X2.5711 Y-12.1437
G01 X2.5257 Y-12.1179
G01 X2.4747 Y-12.0921
G01 X2.4224 Y-12.0691
G01 X2.3737 Y-12.0503
G01 X2.3217 Y-12.0331
G01 X2.2666 Y-12.0180
G01 X2.2156 Y-12.0066
G01 X2.1641 Y-11.9976
G01 X2.1075 Y-11.9905
G01 X2.0505 Y-11.9864
G01 X1.9982 Y-11.9851
G01 X1.9460 Y-11.9864
G01 X1.8866 Y-11.9908
G01 X1.8347 Y-11.9972
G01 X1.7832 Y-12.0061
G01 X1.7274 Y-12.0185
G01 X1.6724 Y-12.0339
G01 X1.6228 Y-12.0503
G01 X1.5718 Y-12.0700
G01 X1.5196 Y-12.0932
G01 X1.4729 Y-12.1167
G01 X1.4253 Y-12.1437
G01 X1.3791 Y-12.1730
G01 X1.3363 Y-12.2030
G01 X1.2913 Y-12.2381
G01 X1.2498 Y-12.2738
G01 X1.2119 Y-12.3099
G01 X1.1725 Y-12.3512
G01 X1.1368 Y-12.3926
G01 X1.1046 Y-12.4338
G01 X1.0730 Y-12.4784
G01 X1.0637 Y-12.4929
G01 X0.9495 Y-12.4929
G01 X1.4518 Y-11.9887
G01 X1.4594 Y-11.9807
G01 X1.4681 Y-11.9704
G01 X1.4734 Y-11.9636
G01 X1.4810 Y-11.9526
G01 X1.4899 Y-11.9378
G01 X1.4949 Y-11.9280
G01 X1.5004 Y-11.9157
G01 X1.5044 Y-11.9055
G01 X1.5079 Y-11.8950
G01 X1.5108 Y-11.8844
G01 X1.5132 Y-11.8736
G01 X1.5151 Y-11.8628
G01 X1.5165 Y-11.8518
G01 X1.5174 Y-11.8384
G01 X1.5174 Y-11.8212
G01 X1.5167 Y-11.8102
G01 X1.5152 Y-11.7968
G01 X1.5133 Y-11.7860
G01 X1.5087 Y-11.7669
G01 X1.5046 Y-11.7541
G01 X1.4997 Y-11.7416
G01 X1.4924 Y-11.7260
G01 X1.4859 Y-11.7143
G01 X1.4786 Y-11.7029
G01 X1.4684 Y-11.6891
G01 X1.4598 Y-11.6788
G01 X1.4522 Y-11.6708
G01 X0.8426 Y-11.0561
G01 X0.8346 Y-11.0484
G01 X0.8262 Y-11.0411
G01 X0.8155 Y-11.0328
G01 X0.8064 Y-11.0265
G01 X0.7916 Y-11.0176
G01 X0.7796 Y-11.0114
G01 X0.7694 Y-11.0068
G01 X0.7591 Y-11.0028
G01 X0.7462 Y-10.9986
G01 X0.7294 Y-10.9944
G01 X0.7185 Y-10.9923
G01 X0.7051 Y-10.9905
G01 X0.6941 Y-10.9897
G01 X0.6805 Y-10.9894
G01 X0.6632 Y-10.9902
G01 X0.6498 Y-10.9918
G01 X0.6389 Y-10.9937
G01 X0.6257 Y-10.9967
G01 X0.6068 Y-11.0025
G01 X0.5942 Y-11.0074
G01 X0.5764 Y-11.0159
G01 X0.5647 Y-11.0227
G01 X0.5483 Y-11.0337
G01 X0.5377 Y-11.0421
G01 X0.5248 Y-11.0537
G01 X-0.5285 Y-12.1070
G01 X-2.8567 Y-12.1072
G01 X-2.8702 Y-12.1081
G01 X-2.8812 Y-12.1094
G01 X-2.8921 Y-12.1113
G01 X-2.9029 Y-12.1138
G01 X-2.9135 Y-12.1167
G01 X-2.9241 Y-12.1202
G01 X-2.9344 Y-12.1242
G01 X-2.9445 Y-12.1286
G01 X-2.9544 Y-12.1336
G01 X-2.9640 Y-12.1391
G01 X-2.9734 Y-12.1450
G01 X-2.9824 Y-12.1514
G01 X-2.9911 Y-12.1582
G01 X-2.9995 Y-12.1654
G01 X-3.0075 Y-12.1730
G01 X-3.0152 Y-12.1810
G01 X-3.0239 Y-12.1913
G01 X-3.0356 Y-12.2072
G01 X-3.0427 Y-12.2186
G01 X-3.0519 Y-12.2361
G01 X-3.0573 Y-12.2484
G01 X-3.0639 Y-12.2670
G01 X-3.0674 Y-12.2800
G01 X-3.0707 Y-12.2970
G01 X-3.0725 Y-12.3104
G01 X-3.0734 Y-12.3238
G01 X-3.0734 Y-12.3411
G01 X-3.0722 Y-12.3570
G01 X-3.0697 Y-12.3741
G01 X-3.0668 Y-12.3872
G01 X-3.0612 Y-12.4061
G01 X-3.0554 Y-12.4210
G01 X-3.0469 Y-12.4387
G01 X-3.0369 Y-12.4557
G01 X-3.0277 Y-12.4687
G01 X-3.0152 Y-12.4839
G01 X-3.0075 Y-12.4919
G01 X-2.7815 Y-12.7180
G01 X-2.7815 Y-13.4786
G01 X-3.3200 Y-14.0171
G01 X-3.5679 Y-14.0173
G01 X-3.5814 Y-14.0182
G01 X-3.5948 Y-14.0199
G01 X-3.6117 Y-14.0233
G01 X-3.6247 Y-14.0268
G01 X-3.6353 Y-14.0303
G01 X-3.6478 Y-14.0352
G01 X-3.6634 Y-14.0426
G01 X-3.6731 Y-14.0479
G01 X-3.6846 Y-14.0551
G01 X-3.6936 Y-14.0614
G01 X-3.7023 Y-14.0683
G01 X-3.7107 Y-14.0755
G01 X-3.7187 Y-14.0831
G01 X-3.7280 Y-14.0929
G01 X-3.7389 Y-14.1063
G01 X-3.7454 Y-14.1153
G01 X-3.7527 Y-14.1266
G01 X-3.7581 Y-14.1363
G01 X-3.7631 Y-14.1461
G01 X-3.7676 Y-14.1563
G01 X-3.7716 Y-14.1666
G01 X-3.7751 Y-14.1771
G01 X-3.7780 Y-14.1878
G01 X-3.7804 Y-14.1986
G01 X-3.7823 Y-14.2095
G01 X-3.7837 Y-14.2204
G01 X-3.7848 Y-14.2413
G01 X-3.7848 Y-15.9170
G01 X-5.1118 Y-15.9170
G01 X-5.1118 Y-14.0819
G01 X-5.0747 Y-14.0817
G01 X-5.0612 Y-14.0808
G01 X-5.0526 Y-14.0798
G01 X-5.0393 Y-14.0776
G01 X-5.0285 Y-14.0752
G01 X-5.0179 Y-14.0722
G01 X-5.0051 Y-14.0679
G01 X-4.9948 Y-14.0638
G01 X-4.9792 Y-14.0564
G01 X-4.9674 Y-14.0498
G01 X-4.9580 Y-14.0439
G01 X-4.9490 Y-14.0376
G01 X-4.9384 Y-14.0292
G01 X-4.9256 Y-14.0176
G01 X-4.9162 Y-14.0079
G01 X-4.9037 Y-13.9927
G01 X-4.8945 Y-13.9797
G01 X-4.8845 Y-13.9627
G01 X-4.8795 Y-13.9529
G01 X-4.8750 Y-13.9427
G01 X-4.8683 Y-13.9242
G01 X-4.8646 Y-13.9112
G01 X-4.8607 Y-13.8919
G01 X-4.8589 Y-13.8784
G01 X-4.8464 Y-13.8618
G01 X-4.8379 Y-13.8484
G01 X-4.8287 Y-13.8309
G01 X-4.8242 Y-13.8208
G01 X-4.8202 Y-13.8105
G01 X-4.8144 Y-13.7917
G01 X-4.8114 Y-13.7785
G01 X-4.8092 Y-13.7652
G01 X-4.8075 Y-13.7480
G01 X-4.8071 Y-13.7321
G01 X-4.8081 Y-13.7124
G01 X-4.8109 Y-13.6929
G01 X-4.8144 Y-13.6774
G01 X-4.8202 Y-13.6586
G01 X-4.8277 Y-13.6403
G01 X-4.8348 Y-13.6261
G01 X-4.8450 Y-13.6093
G01 X-4.8567 Y-13.5934
G01 X-4.8654 Y-13.5831
G01 X-4.8793 Y-13.5691
G01 X-4.8914 Y-13.5587
G01 X-4.9072 Y-13.5471
G01 X-4.9241 Y-13.5369
G01 X-4.9383 Y-13.5297
G01 X-4.9565 Y-13.5223
G01 X-4.9754 Y-13.5164
G01 X-4.9909 Y-13.5130
G01 X-5.0104 Y-13.5102
G01 X-5.0214 Y-13.5093
G01 X-5.0325 Y-13.5091
G01 X-10.6129 Y-13.5091
G01 X-10.6239 Y-13.5093
G01 X-10.6374 Y-13.5104
G01 X-10.6545 Y-13.5130
G01 X-10.6677 Y-13.5158
G01 X-10.6783 Y-13.5188
G01 X-10.6911 Y-13.5231
G01 X-10.7071 Y-13.5297
G01 X-10.7192 Y-13.5357
G01 X-10.7288 Y-13.5412
G01 X-10.7401 Y-13.5484
G01 X-10.7540 Y-13.5587
G01 X-10.7643 Y-13.5675
G01 X-10.7723 Y-13.5751
G01 X-10.7799 Y-13.5831
G01 X-10.7887 Y-13.5934
G01 X-10.7990 Y-13.6073
G01 X-10.8063 Y-13.6186
G01 X-10.8117 Y-13.6283
G01 X-10.8167 Y-13.6381
G01 X-10.8212 Y-13.6483
G01 X-10.8252 Y-13.6586
G01 X-10.8286 Y-13.6691
G01 X-10.8316 Y-13.6798
G01 X-10.8340 Y-13.6906
G01 X-10.8362 Y-13.7039
G01 X-10.8379 Y-13.7211
G01 X-10.8383 Y-13.7333
G01 X-10.8383 Y-13.8577
G01 X-10.8373 Y-13.8786
G01 X-10.8359 Y-13.8895
G01 X-10.8335 Y-13.9028
G01 X-10.8310 Y-13.9136
G01 X-10.8259 Y-13.9301
G01 X-10.8212 Y-13.9427
G01 X-10.8177 Y-13.9507
G01 X-10.8117 Y-13.9627
G01 X-10.8063 Y-13.9724
G01 X-10.8003 Y-13.9817
G01 X-10.7940 Y-13.9908
G01 X-10.7872 Y-13.9995
G01 X-10.7799 Y-14.0079
G01 X-10.7723 Y-14.0159
G01 X-10.7625 Y-14.0251
G01 X-10.7491 Y-14.0361
G01 X-10.7401 Y-14.0426
G01 X-10.7288 Y-14.0498
G01 X-10.7213 Y-14.0541
G01 X-10.7093 Y-14.0603
G01 X-10.6992 Y-14.0648
G01 X-10.6806 Y-14.0715
G01 X-10.6677 Y-14.0752
G01 X-10.6569 Y-14.0776
G01 X-10.6460 Y-14.0795
G01 X-10.6350 Y-14.0808
G01 X-10.6153 Y-14.0819
G01 X-10.5843 Y-14.0819
G01 X-10.5843 Y-15.9170
G01 X-10.6239 Y-15.9173
G01 X-10.6350 Y-15.9181
G01 X-10.6460 Y-15.9194
G01 X-10.6592 Y-15.9218
G01 X-10.6760 Y-15.9260
G01 X-10.6888 Y-15.9302
G01 X-10.7014 Y-15.9351
G01 X-10.7170 Y-15.9425
G01 X-10.7288 Y-15.9491
G01 X-10.7401 Y-15.9564
G01 X-10.7540 Y-15.9667
G01 X-10.7661 Y-15.9770
G01 X-10.7783 Y-15.9893
G01 X-10.7872 Y-15.9994
G01 X-10.7954 Y-16.0101
G01 X-10.8050 Y-16.0245
G01 X-10.8117 Y-16.0362
G01 X-10.8177 Y-16.0483
G01 X-10.8243 Y-16.0642
G01 X-10.8286 Y-16.0770
G01 X-10.8321 Y-16.0900
G01 X-10.8345 Y-16.1008
G01 X-10.8370 Y-16.1180
G01 X-10.8381 Y-16.1314
G01 X-10.8383 Y-16.1425
G01 X-10.8383 Y-16.3687
G01 X-11.0792 Y-16.6079
G01 X-16.2680 Y-16.6079
G01 X-16.5088 Y-16.3687
G01 X-16.5088 Y-8.9861
G01 X-16.5092 Y-8.9738
G01 X-16.5109 Y-8.9566
G01 X-16.5131 Y-8.9433
G01 X-16.5156 Y-8.9325
G01 X-16.5185 Y-8.9218
G01 X-16.5228 Y-8.9091
G01 X-16.5295 Y-8.8931
G01 X-16.5343 Y-8.8831
G01 X-16.5409 Y-8.8714
G01 X-16.5468 Y-8.8620
G01 X-16.5532 Y-8.8530
G01 X-16.5615 Y-8.8424
G01 X-16.5689 Y-8.8341
G01 X-16.5811 Y-8.8219
G01 X-16.5912 Y-8.8130
G01 X-16.6000 Y-8.8062
G01 X-16.6163 Y-8.7952
G01 X-16.6301 Y-8.7873
G01 X-16.6480 Y-8.7790
G01 X-16.6665 Y-8.7723
G01 X-16.6818 Y-8.7680
G01 X-16.7012 Y-8.7643
G01 X-16.7146 Y-8.7627
G01 X-16.7343 Y-8.7618
G01 X-26.7317 Y-8.7618
G01 X-26.7452 Y-8.7622
G01 X-26.7624 Y-8.7639
G01 X-26.7757 Y-8.7662
G01 X-26.7889 Y-8.7692
G01 X-26.8054 Y-8.7742
G01 X-26.8181 Y-8.7790
G01 X-26.8304 Y-8.7846
G01 X-26.8456 Y-8.7927
G01 X-26.8571 Y-8.7999
G01 X-26.8680 Y-8.8077
G01 X-26.8814 Y-8.8187
G01 X-26.8912 Y-8.8279
G01 X-29.2695 Y-11.2088
G01 X-29.2835 Y-11.2243
G01 X-29.2953 Y-11.2401
G01 X-29.3038 Y-11.2535
G01 X-29.3130 Y-11.2709
G01 X-29.3206 Y-11.2891
G01 X-29.3256 Y-11.3042
G01 X-29.3303 Y-11.3233
G01 X-29.3333 Y-11.3428
G01 X-29.3344 Y-11.3562
G01 X-29.3346 Y-11.3673
G01 X-29.3346 Y-30.3334
G01 X-29.3337 Y-30.3531
G01 X-29.3322 Y-30.3665
G01 X-29.3303 Y-30.3774
G01 X-29.3279 Y-30.3882
G01 X-29.3222 Y-30.4071
G01 X-29.3165 Y-30.4219
G01 X-29.3080 Y-30.4397
G01 X-29.2979 Y-30.4567
G01 X-29.2888 Y-30.4697
G01 X-29.2762 Y-30.4849
G01 X-29.2623 Y-30.4989
G01 X-29.2503 Y-30.5092
G01 X-29.2344 Y-30.5209
G01 X-29.2176 Y-30.5311
G01 X-29.2034 Y-30.5383
G01 X-29.1851 Y-30.5457
G01 X-29.1663 Y-30.5515
G01 X-29.1508 Y-30.5550
G01 X-29.1313 Y-30.5578
G01 X-29.1202 Y-30.5586
G01 X-29.1092 Y-30.5589
G01 X-26.9267 Y-30.5589
G01 X-26.9267 Y-30.5899
G01 X-26.9256 Y-30.6095
G01 X-26.9243 Y-30.6205
G01 X-26.9224 Y-30.6314
G01 X-26.9199 Y-30.6422
G01 X-26.9170 Y-30.6529
G01 X-26.9135 Y-30.6634
G01 X-26.9095 Y-30.6737
G01 X-26.9051 Y-30.6838
G01 X-26.9001 Y-30.6937
G01 X-26.8946 Y-30.7034
G01 X-26.8887 Y-30.7127
G01 X-26.8823 Y-30.7217
G01 X-26.8740 Y-30.7323
G01 X-26.8607 Y-30.7469
G01 X-26.8527 Y-30.7545
G01 X-26.8424 Y-30.7632
G01 X-26.8355 Y-30.7685
G01 X-26.8245 Y-30.7762
G01 X-26.8096 Y-30.7851
G01 X-26.7998 Y-30.7902
G01 X-26.7875 Y-30.7957
G01 X-26.7772 Y-30.7997
G01 X-26.7667 Y-30.8032
G01 X-26.7560 Y-30.8061
G01 X-26.7452 Y-30.8086
G01 X-26.7343 Y-30.8105
G01 X-26.7233 Y-30.8118
G01 X-26.7123 Y-30.8126
G01 X-26.7012 Y-30.8129
G01 X-26.2872 Y-30.8129
G01 X-26.2675 Y-30.8120
G01 X-26.2518 Y-30.8101
G01 X-26.2432 Y-30.8086
G01 X-26.2301 Y-30.8055
G01 X-26.2135 Y-30.8005
G01 X-26.2032 Y-30.7966
G01 X-26.1908 Y-30.7913
G01 X-26.1809 Y-30.7863
G01 X-26.1640 Y-30.7762
G01 X-26.1529 Y-30.7685
G01 X-26.1442 Y-30.7617
G01 X-26.1358 Y-30.7545
G01 X-26.1278 Y-30.7469
G01 X-26.1202 Y-30.7389
G01 X-26.1129 Y-30.7305
G01 X-26.1061 Y-30.7217
G01 X-26.0984 Y-30.7107
G01 X-26.0895 Y-30.6958
G01 X-26.0834 Y-30.6838
G01 X-26.0780 Y-30.6715
G01 X-26.0722 Y-30.6552
G01 X-26.0680 Y-30.6399
G01 X-26.0646 Y-30.6229
G01 X-26.0628 Y-30.6095
G01 X-26.0619 Y-30.5961
G01 X-26.0618 Y-29.8573
G01 X-26.0622 Y-29.8450
G01 X-26.0639 Y-29.8278
G01 X-26.0661 Y-29.8145
G01 X-26.0685 Y-29.8037
G01 X-26.0715 Y-29.7930
G01 X-26.0749 Y-29.7825
G01 X-26.0789 Y-29.7722
G01 X-26.0845 Y-29.7599
G01 X-26.0895 Y-29.7501
G01 X-26.0984 Y-29.7352
G01 X-26.1061 Y-29.7242
G01 X-26.1114 Y-29.7173
G01 X-26.1202 Y-29.7070
G01 X-26.1278 Y-29.6990
G01 X-26.1358 Y-29.6914
G01 X-26.1442 Y-29.6842
G01 X-26.1529 Y-29.6774
G01 X-26.1620 Y-29.6710
G01 X-26.1713 Y-29.6651
G01 X-26.1809 Y-29.6596
G01 X-26.1908 Y-29.6546
G01 X-26.2009 Y-29.6502
G01 X-26.2195 Y-29.6434
G01 X-26.2324 Y-29.6398
G01 X-26.2409 Y-29.6378
G01 X-26.2565 Y-29.6351
G01 X-26.2737 Y-29.6334
G01 X-26.2860 Y-29.6330
G01 X-26.3793 Y-29.6330
G01 X-26.3793 Y-25.7659
G01 X-24.4172 Y-25.7659
G01 X-24.4172 Y-29.6330
G01 X-24.5116 Y-29.6330
G01 X-24.5289 Y-29.6339
G01 X-24.5423 Y-29.6354
G01 X-24.5532 Y-29.6373
G01 X-24.5640 Y-29.6398
G01 X-24.5747 Y-29.6427
G01 X-24.5852 Y-29.6462
G01 X-24.5955 Y-29.6502
G01 X-24.6056 Y-29.6546
G01 X-24.6155 Y-29.6596
G01 X-24.6251 Y-29.6651
G01 X-24.6345 Y-29.6710
G01 X-24.6435 Y-29.6774
G01 X-24.6523 Y-29.6842
G01 X-24.6624 Y-29.6930
G01 X-24.6703 Y-29.7008
G01 X-24.6820 Y-29.7136
G01 X-24.6903 Y-29.7242
G01 X-24.6967 Y-29.7332
G01 X-24.7026 Y-29.7425
G01 X-24.7081 Y-29.7522
G01 X-24.7130 Y-29.7621
G01 X-24.7184 Y-29.7744
G01 X-24.7223 Y-29.7848
G01 X-24.7273 Y-29.8013
G01 X-24.7304 Y-29.8145
G01 X-24.7322 Y-29.8254
G01 X-24.7338 Y-29.8388
G01 X-24.7347 Y-29.8585
G01 X-24.7347 Y-31.7514
G01 X-25.1233 Y-32.1400
G01 X-26.7012 Y-32.1400
G01 X-26.7209 Y-32.1409
G01 X-26.7343 Y-32.1424
G01 X-26.7452 Y-32.1443
G01 X-26.7560 Y-32.1467
G01 X-26.7667 Y-32.1497
G01 X-26.7772 Y-32.1532
G01 X-26.7875 Y-32.1571
G01 X-26.7976 Y-32.1616
G01 X-26.8075 Y-32.1666
G01 X-26.8172 Y-32.1721
G01 X-26.8265 Y-32.1780
G01 X-26.8355 Y-32.1843
G01 X-26.8443 Y-32.1912
G01 X-26.8527 Y-32.1984
G01 X-26.8607 Y-32.2060
G01 X-26.8683 Y-32.2140
G01 X-26.8809 Y-32.2292
G01 X-26.8887 Y-32.2402
G01 X-26.8946 Y-32.2495
G01 X-26.9040 Y-32.2669
G01 X-26.9104 Y-32.2814
G01 X-26.9135 Y-32.2895
G01 X-26.9177 Y-32.3023
G01 X-26.9224 Y-32.3215
G01 X-26.9243 Y-32.3324
G01 X-26.9256 Y-32.3433
G01 X-26.9267 Y-32.3630
G01 X-26.9267 Y-32.3940
G01 X-29.2698 Y-32.3940
G01 X-29.2698 Y-32.3642
G01 X-29.2707 Y-32.3457
G01 X-29.2726 Y-32.3300
G01 X-29.2765 Y-32.3107
G01 X-29.2795 Y-32.3000
G01 X-29.2830 Y-32.2895
G01 X-29.2904 Y-32.2712
G01 X-29.2976 Y-32.2570
G01 X-29.3019 Y-32.2495
G01 X-29.3091 Y-32.2382
G01 X-29.3210 Y-32.2224
G01 X-29.3282 Y-32.2140
G01 X-29.3358 Y-32.2060
G01 X-29.3438 Y-32.1984
G01 X-29.3522 Y-32.1912
G01 X-29.3680 Y-32.1793
G01 X-29.3793 Y-32.1721
G01 X-29.3868 Y-32.1678
G01 X-29.4010 Y-32.1606
G01 X-29.4193 Y-32.1532
G01 X-29.4298 Y-32.1497
G01 X-29.4405 Y-32.1467
G01 X-29.4513 Y-32.1443
G01 X-29.4646 Y-32.1421
G01 X-29.4818 Y-32.1404
G01 X-29.4940 Y-32.1400
G01 X-30.2731 Y-32.1400
G01 X-30.6617 Y-31.7513
G01 X-30.6617 Y-24.8865
G01 X-30.6628 Y-24.8656
G01 X-30.6656 Y-24.8461
G01 X-30.6691 Y-24.8306
G01 X-30.6714 Y-24.8222
G01 X-30.6757 Y-24.8095
G01 X-30.6833 Y-24.7913
G01 X-30.6883 Y-24.7814
G01 X-30.6938 Y-24.7718
G01 X-30.6997 Y-24.7624
G01 X-30.7061 Y-24.7534
G01 X-30.7185 Y-24.7381
G01 X-30.7277 Y-24.7283
G01 X-30.7357 Y-24.7206
G01 X-30.7441 Y-24.7134
G01 X-30.7529 Y-24.7066
G01 X-30.7619 Y-24.7002
G01 X-30.7712 Y-24.6943
G01 X-30.7809 Y-24.6888
G01 X-30.7930 Y-24.6829
G01 X-30.8089 Y-24.6762
G01 X-30.8194 Y-24.6727
G01 X-30.8324 Y-24.6690
G01 X-30.8408 Y-24.6670
G01 X-30.8541 Y-24.6647
G01 X-30.8651 Y-24.6633
G01 X-30.8860 Y-24.6622
G01 X-36.7729 Y-24.6622
G01 X-37.1616 Y-24.2736
G01 X-37.1616 Y-23.7238
G01 X-36.7729 Y-23.3351
G01 X-30.8847 Y-23.3351
G01 X-30.8675 Y-23.3343
G01 X-30.8541 Y-23.3327
G01 X-30.8347 Y-23.3289
G01 X-30.8217 Y-23.3254
G01 X-30.8089 Y-23.3211
G01 X-30.7908 Y-23.3135
G01 X-30.7788 Y-23.3074
G01 X-30.7639 Y-23.2985
G01 X-30.7509 Y-23.2893
G01 X-30.7376 Y-23.2783
G01 X-30.7277 Y-23.2691
G01 X-30.7185 Y-23.2593
G01 X-30.7075 Y-23.2459
G01 X-30.6997 Y-23.2349
G01 X-30.6895 Y-23.2181
G01 X-30.6833 Y-23.2061
G01 X-30.6789 Y-23.1960
G01 X-30.6749 Y-23.1856
G01 X-30.6714 Y-23.1751
G01 X-30.6679 Y-23.1621
G01 X-30.6645 Y-23.1451
G01 X-30.6630 Y-23.1342
G01 X-30.6620 Y-23.1207
G01 X-30.6617 Y-23.1097
G01 X-30.6617 Y-10.7240
G01 X-27.3724 Y-7.4347
G01 X-9.3378 Y-7.4347
G01 X-9.3267 Y-7.4345
G01 X-9.3071 Y-7.4326
G01 X-9.2938 Y-7.4304
G01 X-9.2747 Y-7.4257
G01 X-9.2618 Y-7.4216
G01 X-9.2493 Y-7.4166
G01 X-9.2315 Y-7.4081
G01 X-9.2146 Y-7.3981
G01 X-9.2016 Y-7.3889
G01 X-9.1882 Y-7.3779
G01 X-9.1767 Y-7.3670
G01 X-9.1635 Y-7.3523
G01 X-9.1517 Y-7.3365
G01 X-9.1432 Y-7.3231
G01 X-9.1340 Y-7.3057
G01 X-9.1286 Y-7.2933
G01 X-9.1220 Y-7.2747
G01 X-9.1185 Y-7.2617
G01 X-9.1148 Y-7.2424
G01 X-9.1132 Y-7.2290
G01 X-9.1124 Y-7.2117
G01 X-9.1123 Y-6.7515
G01 X-9.0552 Y-6.7515
G01 X-9.0552 Y-7.1610
G01 X-9.0547 Y-7.1707
G01 X-9.0523 Y-7.1849
G01 X-9.0494 Y-7.1942
G01 X-9.0436 Y-7.2074
G01 X-9.0358 Y-7.2196
G01 X-9.0264 Y-7.2306
G01 X-9.0192 Y-7.2371
G01 X-9.0074 Y-7.2454
G01 X-8.9945 Y-7.2519
G01 X-8.9854 Y-7.2552
G01 X-8.9760 Y-7.2575
G01 X-8.9664 Y-7.2589
G01 X-8.9568 Y-7.2594
G01 X-7.9408 Y-7.2594
G01 X-7.9312 Y-7.2589
G01 X-7.9169 Y-7.2565
G01 X-7.9077 Y-7.2537
G01 X-7.8944 Y-7.2478
G01 X-7.8822 Y-7.2401
G01 X-7.8747 Y-7.2339
G01 X-7.8647 Y-7.2234
G01 X-7.8590 Y-7.2157
G01 X-7.8518 Y-7.2031
G01 X-7.8482 Y-7.1942
G01 X-7.8443 Y-7.1802
G01 X-7.8429 Y-7.1707
G01 X-7.8424 Y-7.1610
G01 X-7.8424 Y-6.6245
G01 X-7.7853 Y-6.6245
G01 X-7.7853 Y-7.2105
G01 X-7.7848 Y-7.2228
G01 X-7.7831 Y-7.2400
G01 X-7.7809 Y-7.2533
G01 X-7.7785 Y-7.2641
G01 X-7.7756 Y-7.2747
G01 X-7.7712 Y-7.2875
G01 X-7.7646 Y-7.3035
G01 X-7.7586 Y-7.3156
G01 X-7.7532 Y-7.3252
G01 X-7.7459 Y-7.3365
G01 X-7.7356 Y-7.3504
G01 X-7.7269 Y-7.3607
G01 X-7.7192 Y-7.3687
G01 X-7.7094 Y-7.3779
G01 X-7.6960 Y-7.3889
G01 X-7.6851 Y-7.3967
G01 X-7.6736 Y-7.4039
G01 X-7.6584 Y-7.4120
G01 X-7.6461 Y-7.4176
G01 X-7.6335 Y-7.4223
G01 X-7.6146 Y-7.4280
G01 X-7.5953 Y-7.4319
G01 X-7.5795 Y-7.4339
G01 X-7.5610 Y-7.4347
G01 X-6.1882 Y-7.4347
G01 X-6.1771 Y-7.4345
G01 X-6.1661 Y-7.4337
G01 X-6.1527 Y-7.4319
G01 X-6.1334 Y-7.4280
G01 X-6.1145 Y-7.4223
G01 X-6.0997 Y-7.4166
G01 X-6.0841 Y-7.4092
G01 X-6.0702 Y-7.4014
G01 X-6.0539 Y-7.3904
G01 X-6.0386 Y-7.3779
G01 X-6.0271 Y-7.3670
G01 X-6.0139 Y-7.3523
G01 X-6.0021 Y-7.3365
G01 X-5.9948 Y-7.3252
G01 X-5.9854 Y-7.3078
G01 X-5.9799 Y-7.2956
G01 X-5.9732 Y-7.2770
G01 X-5.9689 Y-7.2617
G01 X-5.9666 Y-7.2509
G01 X-5.9641 Y-7.2338
G01 X-5.9630 Y-7.2203
G01 X-5.9627 Y-7.2093
G01 X-5.9627 Y-5.7335
G01 X-5.9636 Y-5.7138
G01 X-5.9652 Y-5.7005
G01 X-5.9676 Y-5.6872
G01 X-5.9718 Y-5.6704
G01 X-5.9768 Y-5.6553
G01 X-5.9834 Y-5.6393
G01 X-5.9894 Y-5.6273
G01 X-5.9961 Y-5.6156
G01 X-6.0071 Y-5.5992
G01 X-6.0155 Y-5.5887
G01 X-6.0271 Y-5.5758
G01 X-6.0368 Y-5.5665
G01 X-6.0471 Y-5.5577
G01 X-6.0609 Y-5.5474
G01 X-6.0723 Y-5.5402
G01 X-6.0896 Y-5.5308
G01 X-6.1019 Y-5.5252
G01 X-6.1122 Y-5.5213
G01 X-6.1228 Y-5.5178
G01 X-6.1334 Y-5.5148
G01 X-6.1442 Y-5.5124
G01 X-6.1551 Y-5.5105
G01 X-6.1661 Y-5.5092
G01 X-6.1771 Y-5.5083
G01 X-6.1882 Y-5.5081
G01 X-7.5610 Y-5.5081
G01 X-7.5819 Y-5.5092
G01 X-7.6014 Y-5.5120
G01 X-7.6169 Y-5.5154
G01 X-7.6252 Y-5.5178
G01 X-7.6380 Y-5.5221
G01 X-7.6483 Y-5.5262
G01 X-7.6639 Y-5.5336
G01 X-7.6757 Y-5.5402
G01 X-7.6851 Y-5.5461
G01 X-7.6960 Y-5.5539
G01 X-7.7094 Y-5.5649
G01 X-7.7192 Y-5.5741
G01 X-7.7269 Y-5.5821
G01 X-7.7356 Y-5.5924
G01 X-7.7459 Y-5.6063
G01 X-7.7532 Y-5.6176
G01 X-7.7586 Y-5.6273
G01 X-7.7646 Y-5.6393
G01 X-7.7712 Y-5.6553
G01 X-7.7756 Y-5.6681
G01 X-7.7791 Y-5.6811
G01 X-7.7814 Y-5.6919
G01 X-7.7839 Y-5.7090
G01 X-7.7850 Y-5.7225
G01 X-7.7853 Y-5.7323
G01 X-7.7853 Y-6.1736
G01 X-7.8424 Y-6.1736
G01 X-7.8424 Y-5.6370
G01 X-7.8429 Y-5.6274
G01 X-7.8453 Y-5.6131
G01 X-7.8482 Y-5.6039
G01 X-7.8518 Y-5.5949
G01 X-7.8590 Y-5.5824
G01 X-7.8679 Y-5.5709
G01 X-7.8784 Y-5.5610
G01 X-7.8902 Y-5.5526
G01 X-7.8987 Y-5.5481
G01 X-7.9077 Y-5.5444
G01 X-7.9216 Y-5.5405
G01 X-7.9360 Y-5.5387
G01 X-8.9568 Y-5.5386
G01 X-8.9664 Y-5.5391
G01 X-8.9760 Y-5.5405
G01 X-8.9899 Y-5.5444
G01 X-8.9989 Y-5.5481
G01 X-9.0074 Y-5.5526
G01 X-9.0192 Y-5.5610
G01 X-9.0297 Y-5.5709
G01 X-9.0386 Y-5.5824
G01 X-9.0436 Y-5.5906
G01 X-9.0494 Y-5.6039
G01 X-9.0523 Y-5.6131
G01 X-9.0547 Y-5.6274
G01 X-9.0552 Y-5.6370
G01 X-9.0552 Y-6.0465
G01 X-9.1123 Y-6.0465
G01 X-9.1123 Y-5.7335
G01 X-9.1128 Y-5.7201
G01 X-9.1137 Y-5.7090
G01 X-9.1162 Y-5.6919
G01 X-9.1191 Y-5.6788
G01 X-9.1214 Y-5.6704
G01 X-9.1255 Y-5.6576
G01 X-9.1295 Y-5.6473
G01 X-9.1340 Y-5.6371
G01 X-9.1390 Y-5.6273
G01 X-9.1457 Y-5.6156
G01 X-9.1567 Y-5.5992
G01 X-9.1651 Y-5.5887
G01 X-9.1767 Y-5.5758
G01 X-9.1864 Y-5.5665
G01 X-9.1967 Y-5.5577
G01 X-9.2105 Y-5.5474
G01 X-9.2219 Y-5.5402
G01 X-9.2337 Y-5.5336
G01 X-9.2493 Y-5.5262
G01 X-9.2618 Y-5.5213
G01 X-9.2747 Y-5.5171
G01 X-9.2915 Y-5.5129
G01 X-9.3047 Y-5.5105
G01 X-9.3181 Y-5.5090
G01 X-9.3366 Y-5.5081
G01 X-10.6180 Y-5.5081
G01 X-10.6290 Y-5.5083
G01 X-10.6401 Y-5.5092
G01 X-10.6510 Y-5.5105
G01 X-10.6619 Y-5.5124
G01 X-10.6811 Y-5.5171
G01 X-10.6939 Y-5.5213
G01 X-10.7065 Y-5.5262
G01 X-10.7221 Y-5.5336
G01 X-10.7339 Y-5.5402
G01 X-10.7452 Y-5.5474
G01 X-10.7591 Y-5.5577
G01 X-10.7694 Y-5.5665
G01 X-10.7774 Y-5.5741
G01 X-11.2194 Y-6.0161
G01 X-11.9797 Y-6.0161
G01 X-12.5159 Y-5.4778
G01 X-12.5160 Y-4.8523
G01 X-12.5170 Y-4.8326
G01 X-12.5184 Y-4.8216
G01 X-12.5203 Y-4.8107
G01 X-12.5227 Y-4.7999
G01 X-12.5256 Y-4.7893
G01 X-12.5322 Y-4.7707
G01 X-12.5376 Y-4.7583
G01 X-12.5414 Y-4.7506
G01 X-12.5493 Y-4.7367
G01 X-12.5603 Y-4.7204
G01 X-12.5671 Y-4.7117
G01 X-12.5743 Y-4.7033
G01 X-12.5820 Y-4.6953
G01 X-12.8030 Y-4.4743
G01 X-12.8110 Y-4.4667
G01 X-12.8261 Y-4.4541
G01 X-12.8391 Y-4.4449
G01 X-12.8561 Y-4.4349
G01 X-12.8739 Y-4.4264
G01 X-12.8887 Y-4.4207
G01 X-12.9076 Y-4.4150
G01 X-12.9269 Y-4.4111
G01 X-12.9403 Y-4.4093
G01 X-12.9513 Y-4.4085
G01 X-12.9624 Y-4.4083
G01 X-13.8132 Y-4.4083
G01 X-13.8218 Y-4.4085
G01 X-13.8352 Y-4.4096
G01 X-13.8524 Y-4.4121
G01 X-13.8632 Y-4.4145
G01 X-13.8762 Y-4.4180
G01 X-13.8867 Y-4.4214
G01 X-13.8970 Y-4.4254
G01 X-13.9093 Y-4.4310
G01 X-13.9246 Y-4.4391
G01 X-13.9340 Y-4.4449
G01 X-13.9450 Y-4.4526
G01 X-13.9519 Y-4.4579
G01 X-13.9622 Y-4.4667
G01 X-13.9702 Y-4.4743
G01 X-13.9778 Y-4.4823
G01 X-13.9850 Y-4.4907
G01 X-13.9918 Y-4.4994
G01 X-13.9982 Y-4.5085
G01 X-14.0041 Y-4.5178
G01 X-14.0107 Y-4.5296
G01 X-14.0156 Y-4.5395
G01 X-14.0222 Y-4.5555
G01 X-14.0265 Y-4.5683
G01 X-14.0294 Y-4.5789
G01 X-14.0319 Y-4.5897
G01 X-14.0341 Y-4.6030
G01 X-14.0358 Y-4.6202
G01 X-14.0362 Y-4.6325
G01 X-14.0362 Y-4.9467
G01 X-14.0933 Y-4.9467
G01 X-14.0933 Y-4.5372
G01 X-14.0938 Y-4.5276
G01 X-14.0963 Y-4.5133
G01 X-14.1008 Y-4.4995
G01 X-14.1073 Y-4.4866
G01 X-14.1127 Y-4.4786
G01 X-14.1222 Y-4.4676
G01 X-14.1293 Y-4.4611
G01 X-14.1412 Y-4.4528
G01 X-14.1541 Y-4.4463
G01 X-14.1632 Y-4.4430
G01 X-14.1725 Y-4.4407
G01 X-14.1821 Y-4.4393
G01 X-14.1917 Y-4.4388
G01 X-15.2077 Y-4.4388
G01 X-15.2222 Y-4.4399
G01 X-15.2363 Y-4.4430
G01 X-15.2498 Y-4.4482
G01 X-15.2624 Y-4.4554
G01 X-15.2738 Y-4.4643
G01 X-15.2838 Y-4.4748
G01 X-15.2921 Y-4.4866
G01 X-15.2986 Y-4.4995
G01 X-15.3032 Y-4.5133
G01 X-15.3057 Y-4.5276
G01 X-15.3061 Y-4.5372
G01 X-15.3061 Y-5.0737
G01 X-15.3633 Y-5.0737
G01 X-15.3633 Y-4.6313
G01 X-15.3642 Y-4.6140
G01 X-15.3657 Y-4.6006
G01 X-15.3695 Y-4.5813
G01 X-15.3730 Y-4.5683
G01 X-15.3765 Y-4.5578
G01 X-15.3814 Y-4.5452
G01 X-15.3888 Y-4.5296
G01 X-15.3941 Y-4.5199
G01 X-15.4013 Y-4.5085
G01 X-15.4076 Y-4.4994
G01 X-15.4145 Y-4.4907
G01 X-15.4233 Y-4.4805
G01 X-15.4356 Y-4.4683
G01 X-15.4439 Y-4.4610
G01 X-15.4544 Y-4.4526
G01 X-15.4635 Y-4.4463
G01 X-15.4728 Y-4.4403
G01 X-15.4846 Y-4.4338
G01 X-15.4945 Y-4.4289
G01 X-15.5105 Y-4.4223
G01 X-15.5256 Y-4.4173
G01 X-15.5340 Y-4.4150
G01 X-15.5471 Y-4.4121
G01 X-15.5666 Y-4.4093
G01 X-15.5875 Y-4.4083
G01 X-16.9603 Y-4.4083
G01 X-16.9714 Y-4.4085
G01 X-16.9824 Y-4.4093
G01 X-16.9934 Y-4.4107
G01 X-17.0043 Y-4.4126
G01 X-17.0151 Y-4.4150
G01 X-17.0258 Y-4.4180
G01 X-17.0363 Y-4.4214
G01 X-17.0466 Y-4.4254
G01 X-17.0589 Y-4.4310
G01 X-17.0742 Y-4.4391
G01 X-17.0856 Y-4.4463
G01 X-17.0966 Y-4.4541
G01 X-17.1099 Y-4.4651
G01 X-17.1198 Y-4.4743
G01 X-17.1290 Y-4.4841
G01 X-17.1414 Y-4.4994
G01 X-17.1491 Y-4.5105
G01 X-17.1592 Y-4.5274
G01 X-17.1652 Y-4.5395
G01 X-17.1718 Y-4.5555
G01 X-17.1768 Y-4.5706
G01 X-17.1810 Y-4.5874
G01 X-17.1834 Y-4.6006
G01 X-17.1849 Y-4.6140
G01 X-17.1858 Y-4.6337
G01 X-17.1858 Y-6.2167
G01 X-18.5129 Y-6.2167
G01 X-18.5129 Y-5.9342
G01 X-18.5131 Y-5.9231
G01 X-18.5140 Y-5.9121
G01 X-18.5153 Y-5.9011
G01 X-18.5172 Y-5.8902
G01 X-18.5196 Y-5.8794
G01 X-18.5226 Y-5.8688
G01 X-18.5261 Y-5.8582
G01 X-18.5335 Y-5.8400
G01 X-18.5407 Y-5.8258
G01 X-18.5509 Y-5.8089
G01 X-18.5587 Y-5.7980
G01 X-18.5697 Y-5.7846
G01 X-18.5789 Y-5.7748
G01 X-18.5887 Y-5.7655
G01 X-18.6021 Y-5.7546
G01 X-18.6151 Y-5.7454
G01 X-18.6299 Y-5.7365
G01 X-18.6419 Y-5.7304
G01 X-18.6543 Y-5.7250
G01 X-18.6729 Y-5.7184
G01 X-18.6859 Y-5.7149
G01 X-18.7053 Y-5.7112
G01 X-18.7249 Y-5.7092
G01 X-18.7383 Y-5.7087
G01 X-19.4189 Y-5.7088
G01 X-19.4386 Y-5.7098
G01 X-19.4496 Y-5.7112
G01 X-19.4605 Y-5.7131
G01 X-19.4713 Y-5.7155
G01 X-19.4820 Y-5.7184
G01 X-19.5006 Y-5.7250
G01 X-19.5129 Y-5.7304
G01 X-19.5228 Y-5.7354
G01 X-19.5398 Y-5.7454
G01 X-19.5528 Y-5.7546
G01 X-19.5596 Y-5.7599
G01 X-19.5697 Y-5.7688
G01 X-20.0179 Y-6.2167
G01 X-20.7786 Y-6.2167
G01 X-21.3170 Y-5.6782
G01 X-21.3170 Y-4.9179
G01 X-20.7788 Y-4.3817
G01 X-20.0179 Y-4.3817
G01 X-19.5697 Y-4.8296
G01 X-19.5596 Y-4.8385
G01 X-19.5528 Y-4.8438
G01 X-19.5398 Y-4.8530
G01 X-19.5228 Y-4.8630
G01 X-19.5129 Y-4.8680
G01 X-19.5006 Y-4.8734
G01 X-19.4820 Y-4.8800
G01 X-19.4713 Y-4.8829
G01 X-19.4605 Y-4.8853
G01 X-19.4496 Y-4.8872
G01 X-19.4386 Y-4.8886
G01 X-19.4189 Y-4.8896
G01 X-18.7383 Y-4.8897
G01 X-18.7249 Y-4.8892
G01 X-18.7053 Y-4.8872
G01 X-18.6859 Y-4.8835
G01 X-18.6729 Y-4.8800
G01 X-18.6543 Y-4.8734
G01 X-18.6419 Y-4.8680
G01 X-18.6245 Y-4.8588
G01 X-18.6131 Y-4.8517
G01 X-18.5972 Y-4.8400
G01 X-18.5869 Y-4.8313
G01 X-18.5772 Y-4.8219
G01 X-18.5641 Y-4.8072
G01 X-18.5522 Y-4.7915
G01 X-18.5450 Y-4.7801
G01 X-18.5384 Y-4.7683
G01 X-18.5310 Y-4.7527
G01 X-18.5253 Y-4.7379
G01 X-18.5226 Y-4.7296
G01 X-18.5191 Y-4.7166
G01 X-18.5153 Y-4.6973
G01 X-18.5140 Y-4.6863
G01 X-18.5131 Y-4.6753
G01 X-18.5129 Y-4.6642
G01 X-18.5129 Y-4.3808
G00 Z1.0000
G00 X-15.5700 Y-11.9534
G01 F20.00
G01 Z-0.0600
G01 F20.00
G01 X-15.5554 Y-11.9571
G01 X-15.5361 Y-11.9611
G01 X-15.5233 Y-11.9632
G01 X-15.5037 Y-11.9656
G01 X-15.4840 Y-11.9671
G01 X-15.4643 Y-11.9676
G01 X-15.4445 Y-11.9671
G01 X-15.4271 Y-11.9658
G01 X-15.4271 Y-13.5999
G01 X-15.4265 Y-13.6259
G01 X-15.4238 Y-13.6585
G01 X-15.4214 Y-13.6776
G01 X-15.4182 Y-13.6965
G01 X-15.4113 Y-13.7285
G01 X-15.4043 Y-13.7536
G01 X-15.3962 Y-13.7782
G01 X-15.3842 Y-13.8087
G01 X-15.3763 Y-13.8262
G01 X-15.3677 Y-13.8434
G01 X-15.3518 Y-13.8720
G01 X-15.3379 Y-13.8940
G01 X-15.3189 Y-13.9206
G01 X-15.3070 Y-13.9357
G01 X-15.2945 Y-13.9503
G01 X-15.2745 Y-13.9718
G01 X-14.2739 Y-14.9724
G01 X-14.2551 Y-14.9903
G01 X-14.2354 Y-15.0073
G01 X-14.2203 Y-15.0192
G01 X-14.1937 Y-15.0382
G01 X-14.1659 Y-15.0555
G01 X-14.1491 Y-15.0649
G01 X-14.1320 Y-15.0736
G01 X-14.1022 Y-15.0871
G01 X-14.0716 Y-15.0987
G01 X-14.0533 Y-15.1046
G01 X-14.0282 Y-15.1115
G01 X-13.9965 Y-15.1184
G01 X-13.9856 Y-15.1371
G01 X-13.9581 Y-15.1799
G01 X-13.9326 Y-15.2160
G01 X-13.9055 Y-15.2508
G01 X-13.8969 Y-15.2613
G01 X-13.8680 Y-15.2946
G01 X-13.8329 Y-15.3315
G01 X-13.7960 Y-15.3666
G01 X-13.7575 Y-15.3998
G01 X-13.7174 Y-15.4312
G01 X-13.6813 Y-15.4567
G01 X-13.6385 Y-15.4842
G01 X-13.6269 Y-15.4911
G01 X-13.5884 Y-15.5128
G01 X-13.5430 Y-15.5357
G01 X-13.4964 Y-15.5563
G01 X-13.4489 Y-15.5746
G01 X-13.4006 Y-15.5906
G01 X-13.3515 Y-15.6042
G01 X-13.3019 Y-15.6153
G01 X-13.2517 Y-15.6240
G01 X-13.2012 Y-15.6303
G01 X-13.1504 Y-15.6340
G01 X-13.0995 Y-15.6353
G01 X-13.0487 Y-15.6340
G01 X-12.9979 Y-15.6303
G01 X-12.9474 Y-15.6240
G01 X-12.8972 Y-15.6153
G01 X-12.8475 Y-15.6042
G01 X-12.7985 Y-15.5906
G01 X-12.7501 Y-15.5746
G01 X-12.7026 Y-15.5563
G01 X-12.6561 Y-15.5357
G01 X-12.6106 Y-15.5128
G01 X-12.5664 Y-15.4877
G01 X-12.5233 Y-15.4605
G01 X-12.4817 Y-15.4312
G01 X-12.4416 Y-15.3998
G01 X-12.4030 Y-15.3666
G01 X-12.3662 Y-15.3315
G01 X-12.3311 Y-15.2946
G01 X-12.2978 Y-15.2561
G01 X-12.2665 Y-15.2160
G01 X-12.2372 Y-15.1743
G01 X-12.2100 Y-15.1313
G01 X-12.1849 Y-15.0870
G01 X-12.1620 Y-15.0416
G01 X-12.1414 Y-14.9950
G01 X-12.1230 Y-14.9475
G01 X-12.1071 Y-14.8992
G01 X-12.0935 Y-14.8501
G01 X-12.0823 Y-14.8005
G01 X-12.0747 Y-14.7570
G01 X-12.0727 Y-14.7436
G01 X-12.0674 Y-14.6998
G01 X-12.0641 Y-14.6558
G01 X-12.0625 Y-14.6049
G01 X-12.0625 Y-14.5914
G01 X-12.0637 Y-14.5473
G01 X-12.0674 Y-14.4965
G01 X-12.0736 Y-14.4460
G01 X-12.0811 Y-14.4024
G01 X-12.0837 Y-14.3892
G01 X-12.0952 Y-14.3396
G01 X-12.1071 Y-14.2971
G01 X-12.1208 Y-14.2551
G01 X-12.1254 Y-14.2424
G01 X-12.1414 Y-14.2012
G01 X-12.1620 Y-14.1547
G01 X-12.1849 Y-14.1092
G01 X-12.2100 Y-14.0650
G01 X-12.2372 Y-14.0219
G01 X-12.2665 Y-13.9803
G01 X-12.2978 Y-13.9402
G01 X-12.3266 Y-13.9067
G01 X-12.3357 Y-13.8967
G01 X-12.3662 Y-13.8648
G01 X-12.3981 Y-13.8343
G01 X-12.4364 Y-13.8008
G01 X-12.4469 Y-13.7922
G01 X-12.4817 Y-13.7651
G01 X-12.5233 Y-13.7358
G01 X-12.5664 Y-13.7086
G01 X-12.6106 Y-13.6835
G01 X-12.6561 Y-13.6606
G01 X-12.6964 Y-13.6426
G01 X-12.7089 Y-13.6375
G01 X-12.7565 Y-13.6194
G01 X-12.7985 Y-13.6057
G01 X-12.8410 Y-13.5938
G01 X-12.8541 Y-13.5905
G01 X-12.8972 Y-13.5809
G01 X-12.9418 Y-13.5731
G01 X-12.9221 Y-13.5606
G01 X-12.8860 Y-13.5352
G01 X-12.8751 Y-13.5272
G01 X-12.8404 Y-13.4999
G01 X-12.8018 Y-13.4667
G01 X-12.7650 Y-13.4316
G01 X-12.7299 Y-13.3947
G01 X-12.6966 Y-13.3562
G01 X-12.6694 Y-13.3214
G01 X-12.6613 Y-13.3106
G01 X-12.6360 Y-13.2744
G01 X-12.6237 Y-13.2552
G01 X-12.6156 Y-13.3019
G01 X-12.6060 Y-13.3450
G01 X-12.6027 Y-13.3581
G01 X-12.5909 Y-13.4006
G01 X-12.5771 Y-13.4426
G01 X-12.5725 Y-13.4553
G01 X-12.5566 Y-13.4964
G01 X-12.5388 Y-13.5368
G01 X-12.5330 Y-13.5490
G01 X-12.5131 Y-13.5884
G01 X-12.4914 Y-13.6269
G01 X-12.4844 Y-13.6385
G01 X-12.4607 Y-13.6757
G01 X-12.4354 Y-13.7119
G01 X-12.4273 Y-13.7227
G01 X-12.4001 Y-13.7575
G01 X-12.3713 Y-13.7910
G01 X-12.3623 Y-13.8010
G01 X-12.3318 Y-13.8329
G01 X-12.2998 Y-13.8634
G01 X-12.2898 Y-13.8725
G01 X-12.2563 Y-13.9012
G01 X-12.2216 Y-13.9285
G01 X-12.2107 Y-13.9365
G01 X-12.1746 Y-13.9619
G01 X-12.1373 Y-13.9856
G01 X-12.1258 Y-13.9925
G01 X-12.0873 Y-14.0142
G01 X-12.0479 Y-14.0341
G01 X-12.0357 Y-14.0399
G01 X-11.9953 Y-14.0577
G01 X-11.9717 Y-14.0669
G01 X-11.9769 Y-14.0736
G01 X-11.9846 Y-14.0846
G01 X-11.9919 Y-14.0960
G01 X-11.9985 Y-14.1078
G01 X-12.0046 Y-14.1198
G01 X-12.0101 Y-14.1322
G01 X-12.0149 Y-14.1448
G01 X-12.0192 Y-14.1576
G01 X-12.0228 Y-14.1706
G01 X-12.0257 Y-14.1838
G01 X-12.0280 Y-14.1971
G01 X-12.0297 Y-14.2105
G01 X-12.0307 Y-14.2240
G01 X-12.0310 Y-14.2375
G01 X-12.0310 Y-15.6691
G01 X-15.5700 Y-15.6691
G01 X-15.5700 Y-11.9534
G00 Z1.0000
G00 X-14.3686 Y-12.1344
G01 F20.00
G01 Z-0.0600
G01 F20.00
G01 X-14.3686 Y-12.1173
G01 X-14.3303 Y-12.0791
G01 X-14.3568 Y-12.1165
G01 X-14.3686 Y-12.1344
G00 Z1.0000
G00 X-14.1175 Y-11.8662
G01 F20.00
G01 Z-0.0600
G01 F20.00
G01 X-13.5712 Y-11.3199
G01 X-12.9674 Y-11.3199
G01 X-12.9792 Y-11.3317
G01 X-12.9924 Y-11.3458
G01 X-13.2946 Y-11.6813
G01 X-13.3461 Y-11.6723
G01 X-13.3967 Y-11.6661
G01 X-13.4474 Y-11.6623
G01 X-13.4916 Y-11.6612
G01 X-13.5051 Y-11.6612
G01 X-13.5492 Y-11.6623
G01 X-13.5932 Y-11.6655
G01 X-13.6067 Y-11.6668
G01 X-13.6572 Y-11.6734
G01 X-13.7007 Y-11.6810
G01 X-13.7438 Y-11.6906
G01 X-13.7569 Y-11.6939
G01 X-13.7994 Y-11.7058
G01 X-13.8477 Y-11.7217
G01 X-13.8952 Y-11.7400
G01 X-13.9417 Y-11.7607
G01 X-13.9872 Y-11.7836
G01 X-14.0315 Y-11.8086
G01 X-14.0745 Y-11.8359
G01 X-14.1175 Y-11.8662
G00 Z1.0000
G00 X-13.2351 Y-11.8793
G01 F20.00
G01 Z-0.0600
G01 F20.00
G01 X-13.2509 Y-11.8742
G01 X-13.2893 Y-11.8636
G01 X-13.3305 Y-11.8544
G01 X-13.3721 Y-11.8471
G01 X-13.4140 Y-11.8420
G01 X-13.4561 Y-11.8389
G01 X-13.4983 Y-11.8378
G01 X-13.5405 Y-11.8389
G01 X-13.5827 Y-11.8420
G01 X-13.6246 Y-11.8471
G01 X-13.6662 Y-11.8544
G01 X-13.7074 Y-11.8636
G01 X-13.7481 Y-11.8749
G01 X-13.7882 Y-11.8881
G01 X-13.8276 Y-11.9033
G01 X-13.8662 Y-11.9204
G01 X-13.9039 Y-11.9394
G01 X-13.9407 Y-11.9602
G01 X-13.9763 Y-11.9828
G01 X-14.0109 Y-12.0071
G01 X-14.0442 Y-12.0331
G01 X-14.0761 Y-12.0607
G01 X-14.1067 Y-12.0898
G01 X-14.1358 Y-12.1204
G01 X-14.1634 Y-12.1524
G01 X-14.1894 Y-12.1857
G01 X-14.2137 Y-12.2202
G01 X-14.2363 Y-12.2559
G01 X-14.2571 Y-12.2926
G01 X-14.2761 Y-12.3304
G01 X-14.2932 Y-12.3690
G01 X-14.3084 Y-12.4084
G01 X-14.3217 Y-12.4485
G01 X-14.3329 Y-12.4892
G01 X-14.3422 Y-12.5304
G01 X-14.3494 Y-12.5720
G01 X-14.3546 Y-12.6139
G01 X-14.3577 Y-12.6560
G01 X-14.3587 Y-12.6982
G01 X-14.3577 Y-12.7404
G01 X-14.3546 Y-12.7826
G01 X-14.3494 Y-12.8245
G01 X-14.3422 Y-12.8661
G01 X-14.3329 Y-12.9073
G01 X-14.3217 Y-12.9480
G01 X-14.3084 Y-12.9881
G01 X-14.2932 Y-13.0275
G01 X-14.2761 Y-13.0661
G01 X-14.2571 Y-13.1038
G01 X-14.2363 Y-13.1406
G01 X-14.2137 Y-13.1762
G01 X-14.1894 Y-13.2108
G01 X-14.1634 Y-13.2441
G01 X-14.1358 Y-13.2760
G01 X-14.1067 Y-13.3066
G01 X-14.0761 Y-13.3357
G01 X-14.0442 Y-13.3633
G01 X-14.0109 Y-13.3893
G01 X-13.9763 Y-13.4136
G01 X-13.9407 Y-13.4362
G01 X-13.9039 Y-13.4570
G01 X-13.8662 Y-13.4760
G01 X-13.8276 Y-13.4931
G01 X-13.7882 Y-13.5083
G01 X-13.7481 Y-13.5216
G01 X-13.7050 Y-13.5334
G01 X-13.6662 Y-13.5421
G01 X-13.6246 Y-13.5493
G01 X-13.5827 Y-13.5545
G01 X-13.5429 Y-13.5574
G01 X-13.4983 Y-13.5586
G01 X-13.4561 Y-13.5576
G01 X-13.4164 Y-13.5547
G01 X-13.3721 Y-13.5493
G01 X-13.3281 Y-13.5416
G01 X-13.2893 Y-13.5328
G01 X-13.2509 Y-13.5222
G01 X-13.2062 Y-13.5075
G01 X-13.1691 Y-13.4931
G01 X-13.1326 Y-13.4770
G01 X-13.0927 Y-13.4570
G01 X-13.0539 Y-13.4349
G01 X-13.0203 Y-13.4136
G01 X-12.9877 Y-13.3907
G01 X-12.9525 Y-13.3633
G01 X-12.9205 Y-13.3357
G01 X-12.8917 Y-13.3083
G01 X-12.8608 Y-13.2760
G01 X-12.8332 Y-13.2441
G01 X-12.8087 Y-13.2127
G01 X-12.7829 Y-13.1762
G01 X-12.7603 Y-13.1406
G01 X-12.7407 Y-13.1059
G01 X-12.7205 Y-13.0661
G01 X-12.7034 Y-13.0275
G01 X-12.6891 Y-12.9903
G01 X-12.6750 Y-12.9480
G01 X-12.6631 Y-12.9049
G01 X-12.6545 Y-12.8661
G01 X-12.6476 Y-12.8269
G01 X-12.6419 Y-12.7801
G01 X-12.6390 Y-12.7404
G01 X-12.6379 Y-12.6994
G01 X-12.6391 Y-12.6536
G01 X-12.6421 Y-12.6139
G01 X-12.6469 Y-12.5744
G01 X-12.6550 Y-12.5280
G01 X-12.6637 Y-12.4892
G01 X-12.6743 Y-12.4508
G01 X-12.6882 Y-12.4084
G01 X-12.7034 Y-12.3690
G01 X-12.7113 Y-12.3512
G01 X-12.4422 Y-12.0525
G01 X-0.6993 Y-12.0525
G01 X-0.6820 Y-12.0521
G01 X-0.6647 Y-12.0508
G01 X-0.6475 Y-12.0487
G01 X-0.6329 Y-12.0462
G01 X-0.6136 Y-12.0420
G01 X-0.5969 Y-12.0373
G01 X-0.5828 Y-12.0327
G01 X-0.5621 Y-12.0247
G01 X-0.5485 Y-12.0187
G01 X-0.5331 Y-12.0109
G01 X-0.5180 Y-12.0024
G01 X-0.5054 Y-11.9944
G01 X-0.4873 Y-11.9817
G01 X-0.4756 Y-11.9725
G01 X-0.4625 Y-11.9612
G01 X-0.4500 Y-11.9493
G01 X0.5872 Y-10.9121
G01 X0.9414 Y-10.9121
G01 X0.9490 Y-10.9350
G01 X0.9678 Y-10.9838
G01 X0.9908 Y-11.0360
G01 X1.0154 Y-11.0849
G01 X1.0436 Y-11.1345
G01 X1.0730 Y-11.1807
G01 X1.1031 Y-11.2234
G01 X1.1353 Y-11.2646
G01 X1.1725 Y-11.3079
G01 X1.2102 Y-11.3475
G01 X1.2498 Y-11.3853
G01 X1.2931 Y-11.4225
G01 X1.3363 Y-11.4560
G01 X1.3791 Y-11.4861
G01 X1.4232 Y-11.5141
G01 X1.4729 Y-11.5424
G01 X1.5218 Y-11.5669
G01 X1.5718 Y-11.5891
G01 X1.6228 Y-11.6088
G01 X1.6747 Y-11.6260
G01 X1.7274 Y-11.6405
G01 X1.7808 Y-11.6525
G01 X1.8323 Y-11.6615
G01 X1.8914 Y-11.6688
G01 X1.9435 Y-11.6726
G01 X2.0006 Y-11.6739
G01 X2.0529 Y-11.6726
G01 X2.1075 Y-11.6686
G01 X2.1617 Y-11.6619
G01 X2.2156 Y-11.6525
G01 X2.2690 Y-11.6405
G01 X2.3217 Y-11.6260
G01 X2.3737 Y-11.6088
G01 X2.4247 Y-11.5891
G01 X2.4769 Y-11.5659
G01 X2.5235 Y-11.5424
G01 X2.5711 Y-11.5154
G01 X2.6173 Y-11.4861
G01 X2.6601 Y-11.4560
G01 X2.7070 Y-11.4194
G01 X2.7466 Y-11.3853
G01 X2.7862 Y-11.3475
G01 X2.8239 Y-11.3079
G01 X2.8581 Y-11.2684
G01 X2.8947 Y-11.2214
G01 X2.9248 Y-11.1787
G01 X2.9541 Y-11.1325
G01 X2.9821 Y-11.0827
G01 X3.0056 Y-11.0360
G01 X3.0278 Y-10.9860
G01 X3.0475 Y-10.9350
G01 X3.0639 Y-10.8853
G01 X3.0798 Y-10.8280
G01 X3.0912 Y-10.7769
G01 X3.1006 Y-10.7231
G01 X3.1073 Y-10.6688
G01 X3.1111 Y-10.6166
G01 X3.1126 Y-10.5571
G01 X3.1113 Y-10.5049
G01 X3.1073 Y-10.4503
G01 X3.1006 Y-10.3960
G01 X3.0912 Y-10.3421
G01 X3.0792 Y-10.2888
G01 X3.0646 Y-10.2360
G01 X3.0475 Y-10.1841
G01 X3.0278 Y-10.1331
G01 X3.0056 Y-10.0831
G01 X2.9810 Y-10.0342
G01 X2.9541 Y-9.9866
G01 X2.9248 Y-9.9404
G01 X2.8933 Y-9.8957
G01 X2.8597 Y-9.8526
G01 X2.8239 Y-9.8112
G01 X2.7862 Y-9.7715
G01 X2.7466 Y-9.7338
G01 X2.7052 Y-9.6981
G01 X2.6621 Y-9.6644
G01 X2.6173 Y-9.6330
G01 X2.5711 Y-9.6037
G01 X2.5235 Y-9.5767
G01 X2.4747 Y-9.5521
G01 X2.4247 Y-9.5300
G01 X2.3737 Y-9.5103
G01 X2.3217 Y-9.4931
G01 X2.2690 Y-9.4785
G01 X2.2156 Y-9.4666
G01 X2.1617 Y-9.4572
G01 X2.1075 Y-9.4505
G01 X2.0529 Y-9.4465
G01 X1.9982 Y-9.4451
G01 X1.9435 Y-9.4465
G01 X1.8890 Y-9.4505
G01 X1.8347 Y-9.4572
G01 X1.7832 Y-9.4661
G01 X1.7274 Y-9.4785
G01 X1.6747 Y-9.4931
G01 X1.6251 Y-9.5095
G01 X1.5718 Y-9.5300
G01 X1.5218 Y-9.5521
G01 X1.4750 Y-9.5756
G01 X1.4253 Y-9.6037
G01 X1.3771 Y-9.6343
G01 X1.3344 Y-9.6644
G01 X1.2931 Y-9.6966
G01 X1.2481 Y-9.7355
G01 X1.2102 Y-9.7715
G01 X1.1725 Y-9.8112
G01 X1.1353 Y-9.8545
G01 X1.1031 Y-9.8957
G01 X1.0730 Y-9.9384
G01 X1.0412 Y-9.9887
G01 X1.0154 Y-10.0342
G01 X0.9919 Y-10.0809
G01 X0.9686 Y-10.1331
G01 X0.9490 Y-10.1841
G01 X0.9414 Y-10.2070
G01 X0.4412 Y-10.2070
G01 X0.4239 Y-10.2074
G01 X0.4066 Y-10.2087
G01 X0.3871 Y-10.2112
G01 X0.3724 Y-10.2138
G01 X0.3579 Y-10.2170
G01 X0.3389 Y-10.2222
G01 X0.3224 Y-10.2276
G01 X0.3041 Y-10.2348
G01 X0.2905 Y-10.2409
G01 X0.2772 Y-10.2475
G01 X0.2600 Y-10.2572
G01 X0.2434 Y-10.2678
G01 X0.2312 Y-10.2764
G01 X0.2176 Y-10.2870
G01 X0.2045 Y-10.2983
G01 X0.1919 Y-10.3103
G01 X-0.8453 Y-11.3475
G01 X-12.5992 Y-11.3475
G01 X-12.6165 Y-11.3479
G01 X-12.6338 Y-11.3492
G01 X-12.6487 Y-11.3510
G01 X-12.6706 Y-11.3548
G01 X-12.6851 Y-11.3581
G01 X-12.7019 Y-11.3628
G01 X-12.7183 Y-11.3682
G01 X-12.7323 Y-11.3736
G01 X-12.7526 Y-11.3826
G01 X-12.7659 Y-11.3894
G01 X-12.7810 Y-11.3980
G01 X-12.7956 Y-11.4073
G01 X-12.8079 Y-11.4159
G01 X-12.8253 Y-11.4296
G01 X-12.8366 Y-11.4394
G01 X-12.8474 Y-11.4498
G01 X-12.8611 Y-11.4641
G01 X-13.2351 Y-11.8793
G00 Z1.0000
G00 X-12.4730 Y-12.5425
G01 F20.00
G01 Z-0.0600
G01 F20.00
G01 X-12.4811 Y-12.4959
G01 X-12.4907 Y-12.4528
G01 X-12.5040 Y-12.4036
G01 X-12.5082 Y-12.3898
G01 X-12.3636 Y-12.2293
G01 X-12.1622 Y-12.2293
G01 X-12.1802 Y-12.2410
G01 X-12.2162 Y-12.2665
G01 X-12.2563 Y-12.2978
G01 X-12.2949 Y-12.3311
G01 X-12.3318 Y-12.3662
G01 X-12.3669 Y-12.4030
G01 X-12.4001 Y-12.4416
G01 X-12.4273 Y-12.4764
G01 X-12.4354 Y-12.4872
G01 X-12.4607 Y-12.5233
G01 X-12.4730 Y-12.5425
G00 Z1.0000
G00 X-11.0346 Y-12.2293
G01 F20.00
G01 Z-0.0600
G01 F20.00
G01 X-4.2628 Y-12.2293
G01 X-4.2808 Y-12.2410
G01 X-4.3168 Y-12.2665
G01 X-4.3569 Y-12.2978
G01 X-4.3955 Y-12.3311
G01 X-4.4275 Y-12.3615
G01 X-4.4371 Y-12.3710
G01 X-4.4719 Y-12.4081
G01 X-4.5007 Y-12.4416
G01 X-4.5279 Y-12.4764
G01 X-4.5360 Y-12.4872
G01 X-4.5613 Y-12.5233
G01 X-4.5908 Y-12.5702
G01 X-10.7080 Y-12.5678
G01 X-10.7361 Y-12.5233
G01 X-10.7614 Y-12.4872
G01 X-10.7695 Y-12.4764
G01 X-10.8010 Y-12.4364
G01 X-10.8299 Y-12.4030
G01 X-10.8603 Y-12.3710
G01 X-10.8699 Y-12.3615
G01 X-10.9019 Y-12.3311
G01 X-10.9405 Y-12.2978
G01 X-10.9806 Y-12.2665
G01 X-11.0166 Y-12.2410
G01 X-11.0346 Y-12.2293
G00 Z1.0000
G00 X-13.6560 Y-13.7232
G01 F20.00
G01 Z-0.0600
G01 F20.00
G01 X-13.6757 Y-13.7358
G01 X-13.7119 Y-13.7612
G01 X-13.7227 Y-13.7692
G01 X-13.7575 Y-13.7964
G01 X-13.7910 Y-13.8252
G01 X-13.8010 Y-13.8343
G01 X-13.8329 Y-13.8648
G01 X-13.8581 Y-13.8912
G01 X-14.3686 Y-13.3807
G01 X-14.3686 Y-13.2620
G01 X-14.3568 Y-13.2800
G01 X-14.3313 Y-13.3160
G01 X-14.3000 Y-13.3562
G01 X-14.2668 Y-13.3947
G01 X-14.2317 Y-13.4316
G01 X-14.1948 Y-13.4667
G01 X-14.1563 Y-13.4999
G01 X-14.1161 Y-13.5312
G01 X-14.0801 Y-13.5567
G01 X-14.0689 Y-13.5642
G01 X-14.0315 Y-13.5878
G01 X-13.9931 Y-13.6096
G01 X-13.9478 Y-13.6328
G01 X-13.9356 Y-13.6386
G01 X-13.8952 Y-13.6564
G01 X-13.8540 Y-13.6724
G01 X-13.8413 Y-13.6769
G01 X-13.7994 Y-13.6907
G01 X-13.7503 Y-13.7043
G01 X-13.7007 Y-13.7154
G01 X-13.6560 Y-13.7232
G00 Z1.0000
G00 X-13.8996 Y-14.9507
G01 F20.00
G01 Z-0.0600
G01 F20.00
G01 X-13.8842 Y-14.9507
G01 X-13.8763 Y-14.9682
G01 X-13.8572 Y-15.0058
G01 X-13.8375 Y-15.0405
G01 X-13.8136 Y-15.0781
G01 X-13.7906 Y-15.1107
G01 X-13.7646 Y-15.1440
G01 X-13.7371 Y-15.1759
G01 X-13.7096 Y-15.2048
G01 X-13.6755 Y-15.2373
G01 X-13.6454 Y-15.2632
G01 X-13.6121 Y-15.2892
G01 X-13.5776 Y-15.3135
G01 X-13.5439 Y-15.3349
G01 X-13.5030 Y-15.3581
G01 X-13.4674 Y-15.3759
G01 X-13.4288 Y-15.3930
G01 X-13.3894 Y-15.4082
G01 X-13.3516 Y-15.4208
G01 X-13.3063 Y-15.4333
G01 X-13.2674 Y-15.4420
G01 X-13.2258 Y-15.4492
G01 X-13.1839 Y-15.4544
G01 X-13.1442 Y-15.4574
G01 X-13.0971 Y-15.4585
G01 X-13.0573 Y-15.4575
G01 X-13.0152 Y-15.4544
G01 X-12.9733 Y-15.4492
G01 X-12.9341 Y-15.4424
G01 X-12.8881 Y-15.4321
G01 X-12.8498 Y-15.4215
G01 X-12.8097 Y-15.4082
G01 X-12.7703 Y-15.3930
G01 X-12.7339 Y-15.3769
G01 X-12.6918 Y-15.3558
G01 X-12.6572 Y-15.3361
G01 X-12.6215 Y-15.3135
G01 X-12.5870 Y-15.2892
G01 X-12.5556 Y-15.2647
G01 X-12.5217 Y-15.2357
G01 X-12.4929 Y-15.2082
G01 X-12.4604 Y-15.1741
G01 X-12.4344 Y-15.1440
G01 X-12.4085 Y-15.1107
G01 X-12.3841 Y-15.0762
G01 X-12.3628 Y-15.0425
G01 X-12.3396 Y-15.0016
G01 X-12.3217 Y-14.9660
G01 X-12.3046 Y-14.9274
G01 X-12.2894 Y-14.8880
G01 X-12.2769 Y-14.8502
G01 X-12.2644 Y-14.8049
G01 X-12.2557 Y-14.7660
G01 X-12.2485 Y-14.7244
G01 X-12.2433 Y-14.6825
G01 X-12.2403 Y-14.6428
G01 X-12.2392 Y-14.5957
G01 X-12.2402 Y-14.5559
G01 X-12.2433 Y-14.5138
G01 X-12.2488 Y-14.4695
G01 X-12.2557 Y-14.4303
G01 X-12.2649 Y-14.3891
G01 X-12.2769 Y-14.3461
G01 X-12.2894 Y-14.3083
G01 X-12.3046 Y-14.2689
G01 X-12.3228 Y-14.2281
G01 X-12.3407 Y-14.1926
G01 X-12.3603 Y-14.1579
G01 X-12.3855 Y-14.1181
G01 X-12.4085 Y-14.0856
G01 X-12.4344 Y-14.0523
G01 X-12.4637 Y-14.0186
G01 X-12.4911 Y-13.9897
G01 X-12.5200 Y-13.9623
G01 X-12.5556 Y-13.9315
G01 X-12.5870 Y-13.9071
G01 X-12.6195 Y-13.8841
G01 X-12.6572 Y-13.8602
G01 X-12.6961 Y-13.8382
G01 X-12.7317 Y-13.8203
G01 X-12.7703 Y-13.8032
G01 X-12.8097 Y-13.7880
G01 X-12.8498 Y-13.7748
G01 X-12.8905 Y-13.7635
G01 X-12.9317 Y-13.7543
G01 X-12.9733 Y-13.7471
G01 X-13.0152 Y-13.7419
G01 X-13.0573 Y-13.7388
G01 X-13.0995 Y-13.7377
G01 X-13.1418 Y-13.7388
G01 X-13.1839 Y-13.7419
G01 X-13.2258 Y-13.7471
G01 X-13.2674 Y-13.7543
G01 X-13.3086 Y-13.7635
G01 X-13.3470 Y-13.7741
G01 X-13.3894 Y-13.7880
G01 X-13.4288 Y-13.8032
G01 X-13.4674 Y-13.8203
G01 X-13.5051 Y-13.8393
G01 X-13.5419 Y-13.8602
G01 X-13.5776 Y-13.8827
G01 X-13.6121 Y-13.9071
G01 X-13.6435 Y-13.9315
G01 X-13.6773 Y-13.9606
G01 X-13.7079 Y-13.9897
G01 X-13.7371 Y-14.0203
G01 X-13.7631 Y-14.0505
G01 X-13.7906 Y-14.0856
G01 X-13.8136 Y-14.1181
G01 X-13.8397 Y-14.1595
G01 X-14.5453 Y-13.4539
G01 X-14.5453 Y-12.0441
G01 X-13.6444 Y-11.1432
G01 X-1.1895 Y-11.1432
G01 X-1.1722 Y-11.1428
G01 X-1.1549 Y-11.1415
G01 X-1.1377 Y-11.1394
G01 X-1.1183 Y-11.1359
G01 X-1.1038 Y-11.1326
G01 X-1.0894 Y-11.1287
G01 X-1.0707 Y-11.1226
G01 X-1.0545 Y-11.1163
G01 X-1.0409 Y-11.1103
G01 X-1.0232 Y-11.1015
G01 X-1.0081 Y-11.0930
G01 X-0.9956 Y-11.0850
G01 X-0.9794 Y-11.0738
G01 X-0.9639 Y-11.0615
G01 X-0.9526 Y-11.0518
G01 X-0.9410 Y-11.0407
G01 X1.2512 Y-8.8465
G01 X1.2913 Y-8.8810
G01 X1.3344 Y-8.9146
G01 X1.3791 Y-8.9461
G01 X1.4232 Y-8.9741
G01 X1.4750 Y-9.0035
G01 X1.5218 Y-9.0269
G01 X1.5740 Y-9.0500
G01 X1.6228 Y-9.0688
G01 X1.6747 Y-9.0860
G01 X1.7274 Y-9.1005
G01 X1.7808 Y-9.1125
G01 X1.8347 Y-9.1219
G01 X1.8890 Y-9.1286
G01 X1.9435 Y-9.1326
G01 X1.9958 Y-9.1339
G01 X2.0529 Y-9.1326
G01 X2.1050 Y-9.1288
G01 X2.1641 Y-9.1215
G01 X2.2156 Y-9.1125
G01 X2.2690 Y-9.1005
G01 X2.3217 Y-9.0860
G01 X2.3737 Y-9.0688
G01 X2.4247 Y-9.0491
G01 X2.4747 Y-9.0269
G01 X2.5235 Y-9.0024
G01 X2.5690 Y-8.9766
G01 X2.6173 Y-8.9461
G01 X2.6601 Y-8.9160
G01 X2.7070 Y-8.8794
G01 X2.7466 Y-8.8453
G01 X2.7862 Y-8.8075
G01 X2.8239 Y-8.7679
G01 X2.8581 Y-8.7284
G01 X2.8947 Y-8.6814
G01 X2.9248 Y-8.6387
G01 X2.9528 Y-8.5945
G01 X2.9821 Y-8.5427
G01 X3.0056 Y-8.4960
G01 X3.0278 Y-8.4460
G01 X3.0475 Y-8.3950
G01 X3.0639 Y-8.3453
G01 X3.0792 Y-8.2903
G01 X3.0912 Y-8.2369
G01 X3.1002 Y-8.1854
G01 X3.1075 Y-8.1264
G01 X3.1113 Y-8.0742
G01 X3.1126 Y-8.0207
G01 X3.1113 Y-7.9649
G01 X3.1075 Y-7.9127
G01 X3.1002 Y-7.8536
G01 X3.0912 Y-7.8021
G01 X3.0792 Y-7.7488
G01 X3.0646 Y-7.6960
G01 X3.0483 Y-7.6464
G01 X3.0268 Y-7.5909
G01 X3.0056 Y-7.5431
G01 X2.9821 Y-7.4964
G01 X2.9553 Y-7.4487
G01 X2.9248 Y-7.4004
G01 X2.8947 Y-7.3576
G01 X2.8597 Y-7.3126
G01 X2.8239 Y-7.2712
G01 X2.7862 Y-7.2315
G01 X2.7466 Y-7.1938
G01 X2.7052 Y-7.1581
G01 X2.6601 Y-7.1230
G01 X2.6173 Y-7.0930
G01 X2.5732 Y-7.0650
G01 X2.5257 Y-7.0379
G01 X2.4747 Y-7.0121
G01 X2.4247 Y-6.9900
G01 X2.3737 Y-6.9703
G01 X2.3217 Y-6.9531
G01 X2.2690 Y-6.9385
G01 X2.2133 Y-6.9261
G01 X2.1593 Y-6.9169
G01 X2.1075 Y-6.9105
G01 X2.0553 Y-6.9066
G01 X1.9982 Y-6.9051
G01 X1.9435 Y-6.9065
G01 X1.8890 Y-6.9105
G01 X1.8347 Y-6.9172
G01 X1.7808 Y-6.9266
G01 X1.7251 Y-6.9392
G01 X1.6747 Y-6.9531
G01 X1.6251 Y-6.9695
G01 X1.5740 Y-6.9891
G01 X1.5218 Y-7.0121
G01 X1.4729 Y-7.0367
G01 X1.4253 Y-7.0637
G01 X1.3791 Y-7.0930
G01 X1.3344 Y-7.1244
G01 X1.2931 Y-7.1566
G01 X1.2498 Y-7.1938
G01 X1.2102 Y-7.2315
G01 X1.1741 Y-7.2694
G01 X1.1368 Y-7.3126
G01 X1.1031 Y-7.3557
G01 X1.0730 Y-7.3984
G01 X1.0424 Y-7.4466
G01 X1.0143 Y-7.4964
G01 X0.9908 Y-7.5431
G01 X0.9696 Y-7.5909
G01 X0.9482 Y-7.6464
G01 X0.9318 Y-7.6960
G01 X0.9172 Y-7.7488
G01 X0.9048 Y-7.8045
G01 X0.8959 Y-7.8560
G01 X0.8895 Y-7.9079
G01 X0.8851 Y-7.9673
G01 X0.8838 Y-8.0195
G01 X0.8851 Y-8.0718
G01 X0.8892 Y-8.1288
G01 X0.8956 Y-8.1807
G01 X0.8990 Y-8.2015
G01 X-1.3356 Y-10.4382
G01 X-13.7904 Y-10.4382
G01 X-13.8077 Y-10.4386
G01 X-13.8250 Y-10.4399
G01 X-13.8421 Y-10.4420
G01 X-13.8592 Y-10.4449
G01 X-13.8761 Y-10.4487
G01 X-13.8928 Y-10.4533
G01 X-13.9092 Y-10.4588
G01 X-13.9275 Y-10.4659
G01 X-13.9411 Y-10.4720
G01 X-13.9566 Y-10.4798
G01 X-13.9717 Y-10.4883
G01 X-13.9863 Y-10.4976
G01 X-14.0004 Y-10.5075
G01 X-14.0141 Y-10.5182
G01 X-14.0272 Y-10.5295
G01 X-14.0388 Y-10.5406
G01 X-15.1471 Y-11.6488
G01 X-15.1591 Y-11.6614
G01 X-15.1704 Y-11.6745
G01 X-15.1810 Y-11.6881
G01 X-15.1910 Y-11.7023
G01 X-15.2002 Y-11.7169
G01 X-15.2088 Y-11.7319
G01 X-15.2165 Y-11.7474
G01 X-15.2236 Y-11.7632
G01 X-15.2298 Y-11.7794
G01 X-15.2352 Y-11.7958
G01 X-15.2398 Y-11.8125
G01 X-15.2436 Y-11.8293
G01 X-15.2466 Y-11.8464
G01 X-15.2487 Y-11.8636
G01 X-15.2500 Y-11.8808
G01 X-15.2504 Y-11.8969
G01 X-15.2504 Y-13.6011
G01 X-15.2500 Y-13.6172
G01 X-15.2487 Y-13.6345
G01 X-15.2466 Y-13.6516
G01 X-15.2441 Y-13.6663
G01 X-15.2392 Y-13.6879
G01 X-15.2352 Y-13.7023
G01 X-15.2289 Y-13.7209
G01 X-15.2236 Y-13.7348
G01 X-15.2165 Y-13.7506
G01 X-15.2088 Y-13.7661
G01 X-15.2002 Y-13.7812
G01 X-15.1910 Y-13.7958
G01 X-15.1810 Y-13.8099
G01 X-15.1704 Y-13.8236
G01 X-15.1607 Y-13.8349
G01 X-15.1471 Y-13.8492
G01 X-14.1489 Y-14.8474
G01 X-14.1364 Y-14.8593
G01 X-14.1233 Y-14.8706
G01 X-14.1096 Y-14.8813
G01 X-14.0955 Y-14.8913
G01 X-14.0809 Y-14.9005
G01 X-14.0658 Y-14.9090
G01 X-14.0504 Y-14.9168
G01 X-14.0345 Y-14.9238
G01 X-14.0184 Y-14.9301
G01 X-14.0020 Y-14.9355
G01 X-13.9853 Y-14.9401
G01 X-13.9684 Y-14.9439
G01 X-13.9514 Y-14.9469
G01 X-13.9342 Y-14.9490
G01 X-13.9169 Y-14.9502
G01 X-13.8996 Y-14.9507
G00 Z1.0000
G00 X-12.2788 Y-15.4924
G01 F20.00
G01 Z-0.0600
G01 F20.00
G01 X-12.2412 Y-15.4565
G01 X-12.2077 Y-15.4215
G01 X-12.2077 Y-15.4924
G01 X-12.2788 Y-15.4924
G00 Z1.0000
G00 X-15.3933 Y-14.1029
G01 F20.00
G01 Z-0.0600
G01 F20.00
G01 X-14.3988 Y-15.0973
G01 X-14.3819 Y-15.1137
G01 X-14.3654 Y-15.1286
G01 X-14.3475 Y-15.1439
G01 X-14.3202 Y-15.1652
G01 X-14.2919 Y-15.1851
G01 X-14.2720 Y-15.1979
G01 X-14.2530 Y-15.2093
G01 X-14.2226 Y-15.2259
G01 X-14.2015 Y-15.2363
G01 X-14.1800 Y-15.2460
G01 X-14.1595 Y-15.2545
G01 X-14.1375 Y-15.2629
G01 X-14.1089 Y-15.2723
G01 X-14.0745 Y-15.3212
G01 X-14.0448 Y-15.3595
G01 X-14.0307 Y-15.3767
G01 X-13.9989 Y-15.4133
G01 X-13.9656 Y-15.4485
G01 X-13.9499 Y-15.4642
G01 X-13.9203 Y-15.4924
G01 X-15.3933 Y-15.4924
G01 X-15.3933 Y-14.1029
G00 Z1.0000
G00 X-8.7618 Y-14.7740
G01 F20.00
G01 Z-0.0600
G01 F20.00
G01 X-8.7618 Y-14.0819
G01 X-8.3237 Y-14.0819
G01 X-8.3237 Y-14.1391
G01 X-8.6063 Y-14.1391
G01 X-8.6207 Y-14.1401
G01 X-8.6302 Y-14.1420
G01 X-8.6439 Y-14.1466
G01 X-8.6527 Y-14.1507
G01 X-8.6609 Y-14.1556
G01 X-8.6687 Y-14.1614
G01 X-8.6759 Y-14.1679
G01 X-8.6853 Y-14.1788
G01 X-8.6907 Y-14.1869
G01 X-8.6952 Y-14.1954
G01 X-8.7004 Y-14.2089
G01 X-8.7036 Y-14.2230
G01 X-8.7047 Y-14.2375
G01 X-8.7047 Y-14.7740
G01 X-8.7618 Y-14.7740
G00 Z1.0000
G00 X-8.7618 Y-15.2249
G01 F20.00
G01 Z-0.0600
G01 F20.00
G01 X-8.7047 Y-15.2249
G01 X-8.7047 Y-15.7615
G01 X-8.7036 Y-15.7759
G01 X-8.7004 Y-15.7900
G01 X-8.6952 Y-15.8035
G01 X-8.6907 Y-15.8120
G01 X-8.6853 Y-15.8201
G01 X-8.6759 Y-15.8310
G01 X-8.6687 Y-15.8375
G01 X-8.6609 Y-15.8433
G01 X-8.6527 Y-15.8482
G01 X-8.6439 Y-15.8524
G01 X-8.6302 Y-15.8569
G01 X-8.6207 Y-15.8588
G01 X-8.6063 Y-15.8599
G01 X-8.3237 Y-15.8599
G01 X-8.3237 Y-15.9170
G01 X-8.7618 Y-15.9170
G01 X-8.7618 Y-15.2249
G00 Z1.0000
G00 X-7.8728 Y-15.8599
G01 F20.00
G01 Z-0.0600
G01 F20.00
G01 X-7.5903 Y-15.8599
G01 X-7.5806 Y-15.8594
G01 X-7.5711 Y-15.8580
G01 X-7.5617 Y-15.8556
G01 X-7.5526 Y-15.8524
G01 X-7.5439 Y-15.8482
G01 X-7.5356 Y-15.8433
G01 X-7.5279 Y-15.8375
G01 X-7.5207 Y-15.8310
G01 X-7.5142 Y-15.8239
G01 X-7.5085 Y-15.8161
G01 X-7.5035 Y-15.8078
G01 X-7.4976 Y-15.7946
G01 X-7.4938 Y-15.7807
G01 X-7.4920 Y-15.7663
G01 X-7.4919 Y-15.3520
G01 X-7.4347 Y-15.3520
G01 X-7.4347 Y-15.9170
G01 X-7.8728 Y-15.9170
G01 X-7.8728 Y-15.8599
G00 Z1.0000
G00 X-7.8728 Y-14.1391
G01 F20.00
G01 Z-0.0600
G01 F20.00
G01 X-7.8728 Y-14.0819
G01 X-7.4347 Y-14.0819
G01 X-7.4347 Y-14.6469
G01 X-7.4919 Y-14.6469
G01 X-7.4920 Y-14.2326
G01 X-7.4938 Y-14.2183
G01 X-7.4976 Y-14.2043
G01 X-7.5035 Y-14.1911
G01 X-7.5085 Y-14.1828
G01 X-7.5142 Y-14.1750
G01 X-7.5207 Y-14.1679
G01 X-7.5279 Y-14.1614
G01 X-7.5356 Y-14.1556
G01 X-7.5439 Y-14.1507
G01 X-7.5526 Y-14.1466
G01 X-7.5617 Y-14.1433
G01 X-7.5711 Y-14.1410
G01 X-7.5806 Y-14.1395
G01 X-7.5903 Y-14.1391
G01 X-7.8728 Y-14.1391
G00 Z1.0000
G00 X-1.9622 Y-14.7740
G01 F20.00
G01 Z-0.0600
G01 F20.00
G01 X-1.9622 Y-14.0819
G01 X-1.6512 Y-14.0819
G01 X-1.6512 Y-14.1391
G01 X-1.8067 Y-14.1391
G01 X-1.8163 Y-14.1395
G01 X-1.8306 Y-14.1420
G01 X-1.8398 Y-14.1448
G01 X-1.8488 Y-14.1485
G01 X-1.8573 Y-14.1531
G01 X-1.8691 Y-14.1614
G01 X-1.8763 Y-14.1679
G01 X-1.8828 Y-14.1750
G01 X-1.8885 Y-14.1828
G01 X-1.8957 Y-14.1954
G01 X-1.8993 Y-14.2043
G01 X-1.9022 Y-14.2136
G01 X-1.9040 Y-14.2230
G01 X-1.9051 Y-14.2375
G01 X-1.9051 Y-14.7740
G01 X-1.9622 Y-14.7740
G00 Z1.0000
G00 X-1.8115 Y-15.8597
G01 F20.00
G01 Z-0.0600
G01 F20.00
G01 X-1.6512 Y-15.8599
G01 X-1.6512 Y-15.9170
G01 X-1.9622 Y-15.9170
G01 X-1.9622 Y-15.2249
G01 X-1.9051 Y-15.2249
G01 X-1.9051 Y-15.7615
G01 X-1.9046 Y-15.7711
G01 X-1.9022 Y-15.7854
G01 X-1.8993 Y-15.7946
G01 X-1.8957 Y-15.8035
G01 X-1.8885 Y-15.8161
G01 X-1.8796 Y-15.8275
G01 X-1.8691 Y-15.8375
G01 X-1.8573 Y-15.8459
G01 X-1.8488 Y-15.8504
G01 X-1.8398 Y-15.8541
G01 X-1.8259 Y-15.8580
G01 X-1.8115 Y-15.8597
G00 Z1.0000
G00 X-0.9462 Y-15.8599
G01 F20.00
G01 Z-0.0600
G01 F20.00
G01 X-0.7907 Y-15.8599
G01 X-0.7811 Y-15.8594
G01 X-0.7668 Y-15.8569
G01 X-0.7576 Y-15.8541
G01 X-0.7486 Y-15.8504
G01 X-0.7360 Y-15.8433
G01 X-0.7283 Y-15.8375
G01 X-0.7211 Y-15.8310
G01 X-0.7146 Y-15.8239
G01 X-0.7089 Y-15.8161
G01 X-0.7017 Y-15.8035
G01 X-0.6981 Y-15.7946
G01 X-0.6952 Y-15.7854
G01 X-0.6934 Y-15.7759
G01 X-0.6923 Y-15.7615
G01 X-0.6923 Y-15.2249
G01 X-0.6352 Y-15.2249
G01 X-0.6352 Y-15.9170
G01 X-0.9462 Y-15.9170
G01 X-0.9462 Y-15.8599
G00 Z1.0000
G00 X-0.7859 Y-14.1392
G01 F20.00
G01 Z-0.0600
G01 F20.00
G01 X-0.9462 Y-14.1391
G01 X-0.9462 Y-14.0819
G01 X-0.6352 Y-14.0819
G01 X-0.6352 Y-14.7740
G01 X-0.6923 Y-14.7740
G01 X-0.6923 Y-14.2375
G01 X-0.6934 Y-14.2230
G01 X-0.6952 Y-14.2136
G01 X-0.6981 Y-14.2043
G01 X-0.7017 Y-14.1954
G01 X-0.7089 Y-14.1828
G01 X-0.7178 Y-14.1714
G01 X-0.7283 Y-14.1614
G01 X-0.7401 Y-14.1531
G01 X-0.7530 Y-14.1466
G01 X-0.7621 Y-14.1433
G01 X-0.7715 Y-14.1410
G01 X-0.7859 Y-14.1392
G00 Z1.0000
G00 X0.9515 Y-13.7062
G01 F20.00
G01 Z-0.0600
G01 F20.00
G01 X1.0637 Y-13.7062
G01 X1.0730 Y-13.7207
G01 X1.1031 Y-13.7634
G01 X1.1368 Y-13.8065
G01 X1.1725 Y-13.8479
G01 X1.2119 Y-13.8892
G01 X1.2498 Y-13.9253
G01 X1.2894 Y-13.9594
G01 X1.3325 Y-13.9932
G01 X1.3791 Y-14.0261
G01 X1.4253 Y-14.0554
G01 X1.4729 Y-14.0824
G01 X1.5196 Y-14.1059
G01 X1.5740 Y-14.1300
G01 X1.6228 Y-14.1488
G01 X1.6747 Y-14.1660
G01 X1.7274 Y-14.1805
G01 X1.7728 Y-14.1907
G01 X1.7728 Y-14.2711
G01 X1.5129 Y-14.2711
G01 X0.9515 Y-13.7062
G00 Z1.0000
G00 X2.2237 Y-14.2711
G01 F20.00
G01 Z-0.0600
G01 F20.00
G01 X2.2237 Y-14.1907
G01 X2.2690 Y-14.1805
G01 X2.3194 Y-14.1666
G01 X2.3737 Y-14.1488
G01 X2.4269 Y-14.1282
G01 X2.4747 Y-14.1069
G01 X2.5235 Y-14.0824
G01 X2.5732 Y-14.0541
G01 X2.6173 Y-14.0261
G01 X2.6621 Y-13.9946
G01 X2.7070 Y-13.9594
G01 X2.7466 Y-13.9253
G01 X2.7862 Y-13.8875
G01 X2.8255 Y-13.8461
G01 X2.8597 Y-13.8065
G01 X2.8933 Y-13.7634
G01 X2.9248 Y-13.7187
G01 X2.9528 Y-13.6745
G01 X2.9810 Y-13.6249
G01 X3.0056 Y-13.5760
G01 X3.0268 Y-13.5282
G01 X3.0475 Y-13.4750
G01 X3.0653 Y-13.4207
G01 X3.0792 Y-13.3703
G01 X3.0894 Y-13.3250
G01 X3.1698 Y-13.3250
G01 X3.1698 Y-13.5829
G01 X2.4837 Y-14.2711
G01 X2.2237 Y-14.2711
G00 Z1.0000
G00 X2.2294 Y-11.8295
G01 F20.00
G01 Z-0.0600
G01 F20.00
G01 X2.2501 Y-11.8259
G01 X2.3025 Y-11.8142
G01 X2.3022 Y-11.8299
G01 X2.3025 Y-11.8449
G01 X2.2501 Y-11.8332
G01 X2.2294 Y-11.8295
G00 Z1.0000
G00 X1.6940 Y-11.8142
G01 F20.00
G01 Z-0.0600
G01 F20.00
G01 X1.7463 Y-11.8259
G01 X1.7671 Y-11.8295
G01 X1.7463 Y-11.8332
G01 X1.6940 Y-11.8449
G01 X1.6943 Y-11.8300
G01 X1.6940 Y-11.8142
G00 Z1.0000
G00 X0.2988 Y-10.0499
G01 F20.00
G01 Z-0.0600
G01 F20.00
G01 X1.2655 Y-9.0823
G01 X1.2866 Y-9.0968
G01 X1.3344 Y-9.1270
G01 X1.3896 Y-9.1582
G01 X1.4462 Y-9.1867
G01 X1.5041 Y-9.2124
G01 X1.5633 Y-9.2352
G01 X1.6234 Y-9.2551
G01 X1.6845 Y-9.2720
G01 X1.7397 Y-9.2845
G01 X1.7671 Y-9.2895
G01 X1.7397 Y-9.2946
G01 X1.6845 Y-9.3071
G01 X1.6299 Y-9.3221
G01 X1.6170 Y-9.3260
G01 X1.5633 Y-9.3439
G01 X1.5104 Y-9.3642
G01 X1.4979 Y-9.3694
G01 X1.4462 Y-9.3924
G01 X1.3896 Y-9.4209
G01 X1.3403 Y-9.4487
G01 X1.3287 Y-9.4556
G01 X1.2866 Y-9.4823
G01 X1.2753 Y-9.4898
G01 X1.2291 Y-9.5225
G01 X1.1844 Y-9.5573
G01 X1.1740 Y-9.5658
G01 X1.1312 Y-9.6029
G01 X1.0901 Y-9.6419
G01 X1.0805 Y-9.6514
G01 X1.0462 Y-9.6875
G01 X1.0371 Y-9.6975
G01 X1.0002 Y-9.7405
G01 X0.9653 Y-9.7850
G01 X0.9572 Y-9.7959
G01 X0.9247 Y-9.8422
G01 X0.8908 Y-9.8958
G01 X0.8595 Y-9.9509
G01 X0.8311 Y-10.0075
G01 X0.8209 Y-10.0303
G01 X0.4412 Y-10.0303
G01 X0.4152 Y-10.0309
G01 X0.3893 Y-10.0328
G01 X0.3569 Y-10.0371
G01 X0.3313 Y-10.0419
G01 X0.3126 Y-10.0461
G01 X0.2988 Y-10.0499
G00 Z1.0000
G00 X2.3025 Y-9.3049
G01 F20.00
G01 Z-0.0600
G01 F20.00
G01 X2.2501 Y-9.2932
G01 X2.2294 Y-9.2895
G01 X2.2501 Y-9.2859
G01 X2.3025 Y-9.2742
G01 X2.3022 Y-9.2899
G01 X2.3025 Y-9.3049
G00 Z1.0000
G00 X2.3025 Y-6.7649
G01 F20.00
G01 Z-0.0600
G01 F20.00
G01 X2.2501 Y-6.7532
G01 X2.2294 Y-6.7495
G01 X2.2501 Y-6.7459
G01 X2.3025 Y-6.7342
G01 X2.3022 Y-6.7499
G01 X2.3025 Y-6.7649
G00 Z1.0000
G00 X1.7671 Y-6.7495
G01 F20.00
G01 Z-0.0600
G01 F20.00
G01 X1.7463 Y-6.7532
G01 X1.6940 Y-6.7649
G01 X1.6943 Y-6.7499
G01 X1.6940 Y-6.7342
G01 X1.7463 Y-6.7459
G01 X1.7671 Y-6.7495
G00 Z1.0000
G00 X-3.0355 Y-5.9875
G01 F20.00
G01 Z-0.0600
G01 F20.00
G01 X-3.0355 Y-8.3732
G01 X-3.4241 Y-8.7618
G01 X-15.4643 Y-8.7618
G01 X-15.4753 Y-8.7621
G01 X-15.4864 Y-8.7629
G01 X-15.4974 Y-8.7643
G01 X-15.5106 Y-8.7666
G01 X-15.5214 Y-8.7692
G01 X-15.5380 Y-8.7742
G01 X-15.5506 Y-8.7790
G01 X-15.5585 Y-8.7825
G01 X-15.5706 Y-8.7884
G01 X-15.5822 Y-8.7952
G01 X-15.5966 Y-8.8048
G01 X-15.6092 Y-8.8145
G01 X-15.6220 Y-8.8262
G01 X-15.6313 Y-8.8359
G01 X-15.6439 Y-8.8510
G01 X-15.6517 Y-8.8620
G01 X-15.6620 Y-8.8789
G01 X-15.6681 Y-8.8909
G01 X-15.6735 Y-8.9032
G01 X-15.6793 Y-8.9195
G01 X-15.6830 Y-8.9325
G01 X-15.6859 Y-8.9457
G01 X-15.6884 Y-8.9628
G01 X-15.6895 Y-8.9762
G01 X-15.6897 Y-8.9873
G01 X-15.6897 Y-11.5666
G01 X-15.6887 Y-11.5875
G01 X-15.6873 Y-11.5985
G01 X-15.6849 Y-11.6117
G01 X-15.6830 Y-11.6202
G01 X-15.6793 Y-11.6331
G01 X-15.6735 Y-11.6494
G01 X-15.6691 Y-11.6596
G01 X-15.6631 Y-11.6717
G01 X-15.6577 Y-11.6813
G01 X-15.6517 Y-11.6906
G01 X-15.6439 Y-11.7016
G01 X-15.6370 Y-11.7103
G01 X-15.6254 Y-11.7231
G01 X-15.6157 Y-11.7324
G01 X-15.6073 Y-11.7397
G01 X-15.5986 Y-11.7465
G01 X-15.5875 Y-11.7542
G01 X-15.5781 Y-11.7600
G01 X-15.5628 Y-11.7681
G01 X-15.5506 Y-11.7737
G01 X-15.5402 Y-11.7777
G01 X-15.5297 Y-11.7811
G01 X-15.5191 Y-11.7841
G01 X-15.5083 Y-11.7865
G01 X-15.4950 Y-11.7887
G01 X-15.4778 Y-11.7904
G01 X-15.4667 Y-11.7908
G01 X-15.4532 Y-11.7906
G01 X-15.4422 Y-11.7898
G01 X-15.4312 Y-11.7884
G01 X-15.4203 Y-11.7865
G01 X-15.4095 Y-11.7841
G01 X-15.3988 Y-11.7811
G01 X-15.3883 Y-11.7777
G01 X-15.3758 Y-11.7727
G01 X-15.3657 Y-11.7681
G01 X-15.3505 Y-11.7600
G01 X-15.3390 Y-11.7528
G01 X-15.3300 Y-11.7465
G01 X-15.3194 Y-11.7381
G01 X-15.3049 Y-11.7248
G01 X-13.9612 Y-10.3811
G01 X-1.4536 Y-10.3811
G01 X-1.4426 Y-10.3809
G01 X-1.4315 Y-10.3801
G01 X-1.4206 Y-10.3787
G01 X-1.4073 Y-10.3763
G01 X-1.3905 Y-10.3721
G01 X-1.3800 Y-10.3687
G01 X-1.3674 Y-10.3640
G01 X-1.3594 Y-10.3605
G01 X-1.3474 Y-10.3545
G01 X-1.3398 Y-10.3503
G01 X-1.3264 Y-10.3418
G01 X-1.3106 Y-10.3300
G01 X-1.3022 Y-10.3227
G01 X-1.2942 Y-10.3151
G01 X0.7632 Y-8.2577
G01 X0.7724 Y-8.2479
G01 X0.7834 Y-8.2345
G01 X0.7925 Y-8.2215
G01 X0.8026 Y-8.2046
G01 X0.8111 Y-8.1868
G01 X0.8160 Y-8.1742
G01 X0.8219 Y-8.1554
G01 X0.8249 Y-8.1423
G01 X0.8271 Y-8.1290
G01 X0.8288 Y-8.1118
G01 X0.8292 Y-8.0983
G01 X0.8292 Y-7.5336
G01 X1.4518 Y-6.9087
G01 X1.4610 Y-6.8989
G01 X1.4719 Y-6.8855
G01 X1.4797 Y-6.8746
G01 X1.4868 Y-6.8632
G01 X1.4949 Y-6.8480
G01 X1.5004 Y-6.8357
G01 X1.5052 Y-6.8232
G01 X1.5102 Y-6.8067
G01 X1.5132 Y-6.7936
G01 X1.5154 Y-6.7803
G01 X1.5167 Y-6.7694
G01 X1.5175 Y-6.7522
G01 X1.5173 Y-6.7387
G01 X1.5162 Y-6.7253
G01 X1.5137 Y-6.7083
G01 X1.5109 Y-6.6951
G01 X1.5073 Y-6.6822
G01 X1.5015 Y-6.6660
G01 X1.4962 Y-6.6536
G01 X1.4912 Y-6.6438
G01 X1.4858 Y-6.6342
G01 X1.4799 Y-6.6248
G01 X1.4736 Y-6.6158
G01 X1.4669 Y-6.6071
G01 X1.4538 Y-6.5924
G01 X0.8277 Y-5.9617
G01 X0.8249 Y-5.9436
G01 X0.8202 Y-5.9244
G01 X0.8152 Y-5.9093
G01 X0.8076 Y-5.8911
G01 X0.7984 Y-5.8737
G01 X0.7899 Y-5.8603
G01 X0.7780 Y-5.8445
G01 X0.7649 Y-5.8298
G01 X0.7534 Y-5.8189
G01 X0.7381 Y-5.8064
G01 X0.7217 Y-5.7954
G01 X0.7079 Y-5.7876
G01 X0.6900 Y-5.7792
G01 X0.6715 Y-5.7725
G01 X0.6562 Y-5.7683
G01 X0.6368 Y-5.7645
G01 X0.6172 Y-5.7625
G01 X0.6038 Y-5.7621
G01 X-2.8100 Y-5.7621
G01 X-2.8211 Y-5.7623
G01 X-2.8321 Y-5.7632
G01 X-2.8431 Y-5.7645
G01 X-2.8540 Y-5.7664
G01 X-2.8648 Y-5.7688
G01 X-2.8754 Y-5.7718
G01 X-2.8860 Y-5.7753
G01 X-2.8963 Y-5.7792
G01 X-2.9064 Y-5.7837
G01 X-2.9163 Y-5.7887
G01 X-2.9259 Y-5.7942
G01 X-2.9353 Y-5.8001
G01 X-2.9443 Y-5.8064
G01 X-2.9530 Y-5.8133
G01 X-2.9614 Y-5.8205
G01 X-2.9754 Y-5.8344
G01 X-2.9843 Y-5.8445
G01 X-2.9896 Y-5.8513
G01 X-2.9988 Y-5.8643
G01 X-3.0088 Y-5.8813
G01 X-3.0138 Y-5.8911
G01 X-3.0192 Y-5.9035
G01 X-3.0258 Y-5.9221
G01 X-3.0287 Y-5.9328
G01 X-3.0311 Y-5.9436
G01 X-3.0330 Y-5.9545
G01 X-3.0344 Y-5.9654
G01 X-3.0352 Y-5.9765
G01 X-3.0355 Y-5.9875
G00 Z1.0000
G00 X-4.5161 Y-5.7369
G01 F20.00
G01 Z-0.0600
G01 F20.00
G01 X-4.5007 Y-5.7565
G01 X-4.4824 Y-5.7779
G01 X-4.4824 Y-5.8698
G01 X-4.5161 Y-5.8698
G01 X-4.5161 Y-5.7369
G00 Z1.0000
G00 X-4.5632 Y-7.3149
G01 F20.00
G01 Z-0.0600
G01 F20.00
G01 X-4.5552 Y-7.3025
G01 X-4.5486 Y-7.2907
G01 X-4.5425 Y-7.2787
G01 X-4.5370 Y-7.2663
G01 X-4.5322 Y-7.2537
G01 X-4.5279 Y-7.2409
G01 X-4.5243 Y-7.2279
G01 X-4.5214 Y-7.2147
G01 X-4.5191 Y-7.2014
G01 X-4.5174 Y-7.1880
G01 X-4.5164 Y-7.1745
G01 X-4.5161 Y-7.1610
G01 X-4.5161 Y-6.9283
G01 X-4.4824 Y-6.9283
G01 X-4.4824 Y-7.3149
G01 X-4.5632 Y-7.3149
G00 Z1.0000
G00 X0.8014 Y-21.7434
G01 F20.00
G01 Z-0.0600
G01 F20.00
G01 X0.8013 Y-22.4727
G01 X0.7454 Y-22.4727
G01 X0.7454 Y-21.5927
G01 X1.6737 Y-21.5927
G01 X1.6737 Y-21.6498
G01 X0.8997 Y-21.6498
G01 X0.8852 Y-21.6509
G01 X0.8711 Y-21.6541
G01 X0.8620 Y-21.6573
G01 X0.8533 Y-21.6615
G01 X0.8411 Y-21.6692
G01 X0.8336 Y-21.6753
G01 X0.8268 Y-21.6822
G01 X0.8179 Y-21.6936
G01 X0.8129 Y-21.7019
G01 X0.8088 Y-21.7106
G01 X0.8055 Y-21.7197
G01 X0.8032 Y-21.7290
G01 X0.8014 Y-21.7434
G00 Z1.0000
G00 X0.7454 Y-22.9237
G01 F20.00
G01 Z-0.0600
G01 F20.00
G01 X0.8013 Y-22.9237
G01 X0.8014 Y-23.6530
G01 X0.8032 Y-23.6674
G01 X0.8070 Y-23.6813
G01 X0.8129 Y-23.6945
G01 X0.8206 Y-23.7068
G01 X0.8301 Y-23.7177
G01 X0.8372 Y-23.7242
G01 X0.8450 Y-23.7300
G01 X0.8533 Y-23.7349
G01 X0.8665 Y-23.7408
G01 X0.8758 Y-23.7436
G01 X0.8852 Y-23.7455
G01 X0.8948 Y-23.7464
G01 X1.3916 Y-23.7466
G01 X1.3916 Y-23.8037
G01 X0.7454 Y-23.8037
G01 X0.7454 Y-22.9237
G00 Z1.0000
G00 X2.6049 Y-23.7466
G01 F20.00
G01 Z-0.0600
G01 F20.00
G01 X2.8986 Y-23.7466
G01 X2.9131 Y-23.7455
G01 X2.9226 Y-23.7436
G01 X2.9363 Y-23.7391
G01 X2.9450 Y-23.7349
G01 X2.9533 Y-23.7300
G01 X2.9611 Y-23.7242
G01 X2.9716 Y-23.7142
G01 X2.9805 Y-23.7028
G01 X2.9854 Y-23.6945
G01 X2.9896 Y-23.6858
G01 X2.9941 Y-23.6721
G01 X2.9960 Y-23.6626
G01 X2.9970 Y-23.6482
G01 X2.9971 Y-22.9237
G01 X3.0555 Y-22.9237
G01 X3.0555 Y-23.8037
G01 X2.6049 Y-23.8037
G01 X2.6049 Y-23.7466
G00 Z1.0000
G00 X2.6049 Y-24.6473
G01 F20.00
G01 Z-0.0600
G01 F20.00
G01 X3.1698 Y-25.2122
G01 X3.1698 Y-25.4725
G01 X3.0894 Y-25.4725
G01 X3.0792 Y-25.4272
G01 X3.0646 Y-25.3744
G01 X3.0475 Y-25.3225
G01 X3.0287 Y-25.2737
G01 X3.0046 Y-25.2193
G01 X2.9810 Y-25.1726
G01 X2.9541 Y-25.1250
G01 X2.9248 Y-25.0788
G01 X2.8919 Y-25.0322
G01 X2.8597 Y-24.9910
G01 X2.8255 Y-24.9514
G01 X2.7879 Y-24.9117
G01 X2.7466 Y-24.8722
G01 X2.7052 Y-24.8365
G01 X2.6621 Y-24.8028
G01 X2.6193 Y-24.7727
G01 X2.6049 Y-24.7634
G01 X2.6049 Y-24.6473
G00 Z1.0000
G00 X2.9600 Y-26.2605
G01 F20.00
G01 Z-0.0600
G01 F20.00
G01 X2.9810 Y-26.2233
G01 X3.0056 Y-26.1744
G01 X3.0278 Y-26.1244
G01 X3.0466 Y-26.0756
G01 X3.0653 Y-26.0191
G01 X3.0792 Y-25.9687
G01 X3.0894 Y-25.9234
G01 X3.1698 Y-25.9234
G01 X3.1698 Y-26.1837
G01 X2.9783 Y-26.3751
G01 X2.9600 Y-26.2605
G00 Z1.0000
G00 X0.9070 Y-25.9234
G01 F20.00
G01 Z-0.0600
G01 F20.00
G01 X0.9172 Y-25.9687
G01 X0.9311 Y-26.0191
G01 X0.9490 Y-26.0734
G01 X0.9686 Y-26.1244
G01 X0.9898 Y-26.1722
G01 X1.0154 Y-26.2233
G01 X1.0424 Y-26.2709
G01 X1.0716 Y-26.3171
G01 X1.1031 Y-26.3618
G01 X1.1353 Y-26.4030
G01 X1.1725 Y-26.4463
G01 X1.2085 Y-26.4842
G01 X1.2481 Y-26.5220
G01 X1.2600 Y-26.5325
G01 X1.2759 Y-26.6320
G01 X0.8292 Y-26.1839
G01 X0.8292 Y-25.9234
G01 X0.9070 Y-25.9234
G00 Z1.0000
G00 X0.9070 Y-25.4725
G01 F20.00
G01 Z-0.0600
G01 F20.00
G01 X0.8292 Y-25.4725
G01 X0.8292 Y-25.2120
G01 X1.3916 Y-24.6479
G01 X1.3916 Y-24.7634
G01 X1.3771 Y-24.7727
G01 X1.3344 Y-24.8028
G01 X1.2913 Y-24.8365
G01 X1.2498 Y-24.8722
G01 X1.2085 Y-24.9117
G01 X1.1725 Y-24.9496
G01 X1.1383 Y-24.9891
G01 X1.1046 Y-25.0322
G01 X1.0716 Y-25.0788
G01 X1.0424 Y-25.1250
G01 X1.0154 Y-25.1726
G01 X0.9919 Y-25.2193
G01 X0.9678 Y-25.2737
G01 X0.9490 Y-25.3225
G01 X0.9318 Y-25.3744
G01 X0.9172 Y-25.4272
G01 X0.9070 Y-25.4725
G00 Z1.0000
G00 X2.9035 Y-21.6500
G01 F20.00
G01 Z-0.0600
G01 F20.00
G01 X2.1246 Y-21.6498
G01 X2.1246 Y-21.5927
G01 X3.0555 Y-21.5927
G01 X3.0555 Y-22.4727
G01 X2.9970 Y-22.4727
G01 X2.9970 Y-21.7482
G01 X2.9966 Y-21.7386
G01 X2.9952 Y-21.7290
G01 X2.9928 Y-21.7197
G01 X2.9896 Y-21.7106
G01 X2.9831 Y-21.6977
G01 X2.9747 Y-21.6858
G01 X2.9682 Y-21.6787
G01 X2.9611 Y-21.6722
G01 X2.9492 Y-21.6638
G01 X2.9363 Y-21.6573
G01 X2.9226 Y-21.6528
G01 X2.9131 Y-21.6509
G01 X2.9035 Y-21.6500
G00 Z1.0000
G00 X3.0216 Y-31.0238
G01 F20.00
G01 Z-0.0600
G01 F20.00
G01 X3.0216 Y-30.8832
G01 X3.8403 Y-31.7019
G01 X3.8403 Y-32.1730
G01 X3.7672 Y-32.1730
G01 X3.7652 Y-32.1580
G01 X3.7520 Y-32.0819
G01 X3.7339 Y-32.0019
G01 X3.7133 Y-31.9275
G01 X3.6891 Y-31.8542
G01 X3.6597 Y-31.7776
G01 X3.6274 Y-31.7048
G01 X3.5904 Y-31.6316
G01 X3.5524 Y-31.5644
G01 X3.5111 Y-31.4991
G01 X3.4653 Y-31.4340
G01 X3.4149 Y-31.3692
G01 X3.3629 Y-31.3089
G01 X3.3080 Y-31.2512
G01 X3.2503 Y-31.1963
G01 X3.1900 Y-31.1443
G01 X3.1272 Y-31.0953
G01 X3.0621 Y-31.0495
G01 X3.0216 Y-31.0238
G00 Z1.0000
G00 X0.5544 Y-32.1730
G01 F20.00
G01 Z-0.0600
G01 F20.00
G01 X0.4838 Y-32.1730
G01 X0.4838 Y-31.7018
G01 X1.3000 Y-30.8837
G01 X1.3000 Y-31.0238
G01 X1.2594 Y-31.0495
G01 X1.1963 Y-31.0939
G01 X1.1334 Y-31.1428
G01 X1.0712 Y-31.1963
G01 X1.0136 Y-31.2512
G01 X0.9571 Y-31.3107
G01 X0.9066 Y-31.3692
G01 X0.8591 Y-31.4301
G01 X0.8118 Y-31.4971
G01 X0.7680 Y-31.5665
G01 X0.7300 Y-31.6337
G01 X0.6941 Y-31.7048
G01 X0.6619 Y-31.7776
G01 X0.6332 Y-31.8519
G01 X0.6082 Y-31.9275
G01 X0.5870 Y-32.0042
G01 X0.5696 Y-32.0819
G01 X0.5563 Y-32.1580
G01 X0.5544 Y-32.1730
G00 Z1.0000
G00 X0.5544 Y-32.6239
G01 F20.00
G01 Z-0.0600
G01 F20.00
G01 X0.5563 Y-32.6389
G01 X0.5701 Y-32.7173
G01 X0.5870 Y-32.7927
G01 X0.6082 Y-32.8694
G01 X0.6341 Y-32.9473
G01 X0.6619 Y-33.0193
G01 X0.6941 Y-33.0921
G01 X0.7311 Y-33.1654
G01 X0.7692 Y-33.2325
G01 X0.8118 Y-33.2998
G01 X0.8577 Y-33.3649
G01 X0.9051 Y-33.4258
G01 X0.9603 Y-33.4898
G01 X1.0136 Y-33.5457
G01 X1.0695 Y-33.5989
G01 X1.1315 Y-33.6526
G01 X1.1943 Y-33.7016
G01 X1.2574 Y-33.7461
G01 X1.3267 Y-33.7900
G01 X1.3960 Y-33.8293
G01 X1.4671 Y-33.8651
G01 X1.5399 Y-33.8974
G01 X1.6142 Y-33.9260
G01 X1.6898 Y-33.9510
G01 X1.7666 Y-33.9722
G01 X1.8443 Y-33.9897
G01 X1.9203 Y-34.0029
G01 X1.9353 Y-34.0049
G01 X1.9353 Y-34.0780
G01 X1.4644 Y-34.0780
G01 X0.4838 Y-33.0952
G01 X0.4838 Y-32.6239
G01 X0.5544 Y-32.6239
G00 Z1.0000
G00 X2.3862 Y-34.0780
G01 F20.00
G01 Z-0.0600
G01 F20.00
G01 X2.3862 Y-34.0049
G01 X2.4012 Y-34.0029
G01 X2.4797 Y-33.9892
G01 X2.5550 Y-33.9722
G01 X2.6317 Y-33.9510
G01 X2.7074 Y-33.9260
G01 X2.7794 Y-33.8983
G01 X2.8566 Y-33.8640
G01 X2.9256 Y-33.8293
G01 X2.9949 Y-33.7900
G01 X3.0621 Y-33.7474
G01 X3.1253 Y-33.7030
G01 X3.1919 Y-33.6510
G01 X3.2503 Y-33.6006
G01 X3.3080 Y-33.5457
G01 X3.3629 Y-33.4880
G01 X3.4134 Y-33.4295
G01 X3.4653 Y-33.3630
G01 X3.5098 Y-33.2998
G01 X3.5524 Y-33.2325
G01 X3.5916 Y-33.1633
G01 X3.6264 Y-33.0943
G01 X3.6606 Y-33.0171
G01 X3.6883 Y-32.9450
G01 X3.7133 Y-32.8694
G01 X3.7346 Y-32.7927
G01 X3.7515 Y-32.7173
G01 X3.7652 Y-32.6389
G01 X3.7672 Y-32.6239
G01 X3.8403 Y-32.6239
G01 X3.8403 Y-33.0950
G01 X2.8573 Y-34.0780
G01 X2.3862 Y-34.0780
G00 Z1.0000
G00 X-6.2692 Y-30.5714
G01 F20.00
G01 Z-0.0600
G01 F20.00
G01 X-4.9896 Y-30.5714
G01 X-4.9752 Y-30.5696
G01 X-4.9658 Y-30.5673
G01 X-4.9567 Y-30.5640
G01 X-4.9438 Y-30.5575
G01 X-4.9320 Y-30.5492
G01 X-4.9215 Y-30.5392
G01 X-4.9126 Y-30.5278
G01 X-4.9054 Y-30.5152
G01 X-4.9002 Y-30.5017
G01 X-4.8971 Y-30.4876
G01 X-4.8960 Y-30.4731
G01 X-4.8961 Y-27.4203
G01 X-4.8971 Y-27.4107
G01 X-4.9002 Y-27.3966
G01 X-4.9035 Y-27.3875
G01 X-4.9076 Y-27.3788
G01 X-4.9126 Y-27.3705
G01 X-4.9215 Y-27.3591
G01 X-4.9283 Y-27.3522
G01 X-4.9358 Y-27.3461
G01 X-4.9438 Y-27.3407
G01 X-4.9567 Y-27.3342
G01 X-4.9658 Y-27.3310
G01 X-4.9752 Y-27.3286
G01 X-4.9896 Y-27.3269
G01 X-5.0227 Y-27.3267
G01 X-5.0227 Y-26.3046
G01 X-2.5562 Y-26.3046
G01 X-2.5737 Y-26.3387
G01 X-2.5906 Y-26.3757
G01 X-2.6065 Y-26.4158
G01 X-2.6212 Y-26.4589
G01 X-2.6330 Y-26.5005
G01 X-2.6426 Y-26.5425
G01 X-2.6505 Y-26.5874
G01 X-2.6555 Y-26.6278
G01 X-2.6586 Y-26.6684
G01 X-2.6598 Y-26.7115
G01 X-2.6599 Y-31.0238
G01 X-2.7004 Y-31.0495
G01 X-2.7655 Y-31.0953
G01 X-2.8283 Y-31.1443
G01 X-2.8868 Y-31.1947
G01 X-2.9480 Y-31.2530
G01 X-3.0012 Y-31.3089
G01 X-3.0517 Y-31.3674
G01 X-3.1036 Y-31.4340
G01 X-3.1481 Y-31.4971
G01 X-3.1907 Y-31.5644
G01 X-3.2299 Y-31.6337
G01 X-3.2647 Y-31.7026
G01 X-3.2980 Y-31.7776
G01 X-3.3274 Y-31.8542
G01 X-3.3516 Y-31.9275
G01 X-3.3729 Y-32.0042
G01 X-3.3903 Y-32.0819
G01 X-3.4035 Y-32.1580
G01 X-3.4139 Y-32.2418
G01 X-3.4195 Y-32.3189
G01 X-3.4215 Y-32.3985
G01 X-3.4195 Y-32.4781
G01 X-3.4139 Y-32.5551
G01 X-3.4035 Y-32.6389
G01 X-3.3903 Y-32.7150
G01 X-3.3729 Y-32.7927
G01 X-3.3509 Y-32.8717
G01 X-3.3266 Y-32.9450
G01 X-3.2989 Y-33.0171
G01 X-3.2657 Y-33.0921
G01 X-3.2287 Y-33.1654
G01 X-3.1907 Y-33.2325
G01 X-3.1494 Y-33.2978
G01 X-3.1022 Y-33.3649
G01 X-3.0517 Y-33.4295
G01 X-3.0012 Y-33.4880
G01 X-2.9480 Y-33.5439
G01 X-2.8886 Y-33.6006
G01 X-2.8264 Y-33.6541
G01 X-2.7655 Y-33.7016
G01 X-2.7024 Y-33.7461
G01 X-2.6332 Y-33.7900
G01 X-2.5617 Y-33.8304
G01 X-2.4927 Y-33.8651
G01 X-2.4222 Y-33.8964
G01 X-2.3457 Y-33.9260
G01 X-2.2677 Y-33.9517
G01 X-2.1933 Y-33.9722
G01 X-2.1180 Y-33.9892
G01 X-2.0371 Y-34.0033
G01 X-1.9557 Y-34.0133
G01 X-1.8787 Y-34.0189
G01 X-1.8015 Y-34.0208
G01 X-1.7195 Y-34.0189
G01 X-1.6377 Y-34.0128
G01 X-1.5610 Y-34.0033
G01 X-1.4849 Y-33.9901
G01 X-1.4049 Y-33.9722
G01 X-1.3258 Y-33.9503
G01 X-1.2525 Y-33.9260
G01 X-1.1805 Y-33.8983
G01 X-1.1054 Y-33.8651
G01 X-1.0322 Y-33.8281
G01 X-0.9650 Y-33.7900
G01 X-0.8997 Y-33.7488
G01 X-0.8326 Y-33.7016
G01 X-0.7680 Y-33.6510
G01 X-0.7095 Y-33.6006
G01 X-0.6536 Y-33.5474
G01 X-0.5970 Y-33.4880
G01 X-0.5449 Y-33.4277
G01 X-0.4960 Y-33.3649
G01 X-0.4501 Y-33.2998
G01 X-0.4075 Y-33.2325
G01 X-0.3683 Y-33.1633
G01 X-0.3324 Y-33.0921
G01 X-0.2993 Y-33.0171
G01 X-0.2715 Y-32.9450
G01 X-0.2459 Y-32.8671
G01 X-0.2253 Y-32.7927
G01 X-0.2084 Y-32.7173
G01 X-0.1946 Y-32.6389
G01 X-0.1845 Y-32.5575
G01 X-0.1786 Y-32.4781
G01 X-0.1767 Y-32.3997
G01 X-0.1786 Y-32.3189
G01 X-0.1848 Y-32.2370
G01 X-0.1942 Y-32.1604
G01 X-0.2074 Y-32.0843
G01 X-0.2253 Y-32.0042
G01 X-0.2465 Y-31.9275
G01 X-0.2724 Y-31.8496
G01 X-0.3002 Y-31.7776
G01 X-0.3314 Y-31.7070
G01 X-0.3683 Y-31.6337
G01 X-0.4075 Y-31.5644
G01 X-0.4515 Y-31.4951
G01 X-0.4960 Y-31.4320
G01 X-0.5434 Y-31.3711
G01 X-0.5970 Y-31.3089
G01 X-0.6519 Y-31.2512
G01 X-0.7095 Y-31.1963
G01 X-0.7717 Y-31.1428
G01 X-0.8346 Y-31.0939
G01 X-0.8977 Y-31.0495
G01 X-0.9383 Y-31.0238
G01 X-0.9383 Y-26.9574
G01 X-0.8116 Y-26.7515
G01 X-0.7965 Y-26.7464
G01 X-0.7478 Y-26.7275
G01 X-0.6956 Y-26.7043
G01 X-0.6489 Y-26.6808
G01 X-0.6034 Y-26.6550
G01 X-0.5531 Y-26.6232
G01 X-0.5104 Y-26.5930
G01 X-0.4692 Y-26.5609
G01 X-0.4259 Y-26.5237
G01 X-0.3846 Y-26.4842
G01 X-0.3485 Y-26.4463
G01 X-0.3144 Y-26.4068
G01 X-0.2791 Y-26.3618
G01 X-0.2477 Y-26.3171
G01 X-0.2184 Y-26.2709
G01 X-0.1903 Y-26.2211
G01 X-0.1668 Y-26.1744
G01 X-0.1456 Y-26.1266
G01 X-0.1258 Y-26.0756
G01 X-0.1078 Y-26.0214
G01 X-0.0939 Y-25.9711
G01 X-0.0813 Y-25.9153
G01 X-0.0716 Y-25.8591
G01 X-0.0652 Y-25.8072
G01 X-0.0613 Y-25.7550
G01 X-0.0598 Y-25.6967
G01 X-0.0613 Y-25.6408
G01 X-0.0652 Y-25.5887
G01 X-0.0716 Y-25.5368
G01 X-0.0813 Y-25.4805
G01 X-0.0939 Y-25.4248
G01 X-0.1078 Y-25.3744
G01 X-0.1242 Y-25.3248
G01 X-0.1447 Y-25.2715
G01 X-0.1679 Y-25.2193
G01 X-0.1914 Y-25.1726
G01 X-0.2172 Y-25.1271
G01 X-0.2477 Y-25.0788
G01 X-0.2806 Y-25.0322
G01 X-0.3144 Y-24.9891
G01 X-0.3485 Y-24.9496
G01 X-0.3846 Y-24.9117
G01 X-0.4259 Y-24.8722
G01 X-0.4673 Y-24.8365
G01 X-0.5104 Y-24.8028
G01 X-0.5551 Y-24.7714
G01 X-0.6013 Y-24.7421
G01 X-0.6489 Y-24.7151
G01 X-0.6978 Y-24.6905
G01 X-0.7500 Y-24.6675
G01 X-0.8011 Y-24.6479
G01 X-0.8507 Y-24.6315
G01 X-0.9011 Y-24.6176
G01 X-0.9568 Y-24.6050
G01 X-1.0083 Y-24.5960
G01 X-1.0650 Y-24.5889
G01 X-1.1196 Y-24.5849
G01 X-1.1742 Y-24.5835
G01 X-1.2313 Y-24.5850
G01 X-1.2859 Y-24.5892
G01 X-1.3378 Y-24.5956
G01 X-1.3893 Y-24.6045
G01 X-1.4450 Y-24.6169
G01 X-1.4977 Y-24.6315
G01 X-1.5497 Y-24.6487
G01 X-1.6029 Y-24.6693
G01 X-1.6529 Y-24.6916
G01 X-1.6996 Y-24.7151
G01 X-1.7451 Y-24.7409
G01 X-1.7934 Y-24.7714
G01 X-1.8400 Y-24.8043
G01 X-1.8831 Y-24.8381
G01 X-1.9226 Y-24.8722
G01 X-1.9605 Y-24.9083
G01 X-2.0000 Y-24.9496
G01 X-2.0357 Y-24.9910
G01 X-2.0693 Y-25.0341
G01 X-2.0995 Y-25.0768
G01 X-2.1088 Y-25.0913
G01 X-5.6294 Y-25.0913
G01 X-5.6592 Y-25.0920
G01 X-5.6889 Y-25.0942
G01 X-5.7184 Y-25.0979
G01 X-5.7478 Y-25.1029
G01 X-5.7745 Y-25.1089
G01 X-5.8078 Y-25.1181
G01 X-5.8338 Y-25.1267
G01 X-5.8638 Y-25.1384
G01 X-5.8888 Y-25.1495
G01 X-5.9154 Y-25.1629
G01 X-5.9413 Y-25.1776
G01 X-5.9664 Y-25.1935
G01 X-5.9908 Y-25.2107
G01 X-6.0143 Y-25.2290
G01 X-6.0368 Y-25.2484
G01 X-6.0566 Y-25.2673
G01 X-6.0805 Y-25.2923
G01 X-6.0983 Y-25.3131
G01 X-6.1167 Y-25.3366
G01 X-6.1338 Y-25.3609
G01 X-6.1485 Y-25.3840
G01 X-6.1655 Y-25.4141
G01 X-6.1778 Y-25.4386
G01 X-6.1899 Y-25.4658
G01 X-6.2006 Y-25.4936
G01 X-6.2092 Y-25.5195
G01 X-6.2184 Y-25.5529
G01 X-6.2244 Y-25.5796
G01 X-6.2295 Y-25.6089
G01 X-6.2331 Y-25.6385
G01 X-6.2352 Y-25.6658
G01 X-6.2361 Y-25.6979
G01 X-6.2361 Y-27.3267
G01 X-6.2692 Y-27.3269
G01 X-6.2836 Y-27.3286
G01 X-6.2975 Y-27.3325
G01 X-6.3065 Y-27.3362
G01 X-6.3150 Y-27.3407
G01 X-6.3230 Y-27.3461
G01 X-6.3305 Y-27.3522
G01 X-6.3405 Y-27.3627
G01 X-6.3462 Y-27.3705
G01 X-6.3512 Y-27.3788
G01 X-6.3553 Y-27.3875
G01 X-6.3599 Y-27.4012
G01 X-6.3617 Y-27.4107
G01 X-6.3627 Y-27.4203
G01 X-6.3627 Y-30.4780
G01 X-6.3609 Y-30.4923
G01 X-6.3586 Y-30.5017
G01 X-6.3553 Y-30.5108
G01 X-6.3512 Y-30.5195
G01 X-6.3462 Y-30.5278
G01 X-6.3405 Y-30.5356
G01 X-6.3340 Y-30.5427
G01 X-6.3230 Y-30.5522
G01 X-6.3150 Y-30.5575
G01 X-6.3065 Y-30.5621
G01 X-6.2975 Y-30.5658
G01 X-6.2883 Y-30.5686
G01 X-6.2788 Y-30.5705
G01 X-6.2692 Y-30.5714
G00 Z1.0000
G00 X-7.9710 Y-30.5714
G01 F20.00
G01 Z-0.0600
G01 F20.00
G01 X-6.6914 Y-30.5714
G01 X-6.6818 Y-30.5705
G01 X-6.6723 Y-30.5686
G01 X-6.6585 Y-30.5640
G01 X-6.6456 Y-30.5575
G01 X-6.6376 Y-30.5522
G01 X-6.6301 Y-30.5460
G01 X-6.6233 Y-30.5392
G01 X-6.6172 Y-30.5318
G01 X-6.6094 Y-30.5195
G01 X-6.6036 Y-30.5063
G01 X-6.5997 Y-30.4923
G01 X-6.5983 Y-30.4828
G01 X-6.5978 Y-30.4731
G01 X-6.5979 Y-27.4203
G01 X-6.5989 Y-27.4107
G01 X-6.6020 Y-27.3966
G01 X-6.6053 Y-27.3875
G01 X-6.6094 Y-27.3788
G01 X-6.6144 Y-27.3705
G01 X-6.6233 Y-27.3591
G01 X-6.6301 Y-27.3522
G01 X-6.6376 Y-27.3461
G01 X-6.6456 Y-27.3407
G01 X-6.6541 Y-27.3362
G01 X-6.6676 Y-27.3310
G01 X-6.6770 Y-27.3286
G01 X-6.6914 Y-27.3269
G01 X-6.7245 Y-27.3267
G01 X-6.7245 Y-23.8817
G01 X-6.6309 Y-23.7880
G01 X-6.6141 Y-23.7916
G01 X-6.5601 Y-23.8009
G01 X-6.5083 Y-23.8072
G01 X-6.4537 Y-23.8113
G01 X-6.3990 Y-23.8126
G01 X-6.3468 Y-23.8113
G01 X-6.2874 Y-23.8070
G01 X-6.2355 Y-23.8005
G01 X-6.1840 Y-23.7916
G01 X-6.1259 Y-23.7786
G01 X-6.0755 Y-23.7646
G01 X-6.0236 Y-23.7475
G01 X-5.9726 Y-23.7278
G01 X-5.9247 Y-23.7066
G01 X-5.8716 Y-23.6798
G01 X-5.8261 Y-23.6541
G01 X-5.7799 Y-23.6248
G01 X-5.7333 Y-23.5918
G01 X-5.6921 Y-23.5596
G01 X-5.6524 Y-23.5255
G01 X-5.6093 Y-23.4845
G01 X-5.5733 Y-23.4466
G01 X-5.5391 Y-23.4070
G01 X-5.5039 Y-23.3620
G01 X-5.4738 Y-23.3193
G01 X-5.4645 Y-23.3049
G01 X-3.1967 Y-23.3049
G01 X-3.1967 Y-23.6482
G01 X-3.1962 Y-23.6578
G01 X-3.1948 Y-23.6674
G01 X-3.1909 Y-23.6813
G01 X-3.1851 Y-23.6945
G01 X-3.1773 Y-23.7068
G01 X-3.1679 Y-23.7177
G01 X-3.1569 Y-23.7272
G01 X-3.1447 Y-23.7349
G01 X-3.1314 Y-23.7408
G01 X-3.1175 Y-23.7447
G01 X-3.1079 Y-23.7461
G01 X-3.0983 Y-23.7466
G01 X-1.0993 Y-23.7466
G01 X-1.0897 Y-23.7461
G01 X-1.0801 Y-23.7447
G01 X-1.0707 Y-23.7423
G01 X-1.0617 Y-23.7391
G01 X-1.0487 Y-23.7326
G01 X-1.0369 Y-23.7242
G01 X-1.0264 Y-23.7142
G01 X-1.0175 Y-23.7028
G01 X-1.0104 Y-23.6902
G01 X-1.0051 Y-23.6767
G01 X-1.0020 Y-23.6626
G01 X-1.0009 Y-23.6482
G01 X-1.0009 Y-21.7482
G01 X-1.0020 Y-21.7338
G01 X-1.0039 Y-21.7243
G01 X-1.0084 Y-21.7106
G01 X-1.0125 Y-21.7019
G01 X-1.0175 Y-21.6936
G01 X-1.0232 Y-21.6858
G01 X-1.0332 Y-21.6753
G01 X-1.0407 Y-21.6692
G01 X-1.0529 Y-21.6615
G01 X-1.0617 Y-21.6573
G01 X-1.0707 Y-21.6541
G01 X-1.0849 Y-21.6509
G01 X-1.0993 Y-21.6498
G01 X-3.0983 Y-21.6498
G01 X-3.1079 Y-21.6503
G01 X-3.1175 Y-21.6517
G01 X-3.1314 Y-21.6556
G01 X-3.1447 Y-21.6615
G01 X-3.1569 Y-21.6692
G01 X-3.1679 Y-21.6787
G01 X-3.1773 Y-21.6896
G01 X-3.1851 Y-21.7019
G01 X-3.1909 Y-21.7151
G01 X-3.1948 Y-21.7290
G01 X-3.1962 Y-21.7386
G01 X-3.1967 Y-21.7482
G01 X-3.1967 Y-22.0915
G01 X-5.4645 Y-22.0915
G01 X-5.4738 Y-22.0771
G01 X-5.5039 Y-22.0344
G01 X-5.5391 Y-21.9894
G01 X-5.5733 Y-21.9498
G01 X-5.6093 Y-21.9119
G01 X-5.6506 Y-21.8725
G01 X-5.6939 Y-21.8352
G01 X-5.7352 Y-21.8031
G01 X-5.7779 Y-21.7730
G01 X-5.8261 Y-21.7423
G01 X-5.8758 Y-21.7143
G01 X-5.9226 Y-21.6908
G01 X-5.9703 Y-21.6696
G01 X-6.0236 Y-21.6489
G01 X-6.0778 Y-21.6311
G01 X-6.1282 Y-21.6172
G01 X-6.1792 Y-21.6057
G01 X-6.2355 Y-21.5959
G01 X-6.2922 Y-21.5890
G01 X-6.3443 Y-21.5851
G01 X-6.3966 Y-21.5838
G01 X-6.4537 Y-21.5851
G01 X-6.5083 Y-21.5892
G01 X-6.5649 Y-21.5962
G01 X-6.6164 Y-21.6052
G01 X-6.6674 Y-21.6166
G01 X-6.7202 Y-21.6311
G01 X-6.7745 Y-21.6489
G01 X-6.8255 Y-21.6686
G01 X-6.8755 Y-21.6908
G01 X-6.9243 Y-21.7154
G01 X-6.9719 Y-21.7423
G01 X-7.0181 Y-21.7716
G01 X-7.0629 Y-21.8031
G01 X-7.1078 Y-21.8383
G01 X-7.1474 Y-21.8725
G01 X-7.1887 Y-21.9119
G01 X-7.2263 Y-21.9516
G01 X-7.2605 Y-21.9912
G01 X-7.2927 Y-22.0324
G01 X-7.3256 Y-22.0791
G01 X-7.3549 Y-22.1253
G01 X-7.3818 Y-22.1729
G01 X-7.4074 Y-22.2239
G01 X-7.4295 Y-22.2740
G01 X-7.4483 Y-22.3228
G01 X-7.4647 Y-22.3724
G01 X-7.4800 Y-22.4274
G01 X-7.4915 Y-22.4784
G01 X-7.5014 Y-22.5347
G01 X-7.5081 Y-22.5890
G01 X-7.5121 Y-22.6435
G01 X-7.5134 Y-22.6982
G01 X-7.5121 Y-22.7529
G01 X-7.5081 Y-22.8074
G01 X-7.5014 Y-22.8617
G01 X-7.4924 Y-22.9132
G01 X-7.4888 Y-22.9300
G01 X-7.7619 Y-23.2031
G01 X-7.7807 Y-23.2230
G01 X-7.8001 Y-23.2455
G01 X-7.8185 Y-23.2690
G01 X-7.8342 Y-23.2913
G01 X-7.8515 Y-23.3185
G01 X-7.8673 Y-23.3465
G01 X-7.8796 Y-23.3710
G01 X-7.8907 Y-23.3960
G01 X-7.9024 Y-23.4260
G01 X-7.9124 Y-23.4566
G01 X-7.9197 Y-23.4830
G01 X-7.9257 Y-23.5097
G01 X-7.9313 Y-23.5414
G01 X-7.9351 Y-23.5733
G01 X-7.9371 Y-23.6006
G01 X-7.9379 Y-23.6304
G01 X-7.9379 Y-27.3267
G01 X-7.9710 Y-27.3269
G01 X-7.9854 Y-27.3286
G01 X-7.9993 Y-27.3325
G01 X-8.0083 Y-27.3362
G01 X-8.0168 Y-27.3407
G01 X-8.0248 Y-27.3461
G01 X-8.0323 Y-27.3522
G01 X-8.0423 Y-27.3627
G01 X-8.0480 Y-27.3705
G01 X-8.0530 Y-27.3788
G01 X-8.0571 Y-27.3875
G01 X-8.0617 Y-27.4012
G01 X-8.0635 Y-27.4107
G01 X-8.0646 Y-27.4251
G01 X-8.0645 Y-30.4780
G01 X-8.0627 Y-30.4923
G01 X-8.0604 Y-30.5017
G01 X-8.0571 Y-30.5108
G01 X-8.0530 Y-30.5195
G01 X-8.0480 Y-30.5278
G01 X-8.0423 Y-30.5356
G01 X-8.0358 Y-30.5427
G01 X-8.0248 Y-30.5522
G01 X-8.0168 Y-30.5575
G01 X-8.0083 Y-30.5621
G01 X-7.9993 Y-30.5658
G01 X-7.9901 Y-30.5686
G01 X-7.9806 Y-30.5705
G01 X-7.9710 Y-30.5714
G00 Z1.0000
G00 X-8.4238 Y-30.5715
G01 F20.00
G01 Z-0.0600
G01 F20.00
G01 X-8.3906 Y-30.5714
G01 X-8.3763 Y-30.5696
G01 X-8.3623 Y-30.5658
G01 X-8.3534 Y-30.5621
G01 X-8.3449 Y-30.5575
G01 X-8.3368 Y-30.5522
G01 X-8.3294 Y-30.5460
G01 X-8.3194 Y-30.5356
G01 X-8.3136 Y-30.5278
G01 X-8.3087 Y-30.5195
G01 X-8.3046 Y-30.5108
G01 X-8.3000 Y-30.4970
G01 X-8.2981 Y-30.4876
G01 X-8.2972 Y-30.4780
G01 X-8.2971 Y-27.4251
G01 X-8.2981 Y-27.4107
G01 X-8.3013 Y-27.3966
G01 X-8.3065 Y-27.3831
G01 X-8.3111 Y-27.3746
G01 X-8.3194 Y-27.3627
G01 X-8.3294 Y-27.3522
G01 X-8.3368 Y-27.3461
G01 X-8.3491 Y-27.3384
G01 X-8.3578 Y-27.3342
G01 X-8.3669 Y-27.3310
G01 X-8.3763 Y-27.3286
G01 X-8.3858 Y-27.3272
G01 X-8.3955 Y-27.3267
G01 X-8.4924 Y-27.3267
G01 X-8.4924 Y-27.2696
G01 X-8.2202 Y-27.2696
G01 X-8.2091 Y-27.2693
G01 X-8.1895 Y-27.2675
G01 X-8.1762 Y-27.2653
G01 X-8.1571 Y-27.2606
G01 X-8.1420 Y-27.2556
G01 X-8.1260 Y-27.2490
G01 X-8.1139 Y-27.2430
G01 X-8.1022 Y-27.2363
G01 X-8.0878 Y-27.2266
G01 X-8.0772 Y-27.2184
G01 X-8.0670 Y-27.2096
G01 X-8.0591 Y-27.2018
G01 X-8.0475 Y-27.1890
G01 X-8.0391 Y-27.1784
G01 X-8.0314 Y-27.1674
G01 X-8.0225 Y-27.1525
G01 X-8.0164 Y-27.1405
G01 X-8.0110 Y-27.1282
G01 X-8.0052 Y-27.1119
G01 X-8.0015 Y-27.0989
G01 X-7.9986 Y-27.0858
G01 X-7.9958 Y-27.0662
G01 X-7.9950 Y-27.0552
G01 X-7.9947 Y-27.0441
G01 X-7.9947 Y-23.3555
G01 X-7.6306 Y-22.9911
G01 X-7.6217 Y-22.9809
G01 X-7.6149 Y-22.9722
G01 X-7.6086 Y-22.9632
G01 X-7.6026 Y-22.9538
G01 X-7.5972 Y-22.9442
G01 X-7.5922 Y-22.9343
G01 X-7.5877 Y-22.9242
G01 X-7.5837 Y-22.9139
G01 X-7.5779 Y-22.8950
G01 X-7.5744 Y-22.8795
G01 X-7.5716 Y-22.8600
G01 X-7.5706 Y-22.8403
G01 X-7.5706 Y-22.2125
G01 X-6.8847 Y-21.5267
G01 X-5.9133 Y-21.5267
G01 X-5.4713 Y-21.9686
G01 X-5.4568 Y-21.9819
G01 X-5.4462 Y-21.9903
G01 X-5.4392 Y-21.9953
G01 X-5.4257 Y-22.0038
G01 X-5.4083 Y-22.0130
G01 X-5.3982 Y-22.0175
G01 X-5.3879 Y-22.0215
G01 X-5.3690 Y-22.0273
G01 X-5.3535 Y-22.0308
G01 X-5.3340 Y-22.0336
G01 X-5.3131 Y-22.0347
G01 X-3.4806 Y-22.0347
G01 X-3.4695 Y-22.0344
G01 X-3.4585 Y-22.0336
G01 X-3.4475 Y-22.0322
G01 X-3.4342 Y-22.0298
G01 X-3.4174 Y-22.0256
G01 X-3.4069 Y-22.0223
G01 X-3.3943 Y-22.0175
G01 X-3.3842 Y-22.0130
G01 X-3.3722 Y-22.0069
G01 X-3.3573 Y-21.9980
G01 X-3.3463 Y-21.9903
G01 X-3.3375 Y-21.9835
G01 X-3.3291 Y-21.9763
G01 X-3.3194 Y-21.9669
G01 X-3.3078 Y-21.9541
G01 X-3.2995 Y-21.9435
G01 X-3.2931 Y-21.9345
G01 X-3.2860 Y-21.9230
G01 X-3.2778 Y-21.9078
G01 X-3.2723 Y-21.8955
G01 X-3.2683 Y-21.8852
G01 X-3.2648 Y-21.8746
G01 X-3.2599 Y-21.8555
G01 X-3.2572 Y-21.8399
G01 X-3.2554 Y-21.8203
G01 X-3.2551 Y-21.8092
G01 X-3.2551 Y-21.5927
G01 X-0.9425 Y-21.5927
G01 X-0.9425 Y-23.8037
G01 X-3.2551 Y-23.8037
G01 X-3.2551 Y-23.5872
G01 X-3.2554 Y-23.5761
G01 X-3.2562 Y-23.5651
G01 X-3.2575 Y-23.5541
G01 X-3.2613 Y-23.5348
G01 X-3.2655 Y-23.5194
G01 X-3.2723 Y-23.5009
G01 X-3.2778 Y-23.4886
G01 X-3.2860 Y-23.4734
G01 X-3.2931 Y-23.4619
G01 X-3.2995 Y-23.4529
G01 X-3.3078 Y-23.4423
G01 X-3.3194 Y-23.4295
G01 X-3.3291 Y-23.4201
G01 X-3.3375 Y-23.4129
G01 X-3.3482 Y-23.4047
G01 X-3.3626 Y-23.3951
G01 X-3.3743 Y-23.3884
G01 X-3.3842 Y-23.3834
G01 X-3.3943 Y-23.3789
G01 X-3.4069 Y-23.3741
G01 X-3.4234 Y-23.3691
G01 X-3.4366 Y-23.3661
G01 X-3.4475 Y-23.3642
G01 X-3.4585 Y-23.3628
G01 X-3.4695 Y-23.3620
G01 X-3.4806 Y-23.3617
G01 X-5.3119 Y-23.3617
G01 X-5.3254 Y-23.3622
G01 X-5.3426 Y-23.3639
G01 X-5.3559 Y-23.3661
G01 X-5.3667 Y-23.3685
G01 X-5.3797 Y-23.3722
G01 X-5.3959 Y-23.3780
G01 X-5.4083 Y-23.3834
G01 X-5.4182 Y-23.3884
G01 X-5.4299 Y-23.3951
G01 X-5.4443 Y-23.4047
G01 X-5.4549 Y-23.4129
G01 X-5.4633 Y-23.4201
G01 X-5.4713 Y-23.4278
G01 X-5.9133 Y-23.8697
G01 X-6.4422 Y-23.8697
G01 X-6.4619 Y-23.8706
G01 X-6.4753 Y-23.8722
G01 X-6.4862 Y-23.8741
G01 X-6.4970 Y-23.8765
G01 X-6.5076 Y-23.8794
G01 X-6.5204 Y-23.8838
G01 X-6.5285 Y-23.8869
G01 X-6.5408 Y-23.8924
G01 X-6.5506 Y-23.8975
G01 X-6.5654 Y-23.9064
G01 X-6.5765 Y-23.9141
G01 X-6.5852 Y-23.9209
G01 X-6.5936 Y-23.9281
G01 X-6.6016 Y-23.9358
G01 X-6.6093 Y-23.9438
G01 X-6.6165 Y-23.9522
G01 X-6.6233 Y-23.9609
G01 X-6.6297 Y-23.9699
G01 X-6.6399 Y-23.9868
G01 X-6.6460 Y-23.9988
G01 X-6.6514 Y-24.0112
G01 X-6.6572 Y-24.0274
G01 X-6.6615 Y-24.0428
G01 X-6.6648 Y-24.0597
G01 X-6.6666 Y-24.0731
G01 X-6.6675 Y-24.0866
G01 X-6.6677 Y-25.2534
G01 X-6.6672 Y-25.2669
G01 X-6.6652 Y-25.2865
G01 X-6.6633 Y-25.2974
G01 X-6.6609 Y-25.3082
G01 X-6.6580 Y-25.3189
G01 X-6.6545 Y-25.3294
G01 X-6.6505 Y-25.3397
G01 X-6.6460 Y-25.3498
G01 X-6.6410 Y-25.3597
G01 X-6.6356 Y-25.3694
G01 X-6.6297 Y-25.3787
G01 X-6.6233 Y-25.3877
G01 X-6.6165 Y-25.3965
G01 X-6.6093 Y-25.4049
G01 X-6.6016 Y-25.4129
G01 X-6.5936 Y-25.4205
G01 X-6.5852 Y-25.4277
G01 X-6.5765 Y-25.4345
G01 X-6.5675 Y-25.4409
G01 X-6.5581 Y-25.4468
G01 X-6.5485 Y-25.4523
G01 X-6.5386 Y-25.4573
G01 X-6.5285 Y-25.4617
G01 X-6.5182 Y-25.4657
G01 X-6.5076 Y-25.4692
G01 X-6.4970 Y-25.4721
G01 X-6.4862 Y-25.4746
G01 X-6.4753 Y-25.4765
G01 X-6.4643 Y-25.4778
G01 X-6.4533 Y-25.4786
G01 X-6.4422 Y-25.4789
G01 X-6.4311 Y-25.4786
G01 X-6.4115 Y-25.4768
G01 X-6.3959 Y-25.4741
G01 X-6.3768 Y-25.4692
G01 X-6.3582 Y-25.4626
G01 X-6.3436 Y-25.4562
G01 X-6.3263 Y-25.4468
G01 X-6.3098 Y-25.4359
G01 X-6.2973 Y-25.4262
G01 X-6.2828 Y-25.4129
G01 X-5.9043 Y-25.0344
G01 X-2.2614 Y-25.0344
G01 X-2.2417 Y-25.0335
G01 X-2.2283 Y-25.0320
G01 X-2.2089 Y-25.0282
G01 X-2.1959 Y-25.0247
G01 X-2.1773 Y-25.0181
G01 X-2.1650 Y-25.0128
G01 X-2.1475 Y-25.0035
G01 X-2.1361 Y-24.9964
G01 X-2.1202 Y-24.9847
G01 X-2.1099 Y-24.9760
G01 X-2.1019 Y-24.9684
G01 X-1.6600 Y-24.5264
G01 X-0.6885 Y-24.5264
G01 X-0.0027 Y-25.2122
G01 X-0.0027 Y-26.1837
G01 X-0.6913 Y-26.8723
G01 X-0.7085 Y-26.8757
G01 X-0.7238 Y-26.8799
G01 X-0.7424 Y-26.8866
G01 X-0.7602 Y-26.8950
G01 X-0.7740 Y-26.9028
G01 X-0.7904 Y-26.9138
G01 X-0.8057 Y-26.9263
G01 X-0.8172 Y-26.9372
G01 X-0.8304 Y-26.9519
G01 X-0.8372 Y-26.9606
G01 X-0.8435 Y-26.9697
G01 X-0.8495 Y-26.9790
G01 X-0.8549 Y-26.9887
G01 X-0.8599 Y-26.9985
G01 X-0.8644 Y-27.0087
G01 X-0.8684 Y-27.0190
G01 X-0.8718 Y-27.0295
G01 X-0.8748 Y-27.0402
G01 X-0.8772 Y-27.0510
G01 X-0.8791 Y-27.0619
G01 X-0.8805 Y-27.0728
G01 X-0.8815 Y-27.0937
G01 X-0.8815 Y-30.8465
G01 X-0.8811 Y-30.8600
G01 X-0.8794 Y-30.8772
G01 X-0.8767 Y-30.8929
G01 X-0.8718 Y-30.9120
G01 X-0.8653 Y-30.9306
G01 X-0.8599 Y-30.9429
G01 X-0.8507 Y-30.9603
G01 X-0.8435 Y-30.9718
G01 X-0.8319 Y-30.9877
G01 X-0.8231 Y-30.9979
G01 X-0.8155 Y-31.0059
G01 X-0.1195 Y-31.7019
G01 X-0.1195 Y-33.0950
G01 X-1.1025 Y-34.0780
G01 X-2.4956 Y-34.0780
G01 X-3.4786 Y-33.0950
G01 X-3.4786 Y-31.7019
G01 X-2.7827 Y-31.0059
G01 X-2.7750 Y-30.9979
G01 X-2.7624 Y-30.9828
G01 X-2.7533 Y-30.9698
G01 X-2.7432 Y-30.9528
G01 X-2.7347 Y-30.9350
G01 X-2.7290 Y-30.9202
G01 X-2.7234 Y-30.9013
G01 X-2.7194 Y-30.8820
G01 X-2.7175 Y-30.8662
G01 X-2.7166 Y-30.8465
G01 X-2.7169 Y-26.8382
G01 X-2.7187 Y-26.8177
G01 X-2.7222 Y-26.7985
G01 X-2.7835 Y-26.5358
G01 X-2.7863 Y-26.5249
G01 X-2.7896 Y-26.5142
G01 X-2.7935 Y-26.5037
G01 X-2.7989 Y-26.4912
G01 X-2.8028 Y-26.4833
G01 X-2.8094 Y-26.4714
G01 X-2.8154 Y-26.4619
G01 X-2.8257 Y-26.4478
G01 X-2.8344 Y-26.4373
G01 X-2.8421 Y-26.4291
G01 X-2.8567 Y-26.4155
G01 X-2.8673 Y-26.4069
G01 X-2.8764 Y-26.4004
G01 X-2.8858 Y-26.3943
G01 X-2.8955 Y-26.3888
G01 X-2.9055 Y-26.3837
G01 X-2.9157 Y-26.3791
G01 X-2.9262 Y-26.3750
G01 X-2.9368 Y-26.3714
G01 X-2.9500 Y-26.3678
G01 X-2.9695 Y-26.3640
G01 X-2.9831 Y-26.3624
G01 X-3.0030 Y-26.3615
G01 X-4.7404 Y-26.3615
G01 X-4.7515 Y-26.3617
G01 X-4.7711 Y-26.3636
G01 X-4.7844 Y-26.3658
G01 X-4.7975 Y-26.3688
G01 X-4.8141 Y-26.3739
G01 X-4.8267 Y-26.3786
G01 X-4.8390 Y-26.3842
G01 X-4.8542 Y-26.3923
G01 X-4.8657 Y-26.3995
G01 X-4.8815 Y-26.4111
G01 X-4.8918 Y-26.4199
G01 X-4.9015 Y-26.4292
G01 X-4.9131 Y-26.4421
G01 X-4.9215 Y-26.4526
G01 X-4.9292 Y-26.4637
G01 X-4.9381 Y-26.4785
G01 X-4.9452 Y-26.4927
G01 X-4.9527 Y-26.5110
G01 X-4.9562 Y-26.5215
G01 X-4.9591 Y-26.5322
G01 X-4.9615 Y-26.5430
G01 X-4.9634 Y-26.5539
G01 X-4.9648 Y-26.5648
G01 X-4.9657 Y-26.5783
G01 X-4.9659 Y-27.0441
G01 X-4.9650 Y-27.0638
G01 X-4.9634 Y-27.0772
G01 X-4.9610 Y-27.0905
G01 X-4.9568 Y-27.1073
G01 X-4.9527 Y-27.1201
G01 X-4.9487 Y-27.1304
G01 X-4.9442 Y-27.1405
G01 X-4.9381 Y-27.1525
G01 X-4.9292 Y-27.1674
G01 X-4.9215 Y-27.1784
G01 X-4.9131 Y-27.1890
G01 X-4.9015 Y-27.2018
G01 X-4.8918 Y-27.2112
G01 X-4.8834 Y-27.2184
G01 X-4.8747 Y-27.2252
G01 X-4.8636 Y-27.2329
G01 X-4.8488 Y-27.2418
G01 X-4.8389 Y-27.2469
G01 X-4.8389 Y-30.6287
G01 X-8.4238 Y-30.6287
G01 X-8.4238 Y-30.5715
G00 Z1.0000
G00 X-6.4128 Y-27.1935
G01 F20.00
G01 Z-0.0600
G01 F20.00
G01 X-6.4283 Y-27.2042
G01 X-6.4389 Y-27.2125
G01 X-6.4492 Y-27.2213
G01 X-6.4589 Y-27.2306
G01 X-6.4683 Y-27.2404
G01 X-6.4803 Y-27.2547
G01 X-6.4923 Y-27.2404
G01 X-6.5017 Y-27.2306
G01 X-6.5114 Y-27.2213
G01 X-6.5217 Y-27.2125
G01 X-6.5323 Y-27.2042
G01 X-6.5478 Y-27.1935
G01 X-6.5478 Y-25.6415
G01 X-6.5334 Y-25.6451
G01 X-6.5140 Y-25.6491
G01 X-6.5012 Y-25.6513
G01 X-6.4816 Y-25.6537
G01 X-6.4619 Y-25.6551
G01 X-6.4422 Y-25.6556
G01 X-6.4225 Y-25.6551
G01 X-6.4115 Y-25.6544
G01 X-6.4128 Y-25.6979
G01 X-6.4128 Y-27.1935
G00 Z1.0000
G00 X-13.2221 Y-29.1746
G01 F20.00
G01 Z-0.0600
G01 F20.00
G01 X-13.1649 Y-29.1746
G01 X-13.1649 Y-30.4731
G01 X-13.1639 Y-30.4876
G01 X-13.1620 Y-30.4970
G01 X-13.1592 Y-30.5063
G01 X-13.1555 Y-30.5152
G01 X-13.1509 Y-30.5237
G01 X-13.1426 Y-30.5356
G01 X-13.1361 Y-30.5427
G01 X-13.1289 Y-30.5492
G01 X-13.1212 Y-30.5550
G01 X-13.1129 Y-30.5599
G01 X-13.1042 Y-30.5640
G01 X-13.0951 Y-30.5673
G01 X-13.0857 Y-30.5696
G01 X-13.0713 Y-30.5714
G01 X-13.0382 Y-30.5715
G01 X-13.0382 Y-30.6287
G01 X-13.2221 Y-30.6287
G01 X-13.2221 Y-29.1746
G00 Z1.0000
G00 X-11.8249 Y-35.4751
G01 F20.00
G01 Z-0.0600
G01 F20.00
G01 X-11.8249 Y-35.4179
G01 X-9.6371 Y-35.4179
G01 X-9.6371 Y-35.4751
G01 X-11.8249 Y-35.4751
G00 Z1.0000
G00 X-8.4238 Y-35.4751
G01 F20.00
G01 Z-0.0600
G01 F20.00
G01 X-8.4238 Y-35.4179
G01 X-3.1599 Y-35.4179
G01 X-3.1599 Y-39.7930
G01 X-3.2171 Y-39.7930
G01 X-3.2171 Y-35.5735
G01 X-3.2181 Y-35.5590
G01 X-3.2200 Y-35.5496
G01 X-3.2228 Y-35.5403
G01 X-3.2265 Y-35.5314
G01 X-3.2311 Y-35.5229
G01 X-3.2364 Y-35.5148
G01 X-3.2459 Y-35.5039
G01 X-3.2530 Y-35.4974
G01 X-3.2649 Y-35.4891
G01 X-3.2734 Y-35.4845
G01 X-3.2823 Y-35.4808
G01 X-3.2963 Y-35.4770
G01 X-3.3058 Y-35.4755
G01 X-3.3155 Y-35.4751
G01 X-8.4238 Y-35.4751
G00 Z1.0000
G00 X-14.9010 Y-39.7930
G01 F20.00
G01 Z-0.0600
G01 F20.00
G01 X-14.9010 Y-35.4179
G01 X-13.0382 Y-35.4179
G01 X-13.0382 Y-35.4751
G01 X-14.7503 Y-35.4752
G01 X-14.7647 Y-35.4770
G01 X-14.7786 Y-35.4808
