(G-CODE GENERATED BY FLATCAM v8.98 - www.flatcam.org - Version Date: 2019/10/16)

(Name: Плата - CADCAM Top Copper.TXT_iso_copy_cnc)
(Type: G-code from Geometry)
(Units: MM)

(Created on Tuesday, 07 January 2020 at 15:29)

(TOOL DIAMETER: 0.2 mm)
(Feedrate: 20.0 mm/min)
(Feedrate_Z: 20.0 mm/min)
(Feedrate rapids 20.0 mm/min)

(Z_Cut: -0.06 mm)
(DepthPerCut: 0.06 mm <=>1 passes)
(Z_Move: 1.0 mm)
(Z Toolchange: 10.0 mm)
(X,Y Toolchange: 0.0000, 0.0000 mm)
(Z Start: None mm)
(Z End: 10.0 mm)
(Steps per circle: 128)
(Postprocessor Geometry: default)

(X range:   -2.8403 ...   55.7053  mm)
(Y range:  -45.1542 ...    3.0816  mm)

(Spindle Speed: 500 RPM)

G21
G90
G94

G01 F20.00
G00 Z1.0000

M03 S500
G00 X0.1162 Y-6.4771
G01 F20.00
G01 Z-0.0600
G01 F20.00
G01 X0.1148 Y-6.4237
G01 X0.1108 Y-6.3698
G01 X0.1042 Y-6.3165
G01 X0.0950 Y-6.2632
G01 X0.0828 Y-6.2088
G01 X0.0683 Y-6.1565
G01 X0.0507 Y-6.1031
G01 X0.0311 Y-6.0525
G01 X0.0094 Y-6.0035
G01 X-0.0154 Y-5.9542
G01 X-0.0422 Y-5.9069
G01 X-0.0713 Y-5.8610
G01 X-0.1042 Y-5.8143
G01 X-0.1366 Y-5.7728
G01 X-0.1720 Y-5.7317
G01 X-0.2102 Y-5.6915
G01 X-0.2504 Y-5.6533
G01 X-0.2915 Y-5.6179
G01 X-0.3330 Y-5.5855
G01 X-0.3796 Y-5.5526
G01 X-0.4256 Y-5.5235
G01 X-0.4729 Y-5.4967
G01 X-0.5222 Y-5.4719
G01 X-0.5711 Y-5.4502
G01 X-0.6218 Y-5.4306
G01 X-0.6752 Y-5.4130
G01 X-0.7275 Y-5.3985
G01 X-0.7819 Y-5.3863
G01 X-0.8352 Y-5.3771
G01 X-0.8884 Y-5.3706
G01 X-0.9424 Y-5.3665
G01 X-0.9982 Y-5.3651
G01 X-1.0541 Y-5.3665
G01 X-1.1080 Y-5.3706
G01 X-1.1612 Y-5.3771
G01 X-1.2146 Y-5.3863
G01 X-1.2690 Y-5.3985
G01 X-1.3212 Y-5.4130
G01 X-1.3746 Y-5.4306
G01 X-1.4253 Y-5.4502
G01 X-1.4742 Y-5.4719
G01 X-1.5236 Y-5.4967
G01 X-1.5709 Y-5.5235
G01 X-1.6168 Y-5.5526
G01 X-1.6634 Y-5.5855
G01 X-1.7050 Y-5.6179
G01 X-1.7460 Y-5.6533
G01 X-1.7862 Y-5.6915
G01 X-1.8245 Y-5.7317
G01 X-1.8598 Y-5.7728
G01 X-1.8923 Y-5.8143
G01 X-1.9252 Y-5.8610
G01 X-1.9542 Y-5.9069
G01 X-1.9810 Y-5.9542
G01 X-2.0058 Y-6.0035
G01 X-2.0275 Y-6.0525
G01 X-2.0471 Y-6.1031
G01 X-2.0648 Y-6.1565
G01 X-2.0792 Y-6.2088
G01 X-2.0914 Y-6.2632
G01 X-2.1006 Y-6.3165
G01 X-2.1072 Y-6.3698
G01 X-2.1112 Y-6.4237
G01 X-2.1126 Y-6.4795
G01 X-2.1112 Y-6.5354
G01 X-2.1072 Y-6.5893
G01 X-2.1006 Y-6.6425
G01 X-2.0914 Y-6.6959
G01 X-2.0792 Y-6.7503
G01 X-2.0648 Y-6.8026
G01 X-2.0471 Y-6.8559
G01 X-2.0275 Y-6.9066
G01 X-2.0058 Y-6.9555
G01 X-1.9810 Y-7.0049
G01 X-1.9542 Y-7.0522
G01 X-1.9252 Y-7.0981
G01 X-1.8923 Y-7.1448
G01 X-1.8598 Y-7.1863
G01 X-1.8245 Y-7.2273
G01 X-1.7862 Y-7.2675
G01 X-1.7460 Y-7.3058
G01 X-1.7050 Y-7.3412
G01 X-1.6634 Y-7.3736
G01 X-1.6168 Y-7.4065
G01 X-1.5709 Y-7.4355
G01 X-1.5236 Y-7.4623
G01 X-1.4742 Y-7.4872
G01 X-1.4253 Y-7.5089
G01 X-1.3746 Y-7.5284
G01 X-1.3212 Y-7.5461
G01 X-1.2690 Y-7.5606
G01 X-1.2146 Y-7.5727
G01 X-1.1612 Y-7.5820
G01 X-1.1080 Y-7.5885
G01 X-1.0541 Y-7.5925
G01 X-0.9982 Y-7.5939
G01 X-0.9424 Y-7.5925
G01 X-0.8884 Y-7.5885
G01 X-0.8352 Y-7.5820
G01 X-0.7819 Y-7.5727
G01 X-0.7275 Y-7.5606
G01 X-0.6752 Y-7.5461
G01 X-0.6218 Y-7.5284
G01 X-0.5711 Y-7.5089
G01 X-0.5222 Y-7.4872
G01 X-0.4729 Y-7.4623
G01 X-0.4256 Y-7.4355
G01 X-0.3796 Y-7.4065
G01 X-0.3330 Y-7.3736
G01 X-0.2915 Y-7.3412
G01 X-0.2504 Y-7.3058
G01 X-0.2102 Y-7.2675
G01 X-0.1720 Y-7.2273
G01 X-0.1366 Y-7.1863
G01 X-0.1042 Y-7.1448
G01 X-0.0713 Y-7.0981
G01 X-0.0422 Y-7.0522
G01 X-0.0154 Y-7.0049
G01 X0.0094 Y-6.9555
G01 X0.0311 Y-6.9066
G01 X0.0507 Y-6.8559
G01 X0.0683 Y-6.8026
G01 X0.0828 Y-6.7503
G01 X0.0950 Y-6.6959
G01 X0.1042 Y-6.6425
G01 X0.1108 Y-6.5893
G01 X0.1148 Y-6.5354
G01 X0.1162 Y-6.4771
G00 Z1.0000
G00 X0.1162 Y-9.0171
G01 F20.00
G01 Z-0.0600
G01 F20.00
G01 X0.1148 Y-8.9637
G01 X0.1108 Y-8.9098
G01 X0.1042 Y-8.8565
G01 X0.0950 Y-8.8032
G01 X0.0828 Y-8.7488
G01 X0.0683 Y-8.6965
G01 X0.0507 Y-8.6431
G01 X0.0311 Y-8.5925
G01 X0.0094 Y-8.5435
G01 X-0.0154 Y-8.4942
G01 X-0.0422 Y-8.4469
G01 X-0.0713 Y-8.4010
G01 X-0.1042 Y-8.3543
G01 X-0.1366 Y-8.3128
G01 X-0.1720 Y-8.2717
G01 X-0.2102 Y-8.2315
G01 X-0.2504 Y-8.1933
G01 X-0.2915 Y-8.1579
G01 X-0.3330 Y-8.1255
G01 X-0.3796 Y-8.0926
G01 X-0.4256 Y-8.0635
G01 X-0.4729 Y-8.0367
G01 X-0.5222 Y-8.0119
G01 X-0.5711 Y-7.9902
G01 X-0.6218 Y-7.9706
G01 X-0.6752 Y-7.9530
G01 X-0.7275 Y-7.9385
G01 X-0.7819 Y-7.9263
G01 X-0.8352 Y-7.9171
G01 X-0.8884 Y-7.9106
G01 X-0.9424 Y-7.9065
G01 X-0.9982 Y-7.9051
G01 X-1.0541 Y-7.9065
G01 X-1.1080 Y-7.9106
G01 X-1.1612 Y-7.9171
G01 X-1.2146 Y-7.9263
G01 X-1.2690 Y-7.9385
G01 X-1.3212 Y-7.9530
G01 X-1.3746 Y-7.9706
G01 X-1.4253 Y-7.9902
G01 X-1.4742 Y-8.0119
G01 X-1.5236 Y-8.0367
G01 X-1.5709 Y-8.0635
G01 X-1.6168 Y-8.0926
G01 X-1.6634 Y-8.1255
G01 X-1.7050 Y-8.1579
G01 X-1.7460 Y-8.1933
G01 X-1.7862 Y-8.2315
G01 X-1.8245 Y-8.2717
G01 X-1.8598 Y-8.3128
G01 X-1.8923 Y-8.3543
G01 X-1.9252 Y-8.4010
G01 X-1.9542 Y-8.4469
G01 X-1.9810 Y-8.4942
G01 X-2.0058 Y-8.5435
G01 X-2.0275 Y-8.5925
G01 X-2.0471 Y-8.6431
G01 X-2.0648 Y-8.6965
G01 X-2.0792 Y-8.7488
G01 X-2.0914 Y-8.8032
G01 X-2.1006 Y-8.8565
G01 X-2.1072 Y-8.9098
G01 X-2.1112 Y-8.9637
G01 X-2.1126 Y-9.0195
G01 X-2.1112 Y-9.0754
G01 X-2.1072 Y-9.1293
G01 X-2.1006 Y-9.1825
G01 X-2.0914 Y-9.2359
G01 X-2.0792 Y-9.2903
G01 X-2.0648 Y-9.3426
G01 X-2.0471 Y-9.3959
G01 X-2.0275 Y-9.4466
G01 X-2.0058 Y-9.4955
G01 X-1.9810 Y-9.5449
G01 X-1.9542 Y-9.5922
G01 X-1.9252 Y-9.6381
G01 X-1.8923 Y-9.6848
G01 X-1.8598 Y-9.7263
G01 X-1.8245 Y-9.7673
G01 X-1.7862 Y-9.8075
G01 X-1.7460 Y-9.8458
G01 X-1.7050 Y-9.8812
G01 X-1.6634 Y-9.9136
G01 X-1.6168 Y-9.9465
G01 X-1.5709 Y-9.9755
G01 X-1.5236 Y-10.0023
G01 X-1.4742 Y-10.0272
G01 X-1.4253 Y-10.0489
G01 X-1.3746 Y-10.0684
G01 X-1.3212 Y-10.0861
G01 X-1.2690 Y-10.1006
G01 X-1.2146 Y-10.1127
G01 X-1.1612 Y-10.1220
G01 X-1.1080 Y-10.1285
G01 X-1.0541 Y-10.1325
G01 X-0.9982 Y-10.1339
G01 X-0.9424 Y-10.1325
G01 X-0.8884 Y-10.1285
G01 X-0.8352 Y-10.1220
G01 X-0.7819 Y-10.1127
G01 X-0.7275 Y-10.1006
G01 X-0.6752 Y-10.0861
G01 X-0.6218 Y-10.0684
G01 X-0.5711 Y-10.0489
G01 X-0.5222 Y-10.0272
G01 X-0.4729 Y-10.0023
G01 X-0.4256 Y-9.9755
G01 X-0.3796 Y-9.9465
G01 X-0.3330 Y-9.9136
G01 X-0.2915 Y-9.8812
G01 X-0.2504 Y-9.8458
G01 X-0.2102 Y-9.8075
G01 X-0.1720 Y-9.7673
G01 X-0.1366 Y-9.7263
G01 X-0.1042 Y-9.6848
G01 X-0.0713 Y-9.6381
G01 X-0.0422 Y-9.5922
G01 X-0.0154 Y-9.5449
G01 X0.0094 Y-9.4955
G01 X0.0311 Y-9.4466
G01 X0.0507 Y-9.3959
G01 X0.0683 Y-9.3426
G01 X0.0828 Y-9.2903
G01 X0.0950 Y-9.2359
G01 X0.1042 Y-9.1825
G01 X0.1108 Y-9.1293
G01 X0.1148 Y-9.0754
G01 X0.1162 Y-9.0171
G00 Z1.0000
G00 X0.1162 Y-11.5571
G01 F20.00
G01 Z-0.0600
G01 F20.00
G01 X0.1148 Y-11.5037
G01 X0.1108 Y-11.4498
G01 X0.1042 Y-11.3965
G01 X0.0950 Y-11.3432
G01 X0.0828 Y-11.2888
G01 X0.0683 Y-11.2365
G01 X0.0507 Y-11.1831
G01 X0.0311 Y-11.1325
G01 X0.0094 Y-11.0835
G01 X-0.0154 Y-11.0342
G01 X-0.0422 Y-10.9869
G01 X-0.0713 Y-10.9410
G01 X-0.1042 Y-10.8943
G01 X-0.1366 Y-10.8528
G01 X-0.1720 Y-10.8117
G01 X-0.2102 Y-10.7715
G01 X-0.2504 Y-10.7333
G01 X-0.2915 Y-10.6979
G01 X-0.3330 Y-10.6655
G01 X-0.3796 Y-10.6326
G01 X-0.4256 Y-10.6035
G01 X-0.4729 Y-10.5767
G01 X-0.5222 Y-10.5519
G01 X-0.5711 Y-10.5302
G01 X-0.6218 Y-10.5106
G01 X-0.6752 Y-10.4930
G01 X-0.7275 Y-10.4785
G01 X-0.7819 Y-10.4663
G01 X-0.8352 Y-10.4571
G01 X-0.8884 Y-10.4506
G01 X-0.9424 Y-10.4465
G01 X-0.9982 Y-10.4451
G01 X-1.0541 Y-10.4465
G01 X-1.1080 Y-10.4506
G01 X-1.1612 Y-10.4571
G01 X-1.2146 Y-10.4663
G01 X-1.2690 Y-10.4785
G01 X-1.3212 Y-10.4930
G01 X-1.3746 Y-10.5106
G01 X-1.4253 Y-10.5302
G01 X-1.4742 Y-10.5519
G01 X-1.5236 Y-10.5767
G01 X-1.5709 Y-10.6035
G01 X-1.6168 Y-10.6326
G01 X-1.6634 Y-10.6655
G01 X-1.7050 Y-10.6979
G01 X-1.7460 Y-10.7333
G01 X-1.7862 Y-10.7715
G01 X-1.8245 Y-10.8117
G01 X-1.8598 Y-10.8528
G01 X-1.8923 Y-10.8943
G01 X-1.9252 Y-10.9410
G01 X-1.9542 Y-10.9869
G01 X-1.9810 Y-11.0342
G01 X-2.0058 Y-11.0835
G01 X-2.0275 Y-11.1325
G01 X-2.0471 Y-11.1831
G01 X-2.0648 Y-11.2365
G01 X-2.0792 Y-11.2888
G01 X-2.0914 Y-11.3432
G01 X-2.1006 Y-11.3965
G01 X-2.1072 Y-11.4498
G01 X-2.1112 Y-11.5037
G01 X-2.1126 Y-11.5595
G01 X-2.1112 Y-11.6154
G01 X-2.1072 Y-11.6693
G01 X-2.1006 Y-11.7225
G01 X-2.0914 Y-11.7759
G01 X-2.0792 Y-11.8303
G01 X-2.0648 Y-11.8826
G01 X-2.0471 Y-11.9359
G01 X-2.0275 Y-11.9866
G01 X-2.0058 Y-12.0355
G01 X-1.9810 Y-12.0849
G01 X-1.9542 Y-12.1322
G01 X-1.9252 Y-12.1781
G01 X-1.8923 Y-12.2248
G01 X-1.8598 Y-12.2663
G01 X-1.8245 Y-12.3073
G01 X-1.7862 Y-12.3475
G01 X-1.7460 Y-12.3858
G01 X-1.7050 Y-12.4212
G01 X-1.6634 Y-12.4536
G01 X-1.6168 Y-12.4865
G01 X-1.5709 Y-12.5155
G01 X-1.5236 Y-12.5423
G01 X-1.4742 Y-12.5672
G01 X-1.4253 Y-12.5889
G01 X-1.3746 Y-12.6084
G01 X-1.3212 Y-12.6261
G01 X-1.2690 Y-12.6406
G01 X-1.2146 Y-12.6527
G01 X-1.1612 Y-12.6620
G01 X-1.1080 Y-12.6685
G01 X-1.0541 Y-12.6725
G01 X-0.9982 Y-12.6739
G01 X-0.9424 Y-12.6725
G01 X-0.8884 Y-12.6685
G01 X-0.8352 Y-12.6620
G01 X-0.7819 Y-12.6527
G01 X-0.7275 Y-12.6406
G01 X-0.6752 Y-12.6261
G01 X-0.6218 Y-12.6084
G01 X-0.5711 Y-12.5889
G01 X-0.5222 Y-12.5672
G01 X-0.4729 Y-12.5423
G01 X-0.4256 Y-12.5155
G01 X-0.3796 Y-12.4865
G01 X-0.3330 Y-12.4536
G01 X-0.2915 Y-12.4212
G01 X-0.2504 Y-12.3858
G01 X-0.2102 Y-12.3475
G01 X-0.1720 Y-12.3073
G01 X-0.1366 Y-12.2663
G01 X-0.1042 Y-12.2248
G01 X-0.0713 Y-12.1781
G01 X-0.0422 Y-12.1322
G01 X-0.0154 Y-12.0849
G01 X0.0094 Y-12.0355
G01 X0.0311 Y-11.9866
G01 X0.0507 Y-11.9359
G01 X0.0683 Y-11.8826
G01 X0.0828 Y-11.8303
G01 X0.0950 Y-11.7759
G01 X0.1042 Y-11.7225
G01 X0.1108 Y-11.6693
G01 X0.1148 Y-11.6154
G01 X0.1162 Y-11.5571
G00 Z1.0000
G00 X2.9527 Y-11.2447
G01 F20.00
G01 Z-0.0600
G01 F20.00
G01 X2.9660 Y-11.2299
G01 X2.9787 Y-11.2127
G01 X2.9850 Y-11.2027
G01 X2.9907 Y-11.1925
G01 X2.9995 Y-11.1740
G01 X3.0036 Y-11.1633
G01 X3.0072 Y-11.1526
G01 X3.0102 Y-11.1418
G01 X3.0128 Y-11.1300
G01 X3.0158 Y-11.1097
G01 X3.0169 Y-11.0895
G01 X3.0169 Y-6.8826
G01 X3.7157 Y-6.1815
G01 X3.7249 Y-6.1717
G01 X3.7371 Y-6.1566
G01 X3.7449 Y-6.1453
G01 X3.7549 Y-6.1285
G01 X3.7609 Y-6.1164
G01 X3.7675 Y-6.1004
G01 X3.7719 Y-6.0872
G01 X3.7753 Y-6.0747
G01 X3.7788 Y-6.0568
G01 X3.7805 Y-6.0428
G01 X3.7815 Y-6.0223
G01 X3.7815 Y-5.7195
G01 X4.3504 Y-5.1505
G01 X4.3586 Y-5.1419
G01 X4.3711 Y-5.1268
G01 X4.3831 Y-5.1091
G01 X4.3910 Y-5.0952
G01 X4.3990 Y-5.0780
G01 X4.4060 Y-5.0589
G01 X4.4103 Y-5.0435
G01 X4.4141 Y-5.0237
G01 X4.4161 Y-5.0033
G01 X4.4165 Y-4.9911
G01 X4.4165 Y-4.8057
G01 X4.4156 Y-4.7860
G01 X4.4136 Y-4.7702
G01 X4.4103 Y-4.7532
G01 X4.4069 Y-4.7407
G01 X4.4024 Y-4.7275
G01 X4.3950 Y-4.7097
G01 X4.3887 Y-4.6973
G01 X4.3788 Y-4.6810
G01 X4.3706 Y-4.6694
G01 X4.3586 Y-4.6549
G01 X4.3487 Y-4.6446
G01 X4.3338 Y-4.6312
G01 X4.3183 Y-4.6196
G01 X4.3067 Y-4.6121
G01 X4.2951 Y-4.6057
G01 X4.2779 Y-4.5976
G01 X4.2647 Y-4.5926
G01 X4.2481 Y-4.5876
G01 X4.2339 Y-4.5843
G01 X4.2236 Y-4.5826
G01 X4.2032 Y-4.5806
G01 X4.1910 Y-4.5802
G01 X4.0812 Y-4.5802
G01 X3.6164 Y-4.1154
G01 X3.6164 Y1.2148
G01 X5.4808 Y3.0816
G01 X27.5875 Y3.0816
G01 X27.8822 Y2.7870
G01 X27.8824 Y2.6609
G01 X27.8835 Y2.6450
G01 X27.8863 Y2.6266
G01 X27.8889 Y2.6148
G01 X27.8926 Y2.6018
G01 X27.8984 Y2.5855
G01 X27.9036 Y2.5736
G01 X27.9100 Y2.5611
G01 X27.9189 Y2.5463
G01 X27.9276 Y2.5339
G01 X27.9349 Y2.5247
G01 X27.9465 Y2.5118
G01 X27.9545 Y2.5041
G01 X27.9648 Y2.4951
G01 X27.9753 Y2.4870
G01 X27.9844 Y2.4808
G01 X27.9992 Y2.4719
G01 X28.0117 Y2.4655
G01 X28.0236 Y2.4603
G01 X28.0399 Y2.4545
G01 X28.0505 Y2.4514
G01 X28.0647 Y2.4482
G01 X28.0751 Y2.4464
G01 X28.0850 Y2.4452
G01 X28.0990 Y2.4443
G01 X28.1362 Y2.4441
G01 X28.1364 Y0.7788
G01 X28.1373 Y0.7648
G01 X28.1385 Y0.7548
G01 X28.1403 Y0.7445
G01 X28.1429 Y0.7327
G01 X28.1457 Y0.7224
G01 X28.1497 Y0.7105
G01 X28.1576 Y0.6915
G01 X28.1628 Y0.6811
G01 X28.1681 Y0.6717
G01 X28.1738 Y0.6627
G01 X28.1816 Y0.6517
G01 X28.1941 Y0.6366
G01 X28.2022 Y0.6280
G01 X28.2108 Y0.6198
G01 X28.2260 Y0.6073
G01 X28.2437 Y0.5953
G01 X28.2575 Y0.5874
G01 X28.2747 Y0.5794
G01 X28.2847 Y0.5755
G01 X28.2967 Y0.5715
G01 X28.3153 Y0.5668
G01 X28.3310 Y0.5641
G01 X28.3419 Y0.5628
G01 X28.3530 Y0.5621
G01 X30.4171 Y0.5619
G01 X30.4171 Y-0.7626
G01 X28.5820 Y-0.7626
G01 X28.5820 Y-0.6071
G01 X28.5817 Y-0.5948
G01 X28.5809 Y-0.5844
G01 X28.5779 Y-0.5641
G01 X28.5753 Y-0.5523
G01 X28.5725 Y-0.5421
G01 X28.5685 Y-0.5301
G01 X28.5646 Y-0.5202
G01 X28.5606 Y-0.5111
G01 X28.5554 Y-0.5008
G01 X28.5501 Y-0.4914
G01 X28.5427 Y-0.4798
G01 X28.5324 Y-0.4659
G01 X28.5241 Y-0.4562
G01 X28.5160 Y-0.4476
G01 X28.5062 Y-0.4384
G01 X28.4922 Y-0.4270
G01 X28.4813 Y-0.4192
G01 X28.4722 Y-0.4135
G01 X28.4607 Y-0.4071
G01 X28.4451 Y-0.3997
G01 X28.4335 Y-0.3951
G01 X28.4197 Y-0.3906
G01 X28.4029 Y-0.3864
G01 X28.3891 Y-0.3840
G01 X28.3763 Y-0.3825
G01 X28.3566 Y-0.3816
G01 X27.9070 Y-0.3816
G01 X27.8947 Y-0.3819
G01 X27.8843 Y-0.3827
G01 X27.8744 Y-0.3840
G01 X27.8606 Y-0.3864
G01 X27.8439 Y-0.3906
G01 X27.8333 Y-0.3940
G01 X27.8201 Y-0.3990
G01 X27.8084 Y-0.4043
G01 X27.7932 Y-0.4125
G01 X27.7823 Y-0.4192
G01 X27.7713 Y-0.4270
G01 X27.7621 Y-0.4343
G01 X27.7493 Y-0.4459
G01 X27.7394 Y-0.4562
G01 X27.7312 Y-0.4659
G01 X27.7209 Y-0.4798
G01 X27.7134 Y-0.4914
G01 X27.7070 Y-0.5029
G01 X27.6996 Y-0.5186
G01 X27.6955 Y-0.5288
G01 X27.6906 Y-0.5439
G01 X27.6883 Y-0.5523
G01 X27.6854 Y-0.5654
G01 X27.6827 Y-0.5844
G01 X27.6819 Y-0.5948
G01 X27.6815 Y-0.6071
G01 X27.6815 Y-2.3316
G01 X27.6824 Y-2.3489
G01 X27.6843 Y-2.3646
G01 X27.6883 Y-2.3839
G01 X27.6939 Y-2.4029
G01 X27.6996 Y-2.4177
G01 X27.7082 Y-2.4355
G01 X27.7182 Y-2.4524
G01 X27.7269 Y-2.4649
G01 X27.7325 Y-2.4720
G01 X27.7416 Y-2.4824
G01 X27.7476 Y-2.4886
G01 X27.7574 Y-2.4978
G01 X27.7658 Y-2.5050
G01 X27.7797 Y-2.5153
G01 X27.7913 Y-2.5227
G01 X27.7986 Y-2.5269
G01 X27.8110 Y-2.5332
G01 X27.8201 Y-2.5372
G01 X27.8301 Y-2.5411
G01 X27.8420 Y-2.5451
G01 X27.8522 Y-2.5479
G01 X27.8641 Y-2.5505
G01 X27.8744 Y-2.5523
G01 X27.8873 Y-2.5538
G01 X27.9070 Y-2.5546
G01 X28.2485 Y-2.5546
G01 X28.2631 Y-2.5624
G01 X28.2747 Y-2.5677
G01 X28.2880 Y-2.5727
G01 X28.3045 Y-2.5778
G01 X28.3187 Y-2.5810
G01 X28.3291 Y-2.5828
G01 X28.3419 Y-2.5842
G01 X28.3592 Y-2.5851
G01 X29.2741 Y-2.5851
G01 X29.2741 Y-2.6423
G01 X28.7376 Y-2.6423
G01 X28.7277 Y-2.6428
G01 X28.7135 Y-2.6452
G01 X28.6998 Y-2.6498
G01 X28.6869 Y-2.6563
G01 X28.6789 Y-2.6616
G01 X28.6680 Y-2.6711
G01 X28.6585 Y-2.6820
G01 X28.6532 Y-2.6900
G01 X28.6467 Y-2.7029
G01 X28.6434 Y-2.7120
G01 X28.6411 Y-2.7213
G01 X28.6397 Y-2.7308
G01 X28.6392 Y-2.7407
G01 X28.6392 Y-3.7567
G01 X28.6397 Y-3.7665
G01 X28.6421 Y-3.7807
G01 X28.6467 Y-3.7944
G01 X28.6508 Y-3.8031
G01 X28.6585 Y-3.8153
G01 X28.6647 Y-3.8228
G01 X28.6751 Y-3.8327
G01 X28.6829 Y-3.8384
G01 X28.6954 Y-3.8456
G01 X28.7043 Y-3.8493
G01 X28.7182 Y-3.8531
G01 X28.7277 Y-3.8546
G01 X28.7376 Y-3.8551
G01 X29.2741 Y-3.8551
G01 X29.2741 Y-3.9122
G01 X28.3616 Y-3.9122
G01 X28.3419 Y-3.9131
G01 X28.3291 Y-3.9146
G01 X28.3187 Y-3.9163
G01 X28.3069 Y-3.9189
G01 X28.2967 Y-3.9218
G01 X28.2847 Y-3.9257
G01 X28.2747 Y-3.9296
G01 X28.2657 Y-3.9336
G01 X28.2553 Y-3.9388
G01 X28.2460 Y-3.9441
G01 X28.2369 Y-3.9498
G01 X28.2260 Y-3.9576
G01 X28.2188 Y-3.9632
G01 X28.2108 Y-3.9701
G01 X28.2022 Y-3.9782
G01 X28.1941 Y-3.9868
G01 X28.1872 Y-3.9949
G01 X28.1791 Y-4.0053
G01 X28.1695 Y-4.0197
G01 X28.1628 Y-4.0314
G01 X28.1576 Y-4.0417
G01 X28.1524 Y-4.0536
G01 X28.1466 Y-4.0699
G01 X28.1429 Y-4.0829
G01 X28.1403 Y-4.0947
G01 X28.1375 Y-4.1132
G01 X28.1364 Y-4.1290
G01 X28.1362 Y-4.2569
G01 X28.1373 Y-4.2771
G01 X28.1403 Y-4.2974
G01 X28.1429 Y-4.3092
G01 X28.1457 Y-4.3195
G01 X28.1524 Y-4.3385
G01 X28.1589 Y-4.3531
G01 X28.1628 Y-4.3608
G01 X28.1695 Y-4.3725
G01 X28.1816 Y-4.3902
G01 X28.1941 Y-4.4053
G01 X28.2085 Y-4.4199
G01 X28.2205 Y-4.4303
G01 X28.2369 Y-4.4423
G01 X28.2532 Y-4.4522
G01 X28.2674 Y-4.4593
G01 X28.2847 Y-4.4664
G01 X28.3045 Y-4.4726
G01 X28.3200 Y-4.4761
G01 X28.3390 Y-4.4788
G01 X28.3592 Y-4.4799
G01 X28.6239 Y-4.4800
G01 X28.6239 Y-4.5371
G01 X28.3413 Y-4.5371
G01 X28.3267 Y-4.5382
G01 X28.3173 Y-4.5401
G01 X28.3036 Y-4.5446
G01 X28.2949 Y-4.5488
G01 X28.2827 Y-4.5565
G01 X28.2752 Y-4.5626
G01 X28.2684 Y-4.5694
G01 X28.2623 Y-4.5769
G01 X28.2546 Y-4.5890
G01 X28.2504 Y-4.5978
G01 X28.2459 Y-4.6115
G01 X28.2434 Y-4.6257
G01 X28.2429 Y-4.6355
G01 X28.2429 Y-5.1720
G01 X28.1858 Y-5.1720
G01 X28.1858 Y-4.8692
G01 X28.1854 Y-4.8569
G01 X28.1834 Y-4.8366
G01 X28.1817 Y-4.8263
G01 X28.1790 Y-4.8144
G01 X28.1762 Y-4.8042
G01 X28.1723 Y-4.7923
G01 X28.1684 Y-4.7823
G01 X28.1631 Y-4.7706
G01 X28.1549 Y-4.7554
G01 X28.1482 Y-4.7445
G01 X28.1404 Y-4.7335
G01 X28.1331 Y-4.7243
G01 X28.1214 Y-4.7115
G01 X28.1111 Y-4.7016
G01 X28.1015 Y-4.6934
G01 X28.0876 Y-4.6831
G01 X28.0760 Y-4.6756
G01 X28.0645 Y-4.6692
G01 X28.0488 Y-4.6618
G01 X28.0372 Y-4.6572
G01 X28.0253 Y-4.6533
G01 X28.0128 Y-4.6499
G01 X27.9958 Y-4.6465
G01 X27.9830 Y-4.6449
G01 X27.9726 Y-4.6441
G01 X27.9603 Y-4.6437
G01 X27.0170 Y-4.6437
G01 X27.0063 Y-4.6307
G01 X26.9988 Y-4.6226
G01 X26.9885 Y-4.6127
G01 X26.9804 Y-4.6058
G01 X26.9700 Y-4.5978
G01 X26.9609 Y-4.5915
G01 X26.9460 Y-4.5826
G01 X26.9362 Y-4.5775
G01 X26.9245 Y-4.5722
G01 X26.9146 Y-4.5683
G01 X26.9026 Y-4.5644
G01 X26.8901 Y-4.5610
G01 X26.8731 Y-4.5576
G01 X26.8621 Y-4.5562
G01 X26.8499 Y-4.5552
G01 X26.8376 Y-4.5548
G01 X23.9512 Y-4.5550
G01 X23.9372 Y-4.5560
G01 X23.9273 Y-4.5572
G01 X23.9169 Y-4.5589
G01 X23.9027 Y-4.5622
G01 X23.8921 Y-4.5653
G01 X23.8758 Y-4.5711
G01 X23.8639 Y-4.5762
G01 X23.8535 Y-4.5815
G01 X23.8442 Y-4.5867
G01 X23.8351 Y-4.5924
G01 X23.8241 Y-4.6002
G01 X23.8149 Y-4.6075
G01 X23.8066 Y-4.6149
G01 X23.7987 Y-4.6226
G01 X23.7912 Y-4.6307
G01 X23.7804 Y-4.6437
G01 X23.4233 Y-4.6437
G01 X23.4233 Y-4.5866
G01 X23.5838 Y-4.5865
G01 X23.5982 Y-4.5847
G01 X23.6121 Y-4.5808
G01 X23.6253 Y-4.5749
G01 X23.6375 Y-4.5672
G01 X23.6484 Y-4.5578
G01 X23.6549 Y-4.5506
G01 X23.6632 Y-4.5388
G01 X23.6697 Y-4.5259
G01 X23.6742 Y-4.5122
G01 X23.6767 Y-4.4980
G01 X23.6772 Y-4.4882
G01 X23.6771 Y-2.7052
G01 X23.6753 Y-2.6908
G01 X23.6714 Y-2.6769
G01 X23.6677 Y-2.6680
G01 X23.6606 Y-2.6555
G01 X23.6549 Y-2.6477
G01 X23.6449 Y-2.6373
G01 X23.6335 Y-2.6284
G01 X23.6239 Y-2.6228
G01 X23.6239 Y-2.5546
G01 X23.9253 Y-2.5545
G01 X23.9411 Y-2.5533
G01 X23.9596 Y-2.5505
G01 X23.9738 Y-2.5473
G01 X23.9936 Y-2.5411
G01 X24.0108 Y-2.5340
G01 X24.0229 Y-2.5280
G01 X24.0346 Y-2.5213
G01 X24.0490 Y-2.5117
G01 X24.0594 Y-2.5036
G01 X24.0698 Y-2.4946
G01 X24.0821 Y-2.4824
G01 X24.0911 Y-2.4720
G01 X24.1027 Y-2.4564
G01 X24.1102 Y-2.4448
G01 X24.1166 Y-2.4333
G01 X24.1240 Y-2.4177
G01 X24.1286 Y-2.4061
G01 X24.1331 Y-2.3923
G01 X24.1373 Y-2.3755
G01 X24.1397 Y-2.3617
G01 X24.1417 Y-2.3427
G01 X24.1421 Y-2.3292
G01 X24.1421 Y0.1295
G01 X24.1412 Y0.1492
G01 X24.1393 Y0.1650
G01 X24.1359 Y0.1820
G01 X24.1325 Y0.1945
G01 X24.1281 Y0.2078
G01 X24.1215 Y0.2237
G01 X24.1155 Y0.2358
G01 X24.1088 Y0.2475
G01 X24.0991 Y0.2619
G01 X24.0911 Y0.2723
G01 X24.0821 Y0.2827
G01 X24.0698 Y0.2950
G01 X24.0594 Y0.3040
G01 X24.0490 Y0.3120
G01 X24.0346 Y0.3217
G01 X24.0229 Y0.3284
G01 X24.0108 Y0.3344
G01 X23.9936 Y0.3415
G01 X23.9738 Y0.3476
G01 X23.9596 Y0.3509
G01 X23.9411 Y0.3537
G01 X23.9253 Y0.3548
G01 X23.6239 Y0.3550
G01 X23.6239 Y0.4231
G01 X23.6335 Y0.4288
G01 X23.6449 Y0.4376
G01 X23.6549 Y0.4481
G01 X23.6632 Y0.4599
G01 X23.6697 Y0.4728
G01 X23.6742 Y0.4865
G01 X23.6767 Y0.5007
G01 X23.6772 Y0.5105
G01 X23.6772 Y2.2885
G01 X23.6761 Y2.3031
G01 X23.6742 Y2.3126
G01 X23.6714 Y2.3218
G01 X23.6656 Y2.3350
G01 X23.6606 Y2.3432
G01 X23.6549 Y2.3510
G01 X23.6484 Y2.3581
G01 X23.6413 Y2.3646
G01 X23.6335 Y2.3703
G01 X23.6210 Y2.3775
G01 X23.6075 Y2.3827
G01 X23.5982 Y2.3850
G01 X23.5886 Y2.3864
G01 X23.5788 Y2.3869
G01 X22.8168 Y2.3869
G01 X22.8022 Y2.3859
G01 X22.7881 Y2.3827
G01 X22.7747 Y2.3775
G01 X22.7662 Y2.3729
G01 X22.7582 Y2.3676
G01 X22.7472 Y2.3581
G01 X22.7408 Y2.3510
G01 X22.7350 Y2.3432
G01 X22.7301 Y2.3350
G01 X22.7259 Y2.3263
G01 X22.7227 Y2.3172
G01 X22.7195 Y2.3031
G01 X22.7185 Y2.2936
G01 X22.7184 Y1.6250
G01 X22.6613 Y1.6250
G01 X22.6613 Y2.2935
G01 X22.6601 Y2.3137
G01 X22.6589 Y2.3236
G01 X22.6565 Y2.3374
G01 X22.6545 Y2.3458
G01 X22.6508 Y2.3588
G01 X22.6478 Y2.3680
G01 X22.6432 Y2.3796
G01 X22.6346 Y2.3974
G01 X22.6294 Y2.4067
G01 X22.6219 Y2.4183
G01 X22.6159 Y2.4268
G01 X22.6086 Y2.4360
G01 X22.5969 Y2.4488
G01 X22.5890 Y2.4565
G01 X22.5786 Y2.4655
G01 X22.5715 Y2.4711
G01 X22.5605 Y2.4789
G01 X22.5515 Y2.4846
G01 X22.5421 Y2.4899
G01 X22.5318 Y2.4951
G01 X22.5227 Y2.4991
G01 X22.5095 Y2.5041
G01 X22.4989 Y2.5075
G01 X22.4822 Y2.5117
G01 X22.4684 Y2.5142
G01 X22.4555 Y2.5157
G01 X22.4358 Y2.5165
G01 X22.3596 Y2.5165
G01 X22.3474 Y2.5162
G01 X22.3370 Y2.5154
G01 X22.3180 Y2.5127
G01 X22.3049 Y2.5098
G01 X22.2965 Y2.5075
G01 X22.2814 Y2.5025
G01 X22.2654 Y2.4959
G01 X22.2533 Y2.4899
G01 X22.2364 Y2.4799
G01 X22.2239 Y2.4711
G01 X22.2100 Y2.4597
G01 X22.2002 Y2.4505
G01 X22.1910 Y2.4407
G01 X22.1796 Y2.4268
G01 X22.1708 Y2.4143
G01 X22.1608 Y2.3974
G01 X22.1548 Y2.3853
G01 X22.1477 Y2.3680
G01 X22.1432 Y2.3542
G01 X22.1390 Y2.3374
G01 X22.1365 Y2.3236
G01 X22.1346 Y2.3046
G01 X22.1342 Y2.2911
G01 X22.1342 Y0.3550
G01 X21.9075 Y0.3550
G01 X21.8953 Y0.3547
G01 X21.8749 Y0.3526
G01 X21.8551 Y0.3488
G01 X21.8397 Y0.3446
G01 X21.8306 Y0.3415
G01 X21.8190 Y0.3369
G01 X21.8034 Y0.3295
G01 X21.7918 Y0.3231
G01 X21.7802 Y0.3156
G01 X21.7664 Y0.3053
G01 X21.7567 Y0.2971
G01 X21.7464 Y0.2872
G01 X21.7348 Y0.2744
G01 X21.7274 Y0.2652
G01 X21.7197 Y0.2543
G01 X21.7129 Y0.2434
G01 X21.7047 Y0.2281
G01 X21.6995 Y0.2164
G01 X21.6944 Y0.2032
G01 X21.6894 Y0.1867
G01 X21.6862 Y0.1725
G01 X21.6842 Y0.1602
G01 X21.6825 Y0.1430
G01 X21.6820 Y0.1295
G01 X21.6820 Y-2.3292
G01 X21.6825 Y-2.3427
G01 X21.6844 Y-2.3617
G01 X21.6869 Y-2.3755
G01 X21.6911 Y-2.3923
G01 X21.6956 Y-2.4061
G01 X21.7002 Y-2.4177
G01 X21.7075 Y-2.4333
G01 X21.7154 Y-2.4471
G01 X21.7250 Y-2.4615
G01 X21.7330 Y-2.4720
G01 X21.7464 Y-2.4869
G01 X21.7567 Y-2.4968
G01 X21.7713 Y-2.5088
G01 X21.7828 Y-2.5170
G01 X21.7937 Y-2.5238
G01 X21.8089 Y-2.5319
G01 X21.8206 Y-2.5372
G01 X21.8306 Y-2.5411
G01 X21.8425 Y-2.5451
G01 X21.8528 Y-2.5479
G01 X21.8646 Y-2.5505
G01 X21.8749 Y-2.5523
G01 X21.8940 Y-2.5542
G01 X21.9075 Y-2.5546
G01 X22.1342 Y-2.5546
G01 X22.1342 Y-4.6437
G01 X22.1032 Y-4.6437
G01 X22.0859 Y-4.6446
G01 X22.0702 Y-4.6465
G01 X22.0532 Y-4.6499
G01 X22.0379 Y-4.6542
G01 X22.0187 Y-4.6611
G01 X22.0015 Y-4.6692
G01 X21.9877 Y-4.6771
G01 X21.9699 Y-4.6891
G01 X21.9560 Y-4.7005
G01 X21.9445 Y-4.7115
G01 X21.9312 Y-4.7264
G01 X21.9256 Y-4.7335
G01 X21.9178 Y-4.7445
G01 X21.9079 Y-4.7608
G01 X21.9008 Y-4.7750
G01 X21.8964 Y-4.7851
G01 X21.8926 Y-4.7955
G01 X21.8869 Y-4.8144
G01 X21.8830 Y-4.8337
G01 X21.8810 Y-4.8495
G01 X21.8802 Y-4.8668
G01 X21.8802 Y-5.3899
G01 X21.8805 Y-5.4022
G01 X21.8823 Y-5.4207
G01 X21.8850 Y-5.4364
G01 X21.8903 Y-5.4568
G01 X21.8965 Y-5.4742
G01 X21.9028 Y-5.4884
G01 X21.9122 Y-5.5058
G01 X21.9234 Y-5.5227
G01 X21.9323 Y-5.5341
G01 X21.9465 Y-5.5496
G01 X22.3170 Y-5.9180
G01 X22.3170 Y-6.6783
G01 X21.7785 Y-7.2167
G01 X21.0182 Y-7.2167
G01 X20.4820 Y-6.6785
G01 X20.4820 Y-5.9176
G01 X21.0179 Y-5.3817
G01 X21.0983 Y-5.3815
G01 X21.1123 Y-5.3805
G01 X21.1312 Y-5.3778
G01 X21.1444 Y-5.3749
G01 X21.1546 Y-5.3721
G01 X21.1737 Y-5.3654
G01 X21.1882 Y-5.3590
G01 X21.1959 Y-5.3550
G01 X21.2076 Y-5.3483
G01 X21.2169 Y-5.3423
G01 X21.2259 Y-5.3358
G01 X21.2345 Y-5.3289
G01 X21.2473 Y-5.3173
G01 X21.2572 Y-5.3070
G01 X21.2641 Y-5.2990
G01 X21.2757 Y-5.2835
G01 X21.2832 Y-5.2719
G01 X21.2884 Y-5.2625
G01 X21.2937 Y-5.2521
G01 X21.2977 Y-5.2431
G01 X21.3016 Y-5.2331
G01 X21.3055 Y-5.2212
G01 X21.3083 Y-5.2109
G01 X21.3110 Y-5.1991
G01 X21.3139 Y-5.1788
G01 X21.3147 Y-5.1684
G01 X21.3151 Y-5.1562
G01 X21.3151 Y-4.8692
G01 X21.3147 Y-4.8557
G01 X21.3130 Y-4.8385
G01 X21.3110 Y-4.8263
G01 X21.3077 Y-4.8121
G01 X21.3027 Y-4.7955
G01 X21.2977 Y-4.7823
G01 X21.2924 Y-4.7706
G01 X21.2842 Y-4.7554
G01 X21.2775 Y-4.7445
G01 X21.2697 Y-4.7335
G01 X21.2583 Y-4.7196
G01 X21.2490 Y-4.7098
G01 X21.2392 Y-4.7005
G01 X21.2253 Y-4.6891
G01 X21.2143 Y-4.6813
G01 X21.1980 Y-4.6715
G01 X21.1856 Y-4.6651
G01 X21.1678 Y-4.6577
G01 X21.1546 Y-4.6533
G01 X21.1360 Y-4.6485
G01 X21.1203 Y-4.6458
G01 X21.1093 Y-4.6446
G01 X21.0920 Y-4.6437
G01 X21.0150 Y-4.6437
G01 X21.0032 Y-4.6295
G01 X20.9950 Y-4.6209
G01 X20.9864 Y-4.6127
G01 X20.9713 Y-4.6002
G01 X20.9536 Y-4.5882
G01 X20.9419 Y-4.5815
G01 X20.9342 Y-4.5775
G01 X20.9197 Y-4.5711
G01 X20.9006 Y-4.5644
G01 X20.8904 Y-4.5616
G01 X20.8785 Y-4.5589
G01 X20.8583 Y-4.5560
G01 X20.8479 Y-4.5552
G01 X20.8356 Y-4.5548
G01 X17.9603 Y-4.5548
G01 X17.9481 Y-4.5552
G01 X17.9358 Y-4.5562
G01 X17.9249 Y-4.5576
G01 X17.9140 Y-4.5596
G01 X17.9056 Y-4.5616
G01 X17.8926 Y-4.5653
G01 X17.8734 Y-4.5722
G01 X17.8644 Y-4.5762
G01 X17.8519 Y-4.5826
G01 X17.8447 Y-4.5867
G01 X17.8331 Y-4.5942
G01 X17.8247 Y-4.6002
G01 X17.8155 Y-4.6075
G01 X17.8072 Y-4.6149
G01 X17.7992 Y-4.6226
G01 X17.7917 Y-4.6307
G01 X17.7810 Y-4.6437
G01 X17.6455 Y-4.6437
G01 X17.6283 Y-4.6446
G01 X17.6173 Y-4.6458
G01 X17.6051 Y-4.6478
G01 X17.5933 Y-4.6504
G01 X17.5831 Y-4.6532
G01 X17.5712 Y-4.6572
G01 X17.5597 Y-4.6617
G01 X17.5497 Y-4.6663
G01 X17.5399 Y-4.6713
G01 X17.5251 Y-4.6801
G01 X17.5138 Y-4.6880
G01 X17.5054 Y-4.6945
G01 X17.4973 Y-4.7014
G01 X17.4890 Y-4.7093
G01 X17.1155 Y-5.0806
G01 X15.4127 Y-5.0806
G01 X15.4005 Y-5.0809
G01 X15.3901 Y-5.0817
G01 X15.3773 Y-5.0834
G01 X15.3603 Y-5.0868
G01 X15.3477 Y-5.0902
G01 X15.3345 Y-5.0946
G01 X15.3185 Y-5.1012
G01 X15.3064 Y-5.1072
G01 X15.2948 Y-5.1139
G01 X15.2804 Y-5.1236
G01 X15.2678 Y-5.1333
G01 X15.2550 Y-5.1449
G01 X15.1466 Y-5.2533
G01 X15.1385 Y-5.2619
G01 X15.1260 Y-5.2771
G01 X15.1139 Y-5.2948
G01 X15.1072 Y-5.3064
G01 X15.1033 Y-5.3142
G01 X15.0968 Y-5.3287
G01 X15.0901 Y-5.3478
G01 X15.0873 Y-5.3580
G01 X15.0847 Y-5.3698
G01 X15.0817 Y-5.3901
G01 X15.0806 Y-5.4103
G01 X15.0806 Y-8.5682
G01 X14.0187 Y-9.6323
G01 X13.9294 Y-9.6323
G01 X13.9171 Y-9.6326
G01 X13.8968 Y-9.6346
G01 X13.8864 Y-9.6364
G01 X13.8746 Y-9.6390
G01 X13.8644 Y-9.6418
G01 X13.8511 Y-9.6463
G01 X13.8352 Y-9.6529
G01 X13.8231 Y-9.6589
G01 X13.8114 Y-9.6656
G01 X13.7970 Y-9.6752
G01 X13.7866 Y-9.6833
G01 X13.7762 Y-9.6923
G01 X13.7682 Y-9.7000
G01 X13.7566 Y-9.7129
G01 X13.7493 Y-9.7221
G01 X13.7433 Y-9.7305
G01 X13.7358 Y-9.7421
G01 X13.7305 Y-9.7514
G01 X13.7220 Y-9.7692
G01 X13.7174 Y-9.7808
G01 X13.7143 Y-9.7900
G01 X13.7106 Y-9.8030
G01 X13.7087 Y-9.8114
G01 X13.7063 Y-9.8252
G01 X13.7050 Y-9.8351
G01 X13.7039 Y-9.8553
G01 X13.7039 Y-12.3419
G01 X13.7042 Y-12.3541
G01 X13.7052 Y-12.3664
G01 X13.7067 Y-12.3773
G01 X13.7101 Y-12.3943
G01 X13.7135 Y-12.4068
G01 X13.7174 Y-12.4188
G01 X13.7213 Y-12.4288
G01 X13.7266 Y-12.4404
G01 X13.7317 Y-12.4503
G01 X13.7406 Y-12.4651
G01 X13.7469 Y-12.4742
G01 X13.7549 Y-12.4847
G01 X13.7639 Y-12.4950
G01 X13.7762 Y-12.5073
G01 X13.7866 Y-12.5163
G01 X13.7970 Y-12.5244
G01 X13.8061 Y-12.5306
G01 X13.8210 Y-12.5395
G01 X13.8334 Y-12.5459
G01 X13.8425 Y-12.5499
G01 X13.8524 Y-12.5538
G01 X13.8662 Y-12.5583
G01 X13.8830 Y-12.5625
G01 X13.8968 Y-12.5650
G01 X13.9159 Y-12.5669
G01 X13.9294 Y-12.5673
G01 X14.6165 Y-12.5673
G01 X14.7666 Y-12.7156
G01 X14.7737 Y-12.7224
G01 X14.7840 Y-12.7311
G01 X14.7911 Y-12.7366
G01 X14.8026 Y-12.7445
G01 X14.8120 Y-12.7503
G01 X14.8272 Y-12.7583
G01 X14.8385 Y-12.7634
G01 X14.8502 Y-12.7679
G01 X14.8598 Y-12.7710
G01 X14.8737 Y-12.7747
G01 X15.4159 Y-13.3189
G01 X15.4159 Y-14.0798
G01 X14.8549 Y-14.6408
G01 X14.8401 Y-14.6491
G01 X14.8224 Y-14.6612
G01 X14.8072 Y-14.6736
G01 X14.7926 Y-14.6880
G01 X14.7823 Y-14.7001
G01 X14.7720 Y-14.7140
G01 X14.7635 Y-14.7274
G01 X14.7553 Y-14.7427
G01 X14.7489 Y-14.7572
G01 X14.7430 Y-14.7735
G01 X14.7388 Y-14.7888
G01 X14.7354 Y-14.8058
G01 X14.7337 Y-14.8186
G01 X14.7329 Y-14.8290
G01 X14.7328 Y-14.8499
G01 X14.7337 Y-14.8639
G01 X14.7350 Y-14.8738
G01 X14.7388 Y-14.8937
G01 X14.7430 Y-14.9090
G01 X14.7461 Y-14.9181
G01 X14.7507 Y-14.9297
G01 X14.7592 Y-14.9475
G01 X14.7645 Y-14.9569
G01 X14.7720 Y-14.9685
G01 X14.7836 Y-14.9840
G01 X14.7905 Y-14.9920
G01 X14.7986 Y-15.0006
G01 X15.0171 Y-15.2191
G01 X15.0171 Y-15.9792
G01 X14.7634 Y-16.2308
G01 X14.7561 Y-16.2384
G01 X14.7483 Y-16.2474
G01 X14.7369 Y-16.2627
G01 X14.7292 Y-16.2746
G01 X14.7201 Y-16.2914
G01 X14.7146 Y-16.3033
G01 X14.7077 Y-16.3222
G01 X14.7039 Y-16.3355
G01 X14.7000 Y-16.3545
G01 X14.6982 Y-16.3678
G01 X14.6974 Y-16.3780
G01 X14.6970 Y-16.3903
G01 X14.6979 Y-16.4108
G01 X14.6994 Y-16.4229
G01 X14.7008 Y-16.4317
G01 X14.7037 Y-16.4451
G01 X14.7059 Y-16.4533
G01 X14.7109 Y-16.4684
G01 X14.7144 Y-16.4773
G01 X14.7196 Y-16.4888
G01 X14.7236 Y-16.4967
G01 X14.7302 Y-16.5083
G01 X14.7416 Y-16.5252
G01 X14.7548 Y-16.5413
G01 X14.7691 Y-16.5558
G01 X14.7812 Y-16.5663
G01 X14.7880 Y-16.5716
G01 X14.7991 Y-16.5793
G01 X14.8169 Y-16.5898
G01 X14.8362 Y-16.5989
G01 X14.8556 Y-16.6059
G01 X14.8761 Y-16.6112
G01 X14.8896 Y-16.6137
G01 X14.9000 Y-16.6150
G01 X14.9102 Y-16.6157
G01 X14.9225 Y-16.6161
G01 X31.1480 Y-16.6161
G01 X31.1677 Y-16.6152
G01 X31.1835 Y-16.6133
G01 X31.2028 Y-16.6093
G01 X31.2217 Y-16.6037
G01 X31.2365 Y-16.5980
G01 X31.2543 Y-16.5894
G01 X31.2713 Y-16.5794
G01 X31.2837 Y-16.5707
G01 X31.2976 Y-16.5593
G01 X31.3074 Y-16.5500
G01 X33.5520 Y-14.3055
G01 X33.5653 Y-14.2906
G01 X33.5709 Y-14.2835
G01 X33.5787 Y-14.2725
G01 X33.5844 Y-14.2635
G01 X33.5897 Y-14.2541
G01 X33.5949 Y-14.2437
G01 X33.5989 Y-14.2347
G01 X33.6028 Y-14.2247
G01 X33.6067 Y-14.2128
G01 X33.6096 Y-14.2025
G01 X33.6122 Y-14.1907
G01 X33.6152 Y-14.1704
G01 X33.6160 Y-14.1600
G01 X33.6163 Y-14.1478
G01 X33.6163 Y-9.7307
G01 X33.6160 Y-9.7185
G01 X33.6142 Y-9.7001
G01 X33.6122 Y-9.6878
G01 X33.6089 Y-9.6736
G01 X33.6039 Y-9.6571
G01 X33.5989 Y-9.6438
G01 X33.5936 Y-9.6322
G01 X33.5854 Y-9.6169
G01 X33.5787 Y-9.6060
G01 X33.5705 Y-9.5945
G01 X33.5584 Y-9.5799
G01 X33.5485 Y-9.5696
G01 X33.5357 Y-9.5580
G01 X33.5265 Y-9.5507
G01 X33.5141 Y-9.5420
G01 X33.4992 Y-9.5331
G01 X33.4850 Y-9.5259
G01 X33.4678 Y-9.5188
G01 X33.4558 Y-9.5148
G01 X33.4456 Y-9.5120
G01 X33.4338 Y-9.5094
G01 X33.4234 Y-9.5076
G01 X33.4031 Y-9.5056
G01 X33.3908 Y-9.5053
G01 X33.1439 Y-9.5053
G01 X33.1439 Y-6.5405
G01 X33.1435 Y-6.5283
G01 X33.1425 Y-6.5160
G01 X33.1410 Y-6.5050
G01 X33.1377 Y-6.4881
G01 X33.1334 Y-6.4727
G01 X33.1264 Y-6.4536
G01 X33.1184 Y-6.4364
G01 X33.1119 Y-6.4248
G01 X33.1045 Y-6.4132
G01 X33.0929 Y-6.3977
G01 X33.0795 Y-6.3828
G01 X33.0680 Y-6.3718
G01 X33.0541 Y-6.3604
G01 X33.0416 Y-6.3517
G01 X33.0247 Y-6.3417
G01 X33.0069 Y-6.3332
G01 X32.9921 Y-6.3274
G01 X32.9731 Y-6.3218
G01 X32.9600 Y-6.3189
G01 X32.9410 Y-6.3162
G01 X32.9306 Y-6.3154
G01 X32.9184 Y-6.3150
G01 X31.3354 Y-6.3150
G01 X31.3354 Y-4.4800
G01 X34.4125 Y-4.4800
G01 X34.4125 Y-6.4693
G01 X34.4134 Y-6.4865
G01 X34.4153 Y-6.5023
G01 X34.4187 Y-6.5193
G01 X34.4230 Y-6.5346
G01 X34.4299 Y-6.5537
G01 X34.4380 Y-6.5710
G01 X34.4459 Y-6.5848
G01 X34.4555 Y-6.5992
G01 X34.4635 Y-6.6096
G01 X34.4704 Y-6.6177
G01 X34.4786 Y-6.6263
G01 X34.4884 Y-6.6355
G01 X34.4968 Y-6.6426
G01 X34.5107 Y-6.6529
G01 X34.5223 Y-6.6604
G01 X34.5317 Y-6.6657
G01 X34.5420 Y-6.6709
G01 X34.5511 Y-6.6749
G01 X34.5611 Y-6.6788
G01 X34.5749 Y-6.6833
G01 X34.5855 Y-6.6861
G01 X34.6025 Y-6.6895
G01 X34.6153 Y-6.6912
G01 X34.6257 Y-6.6920
G01 X34.6380 Y-6.6923
G01 X36.0096 Y-6.6923
G01 X36.0218 Y-6.6920
G01 X36.0341 Y-6.6910
G01 X36.0525 Y-6.6882
G01 X36.0727 Y-6.6833
G01 X36.0878 Y-6.6783
G01 X36.1055 Y-6.6709
G01 X36.1234 Y-6.6614
G01 X36.1368 Y-6.6529
G01 X36.1524 Y-6.6413
G01 X36.1604 Y-6.6344
G01 X36.1690 Y-6.6263
G01 X36.1772 Y-6.6177
G01 X36.1840 Y-6.6096
G01 X36.1957 Y-6.5941
G01 X36.2042 Y-6.5807
G01 X36.2136 Y-6.5628
G01 X36.2210 Y-6.5451
G01 X36.2260 Y-6.5300
G01 X36.2309 Y-6.5098
G01 X36.2339 Y-6.4895
G01 X36.2347 Y-6.4791
G01 X36.2350 Y-6.4668
G01 X36.2350 Y-4.4800
G01 X37.0611 Y-4.4800
G01 X37.0734 Y-4.4796
G01 X37.0918 Y-4.4778
G01 X37.1075 Y-4.4751
G01 X37.1261 Y-4.4704
G01 X37.1452 Y-4.4637
G01 X37.1597 Y-4.4573
G01 X37.1768 Y-4.4480
G01 X37.1884 Y-4.4406
G01 X37.2039 Y-4.4290
G01 X37.2120 Y-4.4221
G01 X37.2206 Y-4.4139
G01 X37.2287 Y-4.4053
G01 X37.2356 Y-4.3973
G01 X37.2412 Y-4.3902
G01 X37.2490 Y-4.3792
G01 X37.2547 Y-4.3702
G01 X37.2600 Y-4.3608
G01 X37.2652 Y-4.3504
G01 X37.2692 Y-4.3414
G01 X37.2731 Y-4.3314
G01 X37.2770 Y-4.3195
G01 X37.2799 Y-4.3092
G01 X37.2825 Y-4.2974
G01 X37.2855 Y-4.2771
G01 X37.2863 Y-4.2667
G01 X37.2866 Y-4.2545
G01 X37.2866 Y-3.6240
G01 X37.3437 Y-3.6240
G01 X37.3437 Y-4.1605
G01 X37.3442 Y-4.1703
G01 X37.3467 Y-4.1846
G01 X37.3495 Y-4.1938
G01 X37.3554 Y-4.2070
G01 X37.3604 Y-4.2152
G01 X37.3692 Y-4.2266
G01 X37.3760 Y-4.2334
G01 X37.3835 Y-4.2395
G01 X37.3957 Y-4.2473
G01 X37.4044 Y-4.2514
G01 X37.4181 Y-4.2559
G01 X37.4323 Y-4.2584
G01 X37.4421 Y-4.2589
G01 X38.4581 Y-4.2589
G01 X38.4727 Y-4.2578
G01 X38.4822 Y-4.2559
G01 X38.4914 Y-4.2531
G01 X38.5046 Y-4.2473
G01 X38.5168 Y-4.2395
G01 X38.5277 Y-4.2301
G01 X38.5372 Y-4.2192
G01 X38.5449 Y-4.2070
G01 X38.5508 Y-4.1938
G01 X38.5536 Y-4.1846
G01 X38.5560 Y-4.1703
G01 X38.5565 Y-4.1605
G01 X38.5565 Y-3.6240
G01 X38.6137 Y-3.6240
G01 X38.6139 Y-4.2631
G01 X38.6148 Y-4.2771
G01 X38.6160 Y-4.2871
G01 X38.6178 Y-4.2974
G01 X38.6210 Y-4.3116
G01 X38.6241 Y-4.3223
G01 X38.6299 Y-4.3385
G01 X38.6351 Y-4.3504
G01 X38.6403 Y-4.3608
G01 X38.6456 Y-4.3702
G01 X38.6513 Y-4.3792
G01 X38.6591 Y-4.3902
G01 X38.6647 Y-4.3973
G01 X38.6716 Y-4.4053
G01 X38.6797 Y-4.4139
G01 X38.6883 Y-4.4221
G01 X38.6963 Y-4.4290
G01 X38.7035 Y-4.4346
G01 X38.7144 Y-4.4423
G01 X38.7235 Y-4.4480
G01 X38.7328 Y-4.4533
G01 X38.7432 Y-4.4585
G01 X38.7522 Y-4.4625
G01 X38.7622 Y-4.4664
G01 X38.7760 Y-4.4709
G01 X38.7867 Y-4.4738
G01 X38.8037 Y-4.4771
G01 X38.8165 Y-4.4788
G01 X38.8305 Y-4.4798
G01 X39.0633 Y-4.4800
G01 X39.0633 Y-6.4693
G01 X39.0641 Y-6.4865
G01 X39.0661 Y-6.5023
G01 X39.0695 Y-6.5193
G01 X39.0737 Y-6.5346
G01 X39.0795 Y-6.5509
G01 X39.0860 Y-6.5654
G01 X39.0941 Y-6.5807
G01 X39.1026 Y-6.5941
G01 X39.1129 Y-6.6080
G01 X39.1201 Y-6.6164
G01 X39.1293 Y-6.6263
G01 X39.1379 Y-6.6344
G01 X39.1459 Y-6.6413
G01 X39.1564 Y-6.6493
G01 X39.1655 Y-6.6556
G01 X39.1803 Y-6.6645
G01 X39.1928 Y-6.6709
G01 X39.2018 Y-6.6749
G01 X39.2118 Y-6.6788
G01 X39.2256 Y-6.6833
G01 X39.2363 Y-6.6861
G01 X39.2533 Y-6.6895
G01 X39.2661 Y-6.6912
G01 X39.2765 Y-6.6920
G01 X39.2887 Y-6.6923
G01 X40.6603 Y-6.6923
G01 X40.6726 Y-6.6920
G01 X40.6830 Y-6.6912
G01 X40.7032 Y-6.6882
G01 X40.7174 Y-6.6849
G01 X40.7372 Y-6.6788
G01 X40.7545 Y-6.6717
G01 X40.7687 Y-6.6645
G01 X40.7850 Y-6.6547
G01 X40.8015 Y-6.6426
G01 X40.8135 Y-6.6323
G01 X40.8279 Y-6.6177
G01 X40.8404 Y-6.6025
G01 X40.8491 Y-6.5901
G01 X40.8591 Y-6.5731
G01 X40.8677 Y-6.5553
G01 X40.8734 Y-6.5405
G01 X40.8790 Y-6.5216
G01 X40.8830 Y-6.5023
G01 X40.8849 Y-6.4865
G01 X40.8858 Y-6.4668
G01 X40.8858 Y-4.5415
G01 X40.8854 Y-4.5293
G01 X40.8837 Y-4.5108
G01 X40.8817 Y-4.4986
G01 X40.8784 Y-4.4844
G01 X40.8734 Y-4.4678
G01 X40.8684 Y-4.4546
G01 X40.8631 Y-4.4430
G01 X40.8549 Y-4.4277
G01 X40.8482 Y-4.4168
G01 X40.8404 Y-4.4058
G01 X40.8290 Y-4.3919
G01 X40.8197 Y-4.3821
G01 X40.8099 Y-4.3729
G01 X40.7960 Y-4.3615
G01 X40.7850 Y-4.3537
G01 X40.7687 Y-4.3438
G01 X40.7563 Y-4.3375
G01 X40.7372 Y-4.3296
G01 X40.7253 Y-4.3256
G01 X40.7151 Y-4.3228
G01 X40.7032 Y-4.3202
G01 X40.6929 Y-4.3184
G01 X40.6726 Y-4.3164
G01 X40.6603 Y-4.3161
G01 X40.4362 Y-4.3161
G01 X40.4362 Y-2.4810
G01 X41.7633 Y-2.4810
G01 X41.7633 Y-4.2545
G01 X41.7637 Y-4.2680
G01 X41.7656 Y-4.2871
G01 X41.7681 Y-4.3008
G01 X41.7723 Y-4.3176
G01 X41.7768 Y-4.3314
G01 X41.7807 Y-4.3414
G01 X41.7860 Y-4.3531
G01 X41.7941 Y-4.3683
G01 X41.8009 Y-4.3792
G01 X41.8091 Y-4.3907
G01 X41.8201 Y-4.4041
G01 X41.8293 Y-4.4139
G01 X41.8391 Y-4.4232
G01 X41.8531 Y-4.4346
G01 X41.8640 Y-4.4423
G01 X41.8749 Y-4.4491
G01 X41.8902 Y-4.4573
G01 X41.9018 Y-4.4625
G01 X41.9210 Y-4.4695
G01 X41.9363 Y-4.4738
G01 X41.9562 Y-4.4776
G01 X41.9765 Y-4.4796
G01 X41.9887 Y-4.4800
G01 X42.2129 Y-4.4800
G01 X42.2129 Y-6.4668
G01 X42.2132 Y-6.4791
G01 X42.2150 Y-6.4975
G01 X42.2170 Y-6.5098
G01 X42.2202 Y-6.5240
G01 X42.2264 Y-6.5438
G01 X42.2335 Y-6.5610
G01 X42.2395 Y-6.5731
G01 X42.2462 Y-6.5848
G01 X42.2558 Y-6.5992
G01 X42.2656 Y-6.6117
G01 X42.2772 Y-6.6245
G01 X42.2875 Y-6.6344
G01 X42.2972 Y-6.6426
G01 X42.3111 Y-6.6529
G01 X42.3227 Y-6.6604
G01 X42.3342 Y-6.6668
G01 X42.3514 Y-6.6749
G01 X42.3614 Y-6.6788
G01 X42.3733 Y-6.6827
G01 X42.3836 Y-6.6856
G01 X42.3954 Y-6.6882
G01 X42.4157 Y-6.6912
G01 X42.4261 Y-6.6920
G01 X42.4383 Y-6.6923
G01 X51.6744 Y-6.6923
G01 X51.6744 Y-6.7494
G01 X51.3004 Y-6.7494
G01 X51.2858 Y-6.7505
G01 X51.2717 Y-6.7537
G01 X51.2582 Y-6.7589
G01 X51.2457 Y-6.7661
G01 X51.2343 Y-6.7749
G01 X51.2243 Y-6.7854
G01 X51.2160 Y-6.7972
G01 X51.2115 Y-6.8057
G01 X51.2063 Y-6.8192
G01 X51.2031 Y-6.8332
G01 X51.2020 Y-6.8478
G01 X51.2021 Y-9.3522
G01 X51.2031 Y-9.3618
G01 X51.2050 Y-9.3712
G01 X51.2078 Y-9.3805
G01 X51.2115 Y-9.3893
G01 X51.2186 Y-9.4019
G01 X51.2243 Y-9.4096
G01 X51.2308 Y-9.4168
G01 X51.2379 Y-9.4232
G01 X51.2457 Y-9.4290
G01 X51.2582 Y-9.4361
G01 X51.2671 Y-9.4398
G01 X51.2763 Y-9.4426
G01 X51.2858 Y-9.4445
G01 X51.2932 Y-9.4453
G01 X51.2932 Y-9.5053
G01 X34.4068 Y-9.5053
G01 X34.3946 Y-9.5056
G01 X34.3823 Y-9.5066
G01 X34.3652 Y-9.5092
G01 X34.3521 Y-9.5120
G01 X34.3419 Y-9.5148
G01 X34.3286 Y-9.5193
G01 X34.3183 Y-9.5234
G01 X34.3027 Y-9.5308
G01 X34.2912 Y-9.5372
G01 X34.2796 Y-9.5446
G01 X34.2657 Y-9.5549
G01 X34.2537 Y-9.5653
G01 X34.2414 Y-9.5776
G01 X34.2324 Y-9.5879
G01 X34.2207 Y-9.6035
G01 X34.2133 Y-9.6151
G01 X34.2069 Y-9.6266
G01 X34.1995 Y-9.6422
G01 X34.1949 Y-9.6538
G01 X34.1904 Y-9.6676
G01 X34.1862 Y-9.6844
G01 X34.1837 Y-9.6982
G01 X34.1823 Y-9.7110
G01 X34.1814 Y-9.7283
G01 X34.1814 Y-14.4761
G01 X31.9242 Y-16.7333
G01 X31.9108 Y-16.7482
G01 X31.9052 Y-16.7553
G01 X31.8974 Y-16.7663
G01 X31.8917 Y-16.7753
G01 X31.8865 Y-16.7847
G01 X31.8779 Y-16.8025
G01 X31.8733 Y-16.8141
G01 X31.8703 Y-16.8232
G01 X31.8660 Y-16.8386
G01 X31.8622 Y-16.8584
G01 X31.8602 Y-16.8788
G01 X31.8598 Y-16.8934
G01 X31.8610 Y-16.9136
G01 X31.8637 Y-16.9326
G01 X31.8666 Y-16.9457
G01 X31.8722 Y-16.9647
G01 X31.8772 Y-16.9779
G01 X31.8853 Y-16.9951
G01 X31.8932 Y-17.0090
G01 X31.9028 Y-17.0234
G01 X31.9125 Y-17.0359
G01 X31.9259 Y-17.0504
G01 X31.9404 Y-17.0637
G01 X31.9529 Y-17.0735
G01 X31.9696 Y-17.0845
G01 X31.9811 Y-17.0910
G01 X31.9984 Y-17.0990
G01 X32.0084 Y-17.1029
G01 X32.0203 Y-17.1069
G01 X32.0389 Y-17.1116
G01 X32.0546 Y-17.1143
G01 X32.0656 Y-17.1156
G01 X32.0766 Y-17.1163
G01 X32.4161 Y-17.1165
G01 X34.3820 Y-19.0824
G01 X34.3820 Y-20.3911
G01 X34.3824 Y-20.4034
G01 X34.3834 Y-20.4156
G01 X34.3862 Y-20.4340
G01 X34.3911 Y-20.4542
G01 X34.3956 Y-20.4680
G01 X34.4027 Y-20.4853
G01 X34.4098 Y-20.4995
G01 X34.4197 Y-20.5158
G01 X34.4279 Y-20.5274
G01 X34.4399 Y-20.5419
G01 X34.4498 Y-20.5522
G01 X34.4647 Y-20.5656
G01 X34.4802 Y-20.5772
G01 X34.4937 Y-20.5857
G01 X34.5089 Y-20.5939
G01 X34.5235 Y-20.6003
G01 X34.5425 Y-20.6070
G01 X34.5612 Y-20.6118
G01 X34.5749 Y-20.6142
G01 X34.5849 Y-20.6154
G01 X34.5953 Y-20.6162
G01 X34.6075 Y-20.6166
G01 X49.0150 Y-20.6166
G01 X49.1801 Y-20.7817
G01 X49.1801 Y-20.9677
G01 X49.1804 Y-20.9799
G01 X49.1812 Y-20.9903
G01 X49.1824 Y-21.0003
G01 X49.1849 Y-21.0140
G01 X49.1891 Y-21.0308
G01 X49.1925 Y-21.0414
G01 X49.1975 Y-21.0546
G01 X49.2015 Y-21.0636
G01 X49.2067 Y-21.0740
G01 X49.2120 Y-21.0834
G01 X49.2177 Y-21.0924
G01 X49.2255 Y-21.1034
G01 X49.2380 Y-21.1185
G01 X49.2461 Y-21.1271
G01 X49.2547 Y-21.1353
G01 X49.2699 Y-21.1478
G01 X49.2808 Y-21.1555
G01 X49.2899 Y-21.1612
G01 X49.2992 Y-21.1665
G01 X49.3096 Y-21.1717
G01 X49.3286 Y-21.1796
G01 X49.3406 Y-21.1836
G01 X49.3508 Y-21.1864
G01 X49.3639 Y-21.1893
G01 X49.3810 Y-21.1918
G01 X49.3933 Y-21.1928
G01 X49.4055 Y-21.1932
G01 X51.2932 Y-21.1932
G01 X51.2932 Y-21.2506
G01 X51.2858 Y-21.2514
G01 X51.2763 Y-21.2533
G01 X51.2671 Y-21.2561
G01 X51.2582 Y-21.2598
G01 X51.2497 Y-21.2643
G01 X51.2417 Y-21.2697
G01 X51.2308 Y-21.2791
G01 X51.2243 Y-21.2863
G01 X51.2186 Y-21.2940
G01 X51.2136 Y-21.3022
G01 X51.2095 Y-21.3110
G01 X51.2063 Y-21.3200
G01 X51.2039 Y-21.3294
G01 X51.2021 Y-21.3437
G01 X51.2020 Y-23.8481
G01 X51.2031 Y-23.8627
G01 X51.2063 Y-23.8767
G01 X51.2115 Y-23.8902
G01 X51.2186 Y-23.9028
G01 X51.2243 Y-23.9105
G01 X51.2343 Y-23.9210
G01 X51.2457 Y-23.9298
G01 X51.2582 Y-23.9370
G01 X51.2717 Y-23.9422
G01 X51.2858 Y-23.9454
G01 X51.3004 Y-23.9465
G01 X51.6744 Y-23.9465
G01 X51.6744 Y-24.0036
G01 X51.2877 Y-24.0036
G01 X51.2754 Y-24.0039
G01 X51.2650 Y-24.0047
G01 X51.2448 Y-24.0077
G01 X51.2329 Y-24.0103
G01 X51.2227 Y-24.0132
G01 X51.2108 Y-24.0171
G01 X51.2008 Y-24.0210
G01 X51.1917 Y-24.0250
G01 X51.1814 Y-24.0302
G01 X51.1720 Y-24.0355
G01 X51.1604 Y-24.0430
G01 X51.1520 Y-24.0490
G01 X51.1428 Y-24.0563
G01 X51.1300 Y-24.0679
G01 X51.1223 Y-24.0759
G01 X51.1132 Y-24.0863
G01 X51.1076 Y-24.0934
G01 X51.0998 Y-24.1043
G01 X51.0941 Y-24.1134
G01 X51.0877 Y-24.1249
G01 X51.0803 Y-24.1406
G01 X51.0757 Y-24.1521
G01 X51.0718 Y-24.1641
G01 X51.0684 Y-24.1766
G01 X51.0650 Y-24.1936
G01 X51.0634 Y-24.2064
G01 X51.0624 Y-24.2204
G01 X51.0622 Y-25.2736
G01 X50.6736 Y-25.6622
G01 X37.2231 Y-25.6622
G01 X36.8345 Y-25.2736
G01 X36.8345 Y-24.7238
G01 X37.1698 Y-24.3885
G01 X37.1790 Y-24.3787
G01 X37.1904 Y-24.3647
G01 X37.1982 Y-24.3538
G01 X37.2080 Y-24.3375
G01 X37.2144 Y-24.3250
G01 X37.2218 Y-24.3073
G01 X37.2262 Y-24.2940
G01 X37.2310 Y-24.2754
G01 X37.2334 Y-24.2616
G01 X37.2347 Y-24.2517
G01 X37.2356 Y-24.2377
G01 X37.2358 Y-24.2291
G01 X37.2354 Y-24.2156
G01 X37.2347 Y-24.2064
G01 X37.2330 Y-24.1936
G01 X37.2296 Y-24.1766
G01 X37.2268 Y-24.1659
G01 X37.2223 Y-24.1521
G01 X37.2184 Y-24.1422
G01 X37.2144 Y-24.1331
G01 X37.2092 Y-24.1228
G01 X37.2039 Y-24.1134
G01 X37.1982 Y-24.1043
G01 X37.1904 Y-24.0934
G01 X37.1848 Y-24.0863
G01 X37.1779 Y-24.0782
G01 X37.1698 Y-24.0696
G01 X37.1612 Y-24.0615
G01 X37.1531 Y-24.0546
G01 X37.1460 Y-24.0490
G01 X37.1351 Y-24.0412
G01 X37.1260 Y-24.0355
G01 X37.1145 Y-24.0291
G01 X37.1063 Y-24.0250
G01 X37.0944 Y-24.0199
G01 X37.0781 Y-24.0140
G01 X37.0675 Y-24.0110
G01 X37.0533 Y-24.0077
G01 X37.0429 Y-24.0060
G01 X37.0226 Y-24.0039
G01 X37.0103 Y-24.0036
G01 X35.9056 Y-24.0036
G01 X35.8853 Y-24.0047
G01 X35.8651 Y-24.0077
G01 X35.8532 Y-24.0103
G01 X35.8430 Y-24.0132
G01 X35.8239 Y-24.0199
G01 X35.8120 Y-24.0250
G01 X35.8017 Y-24.0302
G01 X35.7847 Y-24.0403
G01 X35.7717 Y-24.0494
G01 X35.7652 Y-24.0546
G01 X35.7548 Y-24.0636
G01 X35.7404 Y-24.0782
G01 X35.7335 Y-24.0863
G01 X35.7255 Y-24.0967
G01 X35.7144 Y-24.1134
G01 X35.7092 Y-24.1228
G01 X35.7039 Y-24.1331
G01 X35.6965 Y-24.1508
G01 X35.6916 Y-24.1659
G01 X35.6866 Y-24.1861
G01 X35.6837 Y-24.2064
G01 X35.6829 Y-24.2168
G01 X35.6825 Y-24.2291
G01 X35.6825 Y-24.3262
G01 X35.3269 Y-24.6818
G01 X33.2054 Y-24.6818
G01 X33.1932 Y-24.6821
G01 X33.1828 Y-24.6829
G01 X33.1625 Y-24.6859
G01 X33.1423 Y-24.6908
G01 X33.1272 Y-24.6958
G01 X33.1095 Y-24.7032
G01 X33.0991 Y-24.7084
G01 X33.0898 Y-24.7137
G01 X33.0731 Y-24.7247
G01 X33.0605 Y-24.7345
G01 X33.0522 Y-24.7418
G01 X33.0443 Y-24.7495
G01 X33.0310 Y-24.7644
G01 X33.0254 Y-24.7716
G01 X33.0176 Y-24.7825
G01 X33.0119 Y-24.7916
G01 X33.0066 Y-24.8009
G01 X32.9981 Y-24.8187
G01 X32.9935 Y-24.8303
G01 X32.9904 Y-24.8395
G01 X32.9862 Y-24.8548
G01 X32.9823 Y-24.8747
G01 X32.9803 Y-24.8950
G01 X32.9800 Y-24.9072
G01 X32.9803 Y-24.9195
G01 X32.9823 Y-24.9398
G01 X32.9841 Y-24.9502
G01 X32.9867 Y-24.9620
G01 X32.9895 Y-24.9722
G01 X32.9940 Y-24.9855
G01 X32.9974 Y-24.9941
G01 X33.0027 Y-25.0058
G01 X33.0077 Y-25.0156
G01 X33.0166 Y-25.0305
G01 X33.0229 Y-25.0396
G01 X33.0310 Y-25.0500
G01 X33.0378 Y-25.0581
G01 X33.0460 Y-25.0667
G01 X34.3095 Y-26.3300
G01 X34.3216 Y-26.3403
G01 X34.3380 Y-26.3524
G01 X34.3543 Y-26.3622
G01 X34.3685 Y-26.3694
G01 X34.3858 Y-26.3765
G01 X34.4056 Y-26.3826
G01 X34.4198 Y-26.3859
G01 X34.4401 Y-26.3889
G01 X34.4505 Y-26.3897
G01 X34.4627 Y-26.3900
G01 X47.8187 Y-26.3900
G01 X49.9091 Y-28.4780
G01 X49.9091 Y-33.0962
G01 X49.9099 Y-33.1159
G01 X49.9119 Y-33.1317
G01 X49.9158 Y-33.1509
G01 X49.9215 Y-33.1699
G01 X49.9265 Y-33.1831
G01 X49.9346 Y-33.2003
G01 X49.9424 Y-33.2142
G01 X49.9545 Y-33.2319
G01 X49.9659 Y-33.2458
G01 X49.9751 Y-33.2556
G01 X50.4171 Y-33.6976
G01 X50.4171 Y-34.4582
G01 X49.8786 Y-34.9967
G01 X49.1182 Y-34.9967
G01 X48.5820 Y-34.4585
G01 X48.5820 Y-33.6976
G01 X49.0239 Y-33.2556
G01 X49.0332 Y-33.2458
G01 X49.0446 Y-33.2319
G01 X49.0533 Y-33.2194
G01 X49.0633 Y-33.2025
G01 X49.0719 Y-33.1847
G01 X49.0776 Y-33.1699
G01 X49.0832 Y-33.1509
G01 X49.0861 Y-33.1378
G01 X49.0888 Y-33.1188
G01 X49.0896 Y-33.1084
G01 X49.0900 Y-33.0962
G01 X49.0900 Y-28.9103
G01 X49.0896 Y-28.8968
G01 X49.0876 Y-28.8774
G01 X49.0838 Y-28.8578
G01 X49.0798 Y-28.8434
G01 X49.0737 Y-28.8262
G01 X49.0672 Y-28.8116
G01 X49.0585 Y-28.7954
G01 X49.0469 Y-28.7778
G01 X49.0371 Y-28.7653
G01 X49.0239 Y-28.7508
G01 X47.5455 Y-27.2750
G01 X47.5380 Y-27.2678
G01 X47.5290 Y-27.2600
G01 X47.5196 Y-27.2528
G01 X47.5109 Y-27.2467
G01 X47.5018 Y-27.2410
G01 X47.4925 Y-27.2357
G01 X47.4746 Y-27.2272
G01 X47.4625 Y-27.2224
G01 X47.4512 Y-27.2186
G01 X47.4414 Y-27.2159
G01 X47.4291 Y-27.2132
G01 X47.4087 Y-27.2102
G01 X47.3986 Y-27.2094
G01 X47.3862 Y-27.2091
G01 X34.0303 Y-27.2091
G01 X31.5894 Y-24.7681
G01 X31.5894 Y-20.2616
G01 X31.5890 Y-20.2493
G01 X31.5882 Y-20.2389
G01 X31.5853 Y-20.2187
G01 X31.5820 Y-20.2045
G01 X31.5759 Y-20.1847
G01 X31.5687 Y-20.1674
G01 X31.5616 Y-20.1532
G01 X31.5518 Y-20.1369
G01 X31.5397 Y-20.1204
G01 X31.5293 Y-20.1084
G01 X31.1957 Y-19.7745
G01 X31.1871 Y-19.7663
G01 X31.1774 Y-19.7581
G01 X31.1635 Y-19.7478
G01 X31.1519 Y-19.7404
G01 X31.1426 Y-19.7351
G01 X31.1305 Y-19.7291
G01 X31.1145 Y-19.7225
G01 X31.1012 Y-19.7180
G01 X31.0910 Y-19.7152
G01 X31.0779 Y-19.7123
G01 X31.0608 Y-19.7098
G01 X31.0485 Y-19.7088
G01 X31.0363 Y-19.7085
G01 X22.0370 Y-19.7085
G01 X22.0173 Y-19.7093
G01 X22.0016 Y-19.7113
G01 X21.9823 Y-19.7152
G01 X21.9634 Y-19.7209
G01 X21.9501 Y-19.7259
G01 X21.9329 Y-19.7340
G01 X21.9214 Y-19.7404
G01 X21.9047 Y-19.7514
G01 X21.8922 Y-19.7612
G01 X21.8776 Y-19.7745
G01 X21.8643 Y-19.7890
G01 X21.8545 Y-19.8016
G01 X21.8449 Y-19.8160
G01 X21.8371 Y-19.8298
G01 X21.8290 Y-19.8470
G01 X21.8240 Y-19.8602
G01 X21.8183 Y-19.8792
G01 X21.8155 Y-19.8923
G01 X21.8129 Y-19.9094
G01 X21.8119 Y-19.9217
G01 X21.8116 Y-19.9339
G01 X21.8116 Y-20.5162
G01 X20.4845 Y-20.5162
G01 X20.4843 Y-18.8991
G01 X20.4836 Y-18.8881
G01 X20.4824 Y-18.8771
G01 X20.4797 Y-18.8614
G01 X20.4749 Y-18.8428
G01 X20.4710 Y-18.8308
G01 X20.4671 Y-18.8209
G01 X20.4590 Y-18.8036
G01 X20.4512 Y-18.7898
G01 X20.4391 Y-18.7721
G01 X20.4266 Y-18.7569
G01 X20.4185 Y-18.7483
G01 X20.4099 Y-18.7402
G01 X20.3947 Y-18.7277
G01 X20.3838 Y-18.7199
G01 X20.3747 Y-18.7142
G01 X20.3653 Y-18.7089
G01 X20.3550 Y-18.7037
G01 X20.3360 Y-18.6958
G01 X20.3240 Y-18.6919
G01 X20.3138 Y-18.6890
G01 X20.3020 Y-18.6864
G01 X20.2916 Y-18.6847
G01 X20.2713 Y-18.6826
G01 X20.2590 Y-18.6823
G01 X18.8874 Y-18.6823
G01 X18.8752 Y-18.6826
G01 X18.8549 Y-18.6847
G01 X18.8350 Y-18.6885
G01 X18.8197 Y-18.6927
G01 X18.8005 Y-18.6997
G01 X18.7915 Y-18.7037
G01 X18.7811 Y-18.7089
G01 X18.7642 Y-18.7190
G01 X18.7512 Y-18.7281
G01 X18.7446 Y-18.7333
G01 X18.7343 Y-18.7423
G01 X18.7199 Y-18.7569
G01 X18.7074 Y-18.7721
G01 X18.6953 Y-18.7898
G01 X18.6875 Y-18.8036
G01 X18.6794 Y-18.8209
G01 X18.6755 Y-18.8308
G01 X18.6715 Y-18.8428
G01 X18.6687 Y-18.8530
G01 X18.6661 Y-18.8648
G01 X18.6633 Y-18.8833
G01 X18.6623 Y-18.8955
G01 X18.6620 Y-18.9078
G01 X18.6620 Y-20.5162
G01 X17.3349 Y-20.5162
G01 X17.3349 Y-19.6063
G01 X17.3345 Y-19.5928
G01 X17.3328 Y-19.5756
G01 X17.3301 Y-19.5599
G01 X17.3259 Y-19.5431
G01 X17.3214 Y-19.5293
G01 X17.3168 Y-19.5178
G01 X17.3094 Y-19.5021
G01 X17.3030 Y-19.4906
G01 X17.2955 Y-19.4790
G01 X17.2839 Y-19.4635
G01 X17.2749 Y-19.4531
G01 X17.2626 Y-19.4408
G01 X17.2522 Y-19.4318
G01 X17.2418 Y-19.4238
G01 X17.2274 Y-19.4141
G01 X17.2157 Y-19.4074
G01 X17.2036 Y-19.4014
G01 X17.1864 Y-19.3943
G01 X17.1666 Y-19.3882
G01 X17.1511 Y-19.3847
G01 X17.1321 Y-19.3819
G01 X17.1217 Y-19.3811
G01 X17.1094 Y-19.3808
G01 X14.2240 Y-19.3808
G01 X14.2118 Y-19.3811
G01 X14.2014 Y-19.3819
G01 X14.1824 Y-19.3847
G01 X14.1669 Y-19.3882
G01 X14.1471 Y-19.3943
G01 X14.1355 Y-19.3989
G01 X14.1199 Y-19.4063
G01 X14.1083 Y-19.4127
G01 X14.0993 Y-19.4184
G01 X14.0883 Y-19.4262
G01 X14.0791 Y-19.4335
G01 X14.0663 Y-19.4451
G01 X14.0586 Y-19.4531
G01 X14.0495 Y-19.4635
G01 X14.0439 Y-19.4706
G01 X14.0362 Y-19.4815
G01 X14.0294 Y-19.4924
G01 X14.0240 Y-19.5021
G01 X14.0167 Y-19.5178
G01 X14.0121 Y-19.5293
G01 X14.0081 Y-19.5413
G01 X14.0053 Y-19.5515
G01 X14.0024 Y-19.5646
G01 X13.9999 Y-19.5818
G01 X13.9989 Y-19.5940
G01 X13.9985 Y-19.6063
G01 X13.9989 Y-19.6185
G01 X13.9999 Y-19.6308
G01 X14.0024 Y-19.6479
G01 X14.0053 Y-19.6610
G01 X14.0081 Y-19.6712
G01 X14.0121 Y-19.6832
G01 X14.0167 Y-19.6948
G01 X14.0240 Y-19.7104
G01 X14.0294 Y-19.7201
G01 X14.0362 Y-19.7310
G01 X14.0439 Y-19.7419
G01 X14.0553 Y-19.7559
G01 X14.0646 Y-19.7657
G01 X15.1314 Y-20.8325
G01 X15.1316 Y-20.9636
G01 X15.1325 Y-20.9776
G01 X15.1337 Y-20.9876
G01 X15.1376 Y-21.0074
G01 X15.1418 Y-21.0228
G01 X15.1476 Y-21.0390
G01 X15.1528 Y-21.0509
G01 X15.1592 Y-21.0634
G01 X15.1690 Y-21.0797
G01 X15.1768 Y-21.0907
G01 X15.1882 Y-21.1046
G01 X15.1974 Y-21.1144
G01 X15.2072 Y-21.1237
G01 X15.2212 Y-21.1351
G01 X15.2336 Y-21.1438
G01 X15.2505 Y-21.1538
G01 X15.2626 Y-21.1598
G01 X15.2799 Y-21.1669
G01 X15.2937 Y-21.1714
G01 X15.3105 Y-21.1756
G01 X15.3243 Y-21.1781
G01 X15.3342 Y-21.1793
G01 X15.3544 Y-21.1804
G01 X15.5124 Y-21.1805
G01 X15.5124 Y-23.0155
G01 X14.4069 Y-23.0155
G01 X14.3872 Y-23.0164
G01 X14.3714 Y-23.0184
G01 X14.3521 Y-23.0223
G01 X14.3332 Y-23.0279
G01 X14.3228 Y-23.0318
G01 X14.3127 Y-23.0362
G01 X14.2985 Y-23.0433
G01 X14.2822 Y-23.0532
G01 X14.2712 Y-23.0609
G01 X14.2641 Y-23.0665
G01 X14.2561 Y-23.0734
G01 X14.2475 Y-23.0816
G01 X14.2341 Y-23.0961
G01 X14.2268 Y-23.1053
G01 X14.2208 Y-23.1137
G01 X14.2123 Y-23.1272
G01 X14.2028 Y-23.1451
G01 X14.1949 Y-23.1641
G01 X14.1888 Y-23.1839
G01 X14.1853 Y-23.1994
G01 X14.1826 Y-23.2184
G01 X14.1818 Y-23.2288
G01 X14.1814 Y-23.2410
G01 X14.1814 Y-23.6550
G01 X14.1818 Y-23.6673
G01 X14.1826 Y-23.6777
G01 X14.1838 Y-23.6876
G01 X14.1862 Y-23.7014
G01 X14.1905 Y-23.7181
G01 X14.1938 Y-23.7287
G01 X14.1988 Y-23.7419
G01 X14.2028 Y-23.7510
G01 X14.2081 Y-23.7613
G01 X14.2148 Y-23.7730
G01 X14.2208 Y-23.7823
G01 X14.2311 Y-23.7962
G01 X14.2393 Y-23.8058
G01 X14.2475 Y-23.8144
G01 X14.2561 Y-23.8226
G01 X14.2657 Y-23.8308
G01 X14.2796 Y-23.8411
G01 X14.2889 Y-23.8471
G01 X14.3006 Y-23.8538
G01 X14.3109 Y-23.8591
G01 X14.3300 Y-23.8670
G01 X14.3419 Y-23.8709
G01 X14.3544 Y-23.8743
G01 X14.3714 Y-23.8777
G01 X14.3824 Y-23.8791
G01 X14.3946 Y-23.8801
G01 X14.4045 Y-23.8805
G01 X15.5124 Y-23.8805
G01 X15.5124 Y-25.7156
G01 X14.1853 Y-25.7156
G01 X14.1853 Y-25.3060
G01 X14.1849 Y-25.2925
G01 X14.1832 Y-25.2753
G01 X14.1812 Y-25.2631
G01 X14.1786 Y-25.2513
G01 X14.1749 Y-25.2383
G01 X14.1690 Y-25.2220
G01 X14.1639 Y-25.2101
G01 X14.1575 Y-25.1976
G01 X14.1486 Y-25.1828
G01 X14.1399 Y-25.1703
G01 X14.1274 Y-25.1552
G01 X14.1130 Y-25.1406
G01 X14.1010 Y-25.1302
G01 X14.0846 Y-25.1182
G01 X14.0682 Y-25.1083
G01 X14.0540 Y-25.1012
G01 X14.0368 Y-25.0941
G01 X14.0230 Y-25.0896
G01 X14.0062 Y-25.0854
G01 X13.9924 Y-25.0829
G01 X13.9795 Y-25.0814
G01 X13.9598 Y-25.0806
G01 X13.8653 Y-25.0806
G01 X13.6163 Y-24.8316
G01 X13.6163 Y-21.1099
G01 X13.6160 Y-21.0977
G01 X13.6152 Y-21.0873
G01 X13.6125 Y-21.0683
G01 X13.6096 Y-21.0552
G01 X13.6039 Y-21.0363
G01 X13.5989 Y-21.0230
G01 X13.5908 Y-21.0058
G01 X13.5844 Y-20.9943
G01 X13.5734 Y-20.9776
G01 X13.5636 Y-20.9651
G01 X13.5503 Y-20.9505
G01 X13.2480 Y-20.6483
G01 X13.2394 Y-20.6401
G01 X13.2314 Y-20.6332
G01 X13.2159 Y-20.6216
G01 X13.2024 Y-20.6131
G01 X13.1846 Y-20.6036
G01 X13.1655 Y-20.5957
G01 X13.1457 Y-20.5896
G01 X13.1315 Y-20.5863
G01 X13.1113 Y-20.5834
G01 X13.0910 Y-20.5822
G01 X9.8825 Y-20.5822
G01 X6.6161 Y-17.3158
G01 X6.6161 Y-15.3797
G01 X6.6158 Y-15.3675
G01 X6.6140 Y-15.3490
G01 X6.6120 Y-15.3368
G01 X6.6087 Y-15.3226
G01 X6.6037 Y-15.3060
G01 X6.5987 Y-15.2928
G01 X6.5934 Y-15.2811
G01 X6.5852 Y-15.2659
G01 X6.5785 Y-15.2550
G01 X6.5707 Y-15.2440
G01 X6.5593 Y-15.2301
G01 X6.5501 Y-15.2203
G01 X6.5402 Y-15.2110
G01 X6.5263 Y-15.1996
G01 X6.5154 Y-15.1919
G01 X6.4990 Y-15.1820
G01 X6.4866 Y-15.1757
G01 X6.4676 Y-15.1678
G01 X6.4556 Y-15.1638
G01 X6.4431 Y-15.1604
G01 X6.4261 Y-15.1571
G01 X6.4151 Y-15.1556
G01 X6.4029 Y-15.1546
G01 X6.3931 Y-15.1543
G01 X5.5925 Y-15.1542
G01 X5.5923 Y-15.0383
G01 X5.5911 Y-15.0225
G01 X5.5884 Y-15.0040
G01 X5.5857 Y-14.9922
G01 X5.5820 Y-14.9792
G01 X5.5762 Y-14.9629
G01 X5.5718 Y-14.9528
G01 X5.5658 Y-14.9407
G01 X5.5606 Y-14.9313
G01 X5.5549 Y-14.9222
G01 X5.5471 Y-14.9113
G01 X5.5398 Y-14.9021
G01 X5.5281 Y-14.8893
G01 X5.5178 Y-14.8794
G01 X5.5098 Y-14.8725
G01 X5.4994 Y-14.8645
G01 X5.4850 Y-14.8548
G01 X5.4733 Y-14.8481
G01 X5.4612 Y-14.8421
G01 X5.4452 Y-14.8355
G01 X5.4320 Y-14.8311
G01 X5.4195 Y-14.8277
G01 X5.4025 Y-14.8243
G01 X5.3897 Y-14.8226
G01 X5.3757 Y-14.8217
G01 X5.3584 Y-14.8217
G01 X5.3473 Y-14.8224
G01 X5.3345 Y-14.8239
G01 X5.3207 Y-14.8263
G01 X5.3039 Y-14.8305
G01 X5.2901 Y-14.8350
G01 X5.2728 Y-14.8421
G01 X5.2607 Y-14.8481
G01 X5.2491 Y-14.8548
G01 X5.2347 Y-14.8645
G01 X5.2221 Y-14.8742
G01 X5.2093 Y-14.8858
G01 X5.0780 Y-15.0171
G01 X4.2724 Y-15.0171
G01 X4.2626 Y-15.0174
G01 X4.2504 Y-15.0184
G01 X4.2401 Y-15.0198
G01 X4.2286 Y-15.0219
G01 X4.2202 Y-15.0238
G01 X4.2073 Y-15.0275
G01 X4.1980 Y-15.0306
G01 X4.1866 Y-15.0351
G01 X4.1695 Y-15.0432
G01 X4.1593 Y-15.0489
G01 X4.1494 Y-15.0552
G01 X4.1322 Y-15.0679
G01 X4.1175 Y-15.0811
G01 X3.6153 Y-15.5810
G01 X1.6811 Y-15.5810
G01 X0.8173 Y-14.7150
G01 X0.8173 Y-13.3826
G01 X2.9527 Y-11.2447
G00 Z1.0000
G00 X3.7453 Y-11.5969
G01 F20.00
G01 Z-0.0600
G01 F20.00
G01 X5.3480 Y-11.5970
G01 X5.3578 Y-11.5965
G01 X5.3720 Y-11.5940
G01 X5.3857 Y-11.5895
G01 X5.3986 Y-11.5829
G01 X5.4104 Y-11.5746
G01 X5.4209 Y-11.5647
G01 X5.4298 Y-11.5533
G01 X5.4369 Y-11.5407
G01 X5.4421 Y-11.5273
G01 X5.4453 Y-11.5132
G01 X5.4464 Y-11.4986
G01 X5.4464 Y-11.1989
G01 X5.4459 Y-11.1890
G01 X5.4434 Y-11.1748
G01 X5.4388 Y-11.1611
G01 X5.4323 Y-11.1482
G01 X5.4270 Y-11.1402
G01 X5.4209 Y-11.1328
G01 X5.4104 Y-11.1228
G01 X5.4027 Y-11.1171
G01 X5.3944 Y-11.1121
G01 X5.3812 Y-11.1062
G01 X5.3673 Y-11.1024
G01 X5.3530 Y-11.1006
G01 X3.7503 Y-11.1005
G01 X3.7405 Y-11.1010
G01 X3.7263 Y-11.1034
G01 X3.7126 Y-11.1080
G01 X3.6997 Y-11.1145
G01 X3.6879 Y-11.1228
G01 X3.6807 Y-11.1293
G01 X3.6713 Y-11.1402
G01 X3.6636 Y-11.1524
G01 X3.6577 Y-11.1656
G01 X3.6538 Y-11.1795
G01 X3.6524 Y-11.1890
G01 X3.6519 Y-11.1989
G01 X3.6520 Y-11.5036
G01 X3.6530 Y-11.5132
G01 X3.6549 Y-11.5226
G01 X3.6594 Y-11.5363
G01 X3.6636 Y-11.5450
G01 X3.6685 Y-11.5533
G01 X3.6743 Y-11.5610
G01 X3.6807 Y-11.5682
G01 X3.6879 Y-11.5746
G01 X3.6956 Y-11.5804
G01 X3.7039 Y-11.5853
G01 X3.7126 Y-11.5895
G01 X3.7216 Y-11.5927
G01 X3.7310 Y-11.5951
G01 X3.7453 Y-11.5969
G00 Z1.0000
G00 X3.7453 Y-12.0972
G01 F20.00
G01 Z-0.0600
G01 F20.00
G01 X5.3480 Y-12.0974
G01 X5.3578 Y-12.0969
G01 X5.3720 Y-12.0944
G01 X5.3857 Y-12.0898
G01 X5.3986 Y-12.0833
G01 X5.4104 Y-12.0750
G01 X5.4209 Y-12.0651
G01 X5.4298 Y-12.0537
G01 X5.4369 Y-12.0411
G01 X5.4421 Y-12.0276
G01 X5.4453 Y-12.0136
G01 X5.4464 Y-11.9990
G01 X5.4464 Y-11.6992
G01 X5.4459 Y-11.6894
G01 X5.4434 Y-11.6752
G01 X5.4388 Y-11.6615
G01 X5.4323 Y-11.6486
G01 X5.4270 Y-11.6406
G01 X5.4209 Y-11.6331
G01 X5.4104 Y-11.6232
G01 X5.4027 Y-11.6175
G01 X5.3944 Y-11.6125
G01 X5.3812 Y-11.6066
G01 X5.3673 Y-11.6028
G01 X5.3530 Y-11.6010
G01 X3.7503 Y-11.6008
G01 X3.7405 Y-11.6013
G01 X3.7263 Y-11.6038
G01 X3.7126 Y-11.6084
G01 X3.6997 Y-11.6149
G01 X3.6879 Y-11.6232
G01 X3.6807 Y-11.6297
G01 X3.6713 Y-11.6406
G01 X3.6636 Y-11.6528
G01 X3.6577 Y-11.6660
G01 X3.6538 Y-11.6799
G01 X3.6524 Y-11.6894
G01 X3.6519 Y-11.6992
G01 X3.6520 Y-12.0040
G01 X3.6530 Y-12.0136
G01 X3.6549 Y-12.0230
G01 X3.6594 Y-12.0367
G01 X3.6636 Y-12.0454
G01 X3.6685 Y-12.0537
G01 X3.6743 Y-12.0614
G01 X3.6807 Y-12.0685
G01 X3.6879 Y-12.0750
G01 X3.6956 Y-12.0807
G01 X3.7039 Y-12.0857
G01 X3.7126 Y-12.0898
G01 X3.7216 Y-12.0931
G01 X3.7310 Y-12.0954
G01 X3.7453 Y-12.0972
G00 Z1.0000
G00 X3.5935 Y-12.1240
G01 F20.00
G01 Z-0.0600
G01 F20.00
G01 X3.5935 Y-11.9457
G01 X3.5924 Y-11.9255
G01 X3.5894 Y-11.9052
G01 X3.5861 Y-11.8910
G01 X3.5800 Y-11.8712
G01 X3.5729 Y-11.8540
G01 X3.5669 Y-11.8419
G01 X3.5602 Y-11.8302
G01 X3.5505 Y-11.8158
G01 X3.5408 Y-11.8033
G01 X3.5292 Y-11.7905
G01 X3.5212 Y-11.7827
G01 X3.5129 Y-11.7754
G01 X3.5004 Y-11.7657
G01 X3.4837 Y-11.7546
G01 X3.4743 Y-11.7493
G01 X3.4640 Y-11.7441
G01 X3.4463 Y-11.7367
G01 X3.4312 Y-11.7317
G01 X3.4110 Y-11.7268
G01 X3.3907 Y-11.7238
G01 X3.3705 Y-11.7227
G01 X3.3546 Y-11.7231
G01 X3.3355 Y-11.7251
G01 X3.3251 Y-11.7268
G01 X3.3133 Y-11.7294
G01 X3.2944 Y-11.7351
G01 X3.2795 Y-11.7408
G01 X3.2617 Y-11.7493
G01 X3.2524 Y-11.7546
G01 X3.2433 Y-11.7603
G01 X3.2324 Y-11.7681
G01 X3.2252 Y-11.7737
G01 X3.2172 Y-11.7806
G01 X3.2086 Y-11.7887
G01 X1.4484 Y-13.5490
G01 X1.4392 Y-13.5588
G01 X1.4282 Y-13.5721
G01 X1.4200 Y-13.5837
G01 X1.4143 Y-13.5927
G01 X1.4079 Y-13.6042
G01 X1.4005 Y-13.6199
G01 X1.3959 Y-13.6315
G01 X1.3914 Y-13.6453
G01 X1.3872 Y-13.6620
G01 X1.3847 Y-13.6758
G01 X1.3832 Y-13.6887
G01 X1.3824 Y-13.7060
G01 X1.3824 Y-14.3915
G01 X1.3832 Y-14.4088
G01 X1.3852 Y-14.4246
G01 X1.3891 Y-14.4438
G01 X1.3948 Y-14.4628
G01 X1.3998 Y-14.4760
G01 X1.4038 Y-14.4850
G01 X1.4090 Y-14.4954
G01 X1.4157 Y-14.5071
G01 X1.4217 Y-14.5164
G01 X1.4282 Y-14.5253
G01 X1.4351 Y-14.5340
G01 X1.4467 Y-14.5468
G01 X1.8497 Y-14.9498
G01 X1.8595 Y-14.9591
G01 X1.8729 Y-14.9701
G01 X1.8844 Y-14.9783
G01 X1.8935 Y-14.9840
G01 X1.9050 Y-14.9904
G01 X1.9206 Y-14.9978
G01 X1.9322 Y-15.0024
G01 X1.9460 Y-15.0068
G01 X1.9628 Y-15.0111
G01 X1.9766 Y-15.0135
G01 X1.9894 Y-15.0150
G01 X2.0067 Y-15.0159
G01 X3.2893 Y-15.0159
G01 X3.3028 Y-15.0155
G01 X3.3219 Y-15.0135
G01 X3.3356 Y-15.0111
G01 X3.3543 Y-15.0063
G01 X3.3675 Y-15.0019
G01 X3.3835 Y-14.9952
G01 X3.3977 Y-14.9881
G01 X3.4125 Y-14.9792
G01 X3.4250 Y-14.9705
G01 X3.4342 Y-14.9632
G01 X3.4487 Y-14.9498
G01 X3.6333 Y-14.7652
G01 X3.6449 Y-14.7524
G01 X3.6518 Y-14.7438
G01 X3.6583 Y-14.7348
G01 X3.6643 Y-14.7255
G01 X3.6721 Y-14.7117
G01 X3.6802 Y-14.6944
G01 X3.6872 Y-14.6753
G01 X3.6914 Y-14.6600
G01 X3.6953 Y-14.6401
G01 X3.6973 Y-14.6198
G01 X3.6976 Y-14.6051
G01 X3.6965 Y-14.5849
G01 X3.6938 Y-14.5659
G01 X3.6909 Y-14.5528
G01 X3.6852 Y-14.5339
G01 X3.6795 Y-14.5190
G01 X3.6710 Y-14.5012
G01 X3.6610 Y-14.4843
G01 X3.6522 Y-14.4719
G01 X3.6398 Y-14.4567
G01 X3.6299 Y-14.4464
G01 X3.6171 Y-14.4348
G01 X3.6079 Y-14.4275
G01 X3.5954 Y-14.4188
G01 X3.5806 Y-14.4099
G01 X3.5681 Y-14.4035
G01 X3.5504 Y-14.3961
G01 X3.5372 Y-14.3916
G01 X3.5269 Y-14.3888
G01 X3.5138 Y-14.3860
G01 X3.4967 Y-14.3834
G01 X3.4844 Y-14.3824
G01 X3.4722 Y-14.3821
G01 X3.3821 Y-14.3821
G01 X3.2150 Y-14.2164
G01 X3.2150 Y-12.7330
G01 X3.3744 Y-12.5749
G01 X3.6874 Y-12.5749
G01 X3.6917 Y-12.5784
G01 X3.6997 Y-12.5837
G01 X3.7082 Y-12.5883
G01 X3.7171 Y-12.5920
G01 X3.7263 Y-12.5948
G01 X3.7357 Y-12.5967
G01 X3.7503 Y-12.5977
G01 X5.3480 Y-12.5977
G01 X5.3626 Y-12.5967
G01 X5.3720 Y-12.5948
G01 X5.3812 Y-12.5920
G01 X5.3901 Y-12.5883
G01 X5.3986 Y-12.5837
G01 X5.4066 Y-12.5784
G01 X5.4109 Y-12.5749
G01 X5.5048 Y-12.5749
G01 X5.5048 Y-13.0199
G01 X5.5057 Y-13.0372
G01 X5.5071 Y-13.0501
G01 X5.5096 Y-13.0638
G01 X5.5143 Y-13.0825
G01 X5.5188 Y-13.0957
G01 X5.5262 Y-13.1134
G01 X5.5326 Y-13.1259
G01 X5.5424 Y-13.1422
G01 X5.5506 Y-13.1537
G01 X5.5627 Y-13.1683
G01 X5.5725 Y-13.1786
G01 X5.5854 Y-13.1902
G01 X5.5979 Y-13.2000
G01 X5.6146 Y-13.2110
G01 X5.6261 Y-13.2175
G01 X5.6417 Y-13.2248
G01 X5.6533 Y-13.2294
G01 X5.6671 Y-13.2339
G01 X5.6839 Y-13.2381
G01 X5.6996 Y-13.2408
G01 X5.7168 Y-13.2425
G01 X5.7302 Y-13.2430
G01 X10.6737 Y-13.2430
G01 X10.6737 Y-13.3368
G01 X10.6703 Y-13.3411
G01 X10.6649 Y-13.3491
G01 X10.6604 Y-13.3576
G01 X10.6567 Y-13.3665
G01 X10.6539 Y-13.3757
G01 X10.6520 Y-13.3852
G01 X10.6509 Y-13.3998
G01 X10.6509 Y-14.9974
G01 X10.6514 Y-15.0072
G01 X10.6539 Y-15.0215
G01 X10.6584 Y-15.0352
G01 X10.6649 Y-15.0481
G01 X10.6732 Y-15.0599
G01 X10.6797 Y-15.0670
G01 X10.6868 Y-15.0735
G01 X10.6986 Y-15.0818
G01 X10.7115 Y-15.0883
G01 X10.7252 Y-15.0928
G01 X10.7395 Y-15.0953
G01 X10.7493 Y-15.0958
G01 X11.0540 Y-15.0957
G01 X11.0636 Y-15.0947
G01 X11.0730 Y-15.0928
G01 X11.0867 Y-15.0883
G01 X11.0955 Y-15.0842
G01 X11.1037 Y-15.0792
G01 X11.1114 Y-15.0735
G01 X11.1186 Y-15.0670
G01 X11.1250 Y-15.0599
G01 X11.1308 Y-15.0521
G01 X11.1357 Y-15.0439
G01 X11.1399 Y-15.0352
G01 X11.1431 Y-15.0261
G01 X11.1455 Y-15.0168
G01 X11.1469 Y-15.0072
G01 X11.1474 Y-14.9974
G01 X11.1474 Y-13.3998
G01 X11.1463 Y-13.3852
G01 X11.1444 Y-13.3757
G01 X11.1416 Y-13.3665
G01 X11.1379 Y-13.3576
G01 X11.1334 Y-13.3491
G01 X11.1280 Y-13.3411
G01 X11.1246 Y-13.3368
G01 X11.1246 Y-13.2430
G01 X11.5696 Y-13.2429
G01 X11.5869 Y-13.2421
G01 X11.5997 Y-13.2406
G01 X11.6135 Y-13.2381
G01 X11.6321 Y-13.2334
G01 X11.6454 Y-13.2289
G01 X11.6631 Y-13.2215
G01 X11.6756 Y-13.2152
G01 X11.6919 Y-13.2053
G01 X11.7034 Y-13.1971
G01 X11.7180 Y-13.1851
G01 X11.7283 Y-13.1752
G01 X11.7416 Y-13.1603
G01 X11.7533 Y-13.1448
G01 X11.7607 Y-13.1332
G01 X11.7671 Y-13.1216
G01 X11.7752 Y-13.1044
G01 X11.7802 Y-13.0912
G01 X11.7859 Y-13.0722
G01 X11.7887 Y-13.0591
G01 X11.7915 Y-13.0401
G01 X11.7923 Y-13.0297
G01 X11.7926 Y-13.0175
G01 X11.7926 Y-8.0741
G01 X11.8865 Y-8.0741
G01 X11.8908 Y-8.0775
G01 X11.8988 Y-8.0828
G01 X11.9073 Y-8.0874
G01 X11.9162 Y-8.0911
G01 X11.9254 Y-8.0939
G01 X11.9348 Y-8.0958
G01 X11.9494 Y-8.0969
G01 X13.5471 Y-8.0969
G01 X13.5617 Y-8.0958
G01 X13.5711 Y-8.0939
G01 X13.5803 Y-8.0911
G01 X13.5892 Y-8.0874
G01 X13.5977 Y-8.0828
G01 X13.6057 Y-8.0775
G01 X13.6100 Y-8.0741
G01 X13.7039 Y-8.0741
G01 X13.7041 Y-8.6091
G01 X13.7050 Y-8.6231
G01 X13.7063 Y-8.6330
G01 X13.7080 Y-8.6434
G01 X13.7113 Y-8.6576
G01 X13.7143 Y-8.6682
G01 X13.7202 Y-8.6845
G01 X13.7253 Y-8.6964
G01 X13.7294 Y-8.7046
G01 X13.7358 Y-8.7161
G01 X13.7415 Y-8.7252
G01 X13.7493 Y-8.7361
G01 X13.7566 Y-8.7453
G01 X13.7639 Y-8.7536
G01 X13.7717 Y-8.7616
G01 X13.7845 Y-8.7732
G01 X13.7931 Y-8.7801
G01 X13.8046 Y-8.7883
G01 X13.8137 Y-8.7940
G01 X13.8231 Y-8.7993
G01 X13.8334 Y-8.8045
G01 X13.8524 Y-8.8124
G01 X13.8644 Y-8.8163
G01 X13.8769 Y-8.8197
G01 X13.8939 Y-8.8231
G01 X13.9049 Y-8.8246
G01 X13.9171 Y-8.8256
G01 X13.9269 Y-8.8259
G01 X13.9416 Y-8.8256
G01 X13.9520 Y-8.8248
G01 X13.9619 Y-8.8235
G01 X13.9757 Y-8.8211
G01 X13.9841 Y-8.8192
G01 X13.9971 Y-8.8155
G01 X14.0134 Y-8.8096
G01 X14.0236 Y-8.8053
G01 X14.0357 Y-8.7993
G01 X14.0450 Y-8.7940
G01 X14.0541 Y-8.7883
G01 X14.0650 Y-8.7805
G01 X14.0790 Y-8.7691
G01 X14.0888 Y-8.7599
G01 X14.4495 Y-8.3992
G01 X14.4587 Y-8.3894
G01 X14.4701 Y-8.3754
G01 X14.4788 Y-8.3630
G01 X14.4889 Y-8.3461
G01 X14.4974 Y-8.3283
G01 X14.5031 Y-8.3134
G01 X14.5088 Y-8.2945
G01 X14.5116 Y-8.2814
G01 X14.5142 Y-8.2643
G01 X14.5152 Y-8.2520
G01 X14.5155 Y-8.2398
G01 X14.5155 Y-5.0845
G01 X15.0845 Y-4.5155
G01 X16.4363 Y-4.5155
G01 X16.4486 Y-4.5152
G01 X16.4590 Y-4.5144
G01 X16.4780 Y-4.5116
G01 X16.4911 Y-4.5088
G01 X16.5100 Y-4.5031
G01 X16.5232 Y-4.4981
G01 X16.5405 Y-4.4900
G01 X16.5520 Y-4.4836
G01 X16.5636 Y-4.4762
G01 X16.5775 Y-4.4659
G01 X16.5895 Y-4.4555
G01 X16.6018 Y-4.4432
G01 X16.6121 Y-4.4312
G01 X16.6224 Y-4.4173
G01 X16.6299 Y-4.4057
G01 X16.6363 Y-4.3942
G01 X16.6444 Y-4.3770
G01 X16.6494 Y-4.3637
G01 X16.6551 Y-4.3448
G01 X16.6590 Y-4.3255
G01 X16.6609 Y-4.3098
G01 X16.6618 Y-4.2901
G01 X16.6618 Y-2.5546
G01 X16.8910 Y-2.5546
G01 X16.9032 Y-2.5543
G01 X16.9236 Y-2.5523
G01 X16.9339 Y-2.5505
G01 X16.9457 Y-2.5479
G01 X16.9560 Y-2.5451
G01 X16.9679 Y-2.5411
G01 X16.9852 Y-2.5340
G01 X16.9973 Y-2.5280
G01 X17.0090 Y-2.5213
G01 X17.0234 Y-2.5117
G01 X17.0338 Y-2.5036
G01 X17.0442 Y-2.4946
G01 X17.0564 Y-2.4824
G01 X17.0655 Y-2.4720
G01 X17.0735 Y-2.4615
G01 X17.0831 Y-2.4471
G01 X17.0898 Y-2.4355
G01 X17.0958 Y-2.4234
G01 X17.1024 Y-2.4074
G01 X17.1069 Y-2.3942
G01 X17.1103 Y-2.3816
G01 X17.1136 Y-2.3646
G01 X17.1153 Y-2.3518
G01 X17.1161 Y-2.3414
G01 X17.1165 Y-2.3292
G01 X17.1165 Y0.1295
G01 X17.1160 Y0.1430
G01 X17.1141 Y0.1621
G01 X17.1116 Y0.1759
G01 X17.1074 Y0.1927
G01 X17.1029 Y0.2065
G01 X17.0983 Y0.2180
G01 X17.0910 Y0.2337
G01 X17.0831 Y0.2475
G01 X17.0735 Y0.2619
G01 X17.0655 Y0.2723
G01 X17.0521 Y0.2872
G01 X17.0418 Y0.2971
G01 X17.0272 Y0.3092
G01 X17.0157 Y0.3174
G01 X17.0048 Y0.3241
G01 X16.9896 Y0.3323
G01 X16.9779 Y0.3376
G01 X16.9679 Y0.3415
G01 X16.9560 Y0.3454
G01 X16.9457 Y0.3483
G01 X16.9339 Y0.3509
G01 X16.9236 Y0.3526
G01 X16.9045 Y0.3546
G01 X16.8910 Y0.3550
G01 X16.6618 Y0.3550
G01 X16.6618 Y1.2395
G01 X16.6615 Y1.2518
G01 X16.6594 Y1.2721
G01 X16.6577 Y1.2824
G01 X16.6551 Y1.2943
G01 X16.6522 Y1.3045
G01 X16.6483 Y1.3164
G01 X16.6412 Y1.3337
G01 X16.6340 Y1.3479
G01 X16.6299 Y1.3552
G01 X16.6224 Y1.3668
G01 X16.6108 Y1.3823
G01 X16.6039 Y1.3903
G01 X16.5940 Y1.4006
G01 X16.5791 Y1.4140
G01 X16.5720 Y1.4196
G01 X16.5611 Y1.4274
G01 X16.5520 Y1.4331
G01 X16.5426 Y1.4383
G01 X16.5248 Y1.4469
G01 X16.5133 Y1.4515
G01 X16.5041 Y1.4545
G01 X16.4888 Y1.4588
G01 X16.4689 Y1.4626
G01 X16.4498 Y1.4646
G01 X16.4363 Y1.4650
G01 X15.9386 Y1.4650
G01 X15.9184 Y1.4638
G01 X15.8981 Y1.4609
G01 X15.8839 Y1.4576
G01 X15.8641 Y1.4515
G01 X15.8451 Y1.4436
G01 X15.8347 Y1.4383
G01 X15.8231 Y1.4316
G01 X15.8138 Y1.4256
G01 X15.8048 Y1.4192
G01 X15.7962 Y1.4123
G01 X15.7833 Y1.4006
G01 X15.7735 Y1.3903
G01 X15.7666 Y1.3823
G01 X15.7610 Y1.3752
G01 X15.7532 Y1.3642
G01 X15.7475 Y1.3552
G01 X15.7422 Y1.3458
G01 X15.7370 Y1.3355
G01 X15.7330 Y1.3264
G01 X15.7260 Y1.3073
G01 X15.7218 Y1.2920
G01 X15.7179 Y1.2721
G01 X15.7160 Y1.2530
G01 X15.7156 Y1.2395
G01 X15.7156 Y1.0840
G01 X13.8805 Y1.0840
G01 X13.8805 Y2.2911
G01 X13.8801 Y2.3046
G01 X13.8781 Y2.3236
G01 X13.8743 Y2.3435
G01 X13.8701 Y2.3588
G01 X13.8631 Y2.3780
G01 X13.8550 Y2.3952
G01 X13.8472 Y2.4090
G01 X13.8351 Y2.4268
G01 X13.8226 Y2.4419
G01 X13.8127 Y2.4522
G01 X13.7978 Y2.4655
G01 X13.7823 Y2.4772
G01 X13.7689 Y2.4857
G01 X13.7510 Y2.4951
G01 X13.7333 Y2.5025
G01 X13.7182 Y2.5075
G01 X13.6980 Y2.5124
G01 X13.6777 Y2.5154
G01 X13.6673 Y2.5162
G01 X13.6550 Y2.5165
G01 X5.8003 Y2.5164
G01 X5.7893 Y2.5157
G01 X5.7783 Y2.5144
G01 X5.7626 Y2.5117
G01 X5.7440 Y2.5070
G01 X5.7321 Y2.5030
G01 X5.7221 Y2.4991
G01 X5.7130 Y2.4951
G01 X5.7027 Y2.4899
G01 X5.6857 Y2.4799
G01 X5.6727 Y2.4707
G01 X5.6662 Y2.4655
G01 X5.6558 Y2.4565
G01 X4.2458 Y1.0467
G01 X4.2324 Y1.0318
G01 X4.2268 Y1.0247
G01 X4.2191 Y1.0137
G01 X4.2134 Y1.0047
G01 X4.2081 Y0.9953
G01 X4.2029 Y0.9849
G01 X4.1989 Y0.9759
G01 X4.1950 Y0.9659
G01 X4.1910 Y0.9540
G01 X4.1882 Y0.9437
G01 X4.1856 Y0.9319
G01 X4.1826 Y0.9116
G01 X4.1818 Y0.9012
G01 X4.1814 Y0.8890
G01 X4.1814 Y-3.7871
G01 X4.1823 Y-3.8068
G01 X4.1843 Y-3.8226
G01 X4.1882 Y-3.8419
G01 X4.1938 Y-3.8608
G01 X4.1996 Y-3.8756
G01 X4.2081 Y-3.8934
G01 X4.2181 Y-3.9104
G01 X4.2268 Y-3.9228
G01 X4.2342 Y-3.9320
G01 X4.2458 Y-3.9448
G01 X4.2563 Y-3.9551
G01 X4.2646 Y-3.9624
G01 X4.2738 Y-3.9697
G01 X4.2847 Y-3.9775
G01 X4.2938 Y-3.9832
G01 X4.3031 Y-3.9885
G01 X4.3135 Y-3.9937
G01 X4.3254 Y-3.9989
G01 X4.3417 Y-4.0047
G01 X4.3523 Y-4.0078
G01 X4.3665 Y-4.0110
G01 X4.3769 Y-4.0128
G01 X4.3868 Y-4.0140
G01 X4.4008 Y-4.0150
G01 X7.9833 Y-4.0151
G01 X8.2295 Y-4.2634
G01 X8.2394 Y-4.2727
G01 X8.2527 Y-4.2838
G01 X8.2631 Y-4.2913
G01 X8.2710 Y-4.2963
G01 X8.2848 Y-4.3042
G01 X8.3023 Y-4.3125
G01 X8.3212 Y-4.3194
G01 X8.3365 Y-4.3237
G01 X8.3567 Y-4.3277
G01 X8.3755 Y-4.3296
G01 X8.3914 Y-4.3301
G01 X8.4098 Y-4.3292
G01 X8.4307 Y-4.3263
G01 X8.4462 Y-4.3229
G01 X8.4628 Y-4.3179
G01 X8.4777 Y-4.3122
G01 X8.4957 Y-4.3036
G01 X8.5073 Y-4.2970
G01 X8.5217 Y-4.2874
G01 X8.5342 Y-4.2776
G01 X8.5471 Y-4.2660
G01 X8.5581 Y-4.2545
G01 X8.5706 Y-4.2392
G01 X8.5816 Y-4.2228
G01 X8.5888 Y-4.2102
G01 X8.5969 Y-4.1933
G01 X8.6026 Y-4.1784
G01 X8.6077 Y-4.1619
G01 X8.6109 Y-4.1476
G01 X8.6137 Y-4.1292
G01 X8.6149 Y-4.1133
G01 X8.6151 Y-3.8100
G01 X8.6142 Y-3.7896
G01 X8.6130 Y-3.7794
G01 X8.6110 Y-3.7672
G01 X8.6084 Y-3.7554
G01 X8.6054 Y-3.7446
G01 X8.6023 Y-3.7350
G01 X8.5971 Y-3.7219
G01 X8.5886 Y-3.7039
G01 X8.5833 Y-3.6946
G01 X8.5776 Y-3.6855
G01 X8.5708 Y-3.6759
G01 X8.5643 Y-3.6675
G01 X8.5512 Y-3.6528
G01 X8.1658 Y-3.2648
G01 X8.1515 Y-3.2516
G01 X8.1408 Y-3.2431
G01 X8.1324 Y-3.2372
G01 X8.1203 Y-3.2296
G01 X8.1050 Y-3.2214
G01 X8.0949 Y-3.2167
G01 X8.0832 Y-3.2120
G01 X8.0712 Y-3.2081
G01 X8.0609 Y-3.2052
G01 X8.0479 Y-3.2024
G01 X8.0307 Y-3.1998
G01 X8.0148 Y-3.1986
G01 X7.8988 Y-3.1985
G01 X7.8988 Y-1.9984
G01 X7.9933 Y-1.9984
G01 X8.0105 Y-1.9975
G01 X8.0263 Y-1.9956
G01 X8.0433 Y-1.9922
G01 X8.0540 Y-1.9893
G01 X8.0645 Y-1.9860
G01 X8.0749 Y-1.9821
G01 X8.0868 Y-1.9770
G01 X8.0971 Y-1.9717
G01 X8.1141 Y-1.9617
G01 X8.1232 Y-1.9554
G01 X8.1336 Y-1.9474
G01 X8.1417 Y-1.9405
G01 X8.1520 Y-1.9306
G01 X8.1636 Y-1.9178
G01 X8.1709 Y-1.9086
G01 X8.1787 Y-1.8976
G01 X8.1844 Y-1.8886
G01 X8.1897 Y-1.8792
G01 X8.1949 Y-1.8689
G01 X8.1989 Y-1.8598
G01 X8.2039 Y-1.8466
G01 X8.2073 Y-1.8360
G01 X8.2115 Y-1.8193
G01 X8.2139 Y-1.8055
G01 X8.2152 Y-1.7956
G01 X8.2160 Y-1.7852
G01 X8.2163 Y-1.7729
G01 X8.2161 Y-0.6005
G01 X8.2152 Y-0.5869
G01 X8.2132 Y-0.5724
G01 X8.2095 Y-0.5546
G01 X8.2054 Y-0.5404
G01 X8.2019 Y-0.5302
G01 X8.1964 Y-0.5170
G01 X8.1889 Y-0.5016
G01 X8.1805 Y-0.4867
G01 X8.1731 Y-0.4754
G01 X8.1682 Y-0.4686
G01 X8.1604 Y-0.4589
G01 X8.1534 Y-0.4510
G01 X8.1440 Y-0.4415
G01 X8.1364 Y-0.4345
G01 X8.1210 Y-0.4223
G01 X8.1099 Y-0.4147
G01 X8.1008 Y-0.4091
G01 X8.0817 Y-0.3993
G01 X8.0719 Y-0.3951
G01 X8.0601 Y-0.3908
G01 X8.0401 Y-0.3851
G01 X8.0198 Y-0.3813
G01 X8.0076 Y-0.3799
G01 X7.9973 Y-0.3792
G01 X7.9770 Y-0.3793
G01 X7.9647 Y-0.3803
G01 X7.9526 Y-0.3819
G01 X7.9323 Y-0.3861
G01 X7.9226 Y-0.3888
G01 X7.9101 Y-0.3931
G01 X7.9009 Y-0.3967
G01 X7.8890 Y-0.4021
G01 X7.8816 Y-0.4059
G01 X7.8698 Y-0.4127
G01 X7.8556 Y-0.4223
G01 X7.8466 Y-0.4292
G01 X7.8364 Y-0.4379
G01 X7.8289 Y-0.4451
G01 X7.1050 Y-1.1690
G01 X6.1335 Y-1.1690
G01 X5.4477 Y-0.4832
G01 X5.4477 Y0.4832
G01 X6.1335 Y1.1690
G01 X7.1050 Y1.1690
G01 X7.7920 Y0.4820
G01 X7.7949 Y0.4625
G01 X7.7975 Y0.4507
G01 X7.8003 Y0.4405
G01 X7.8043 Y0.4285
G01 X7.8082 Y0.4186
G01 X7.8163 Y0.4013
G01 X7.8227 Y0.3898
G01 X7.8275 Y0.3822
G01 X7.8366 Y0.3692
G01 X7.8418 Y0.3627
G01 X7.8508 Y0.3523
G01 X7.8568 Y0.3460
G01 X7.8666 Y0.3368
G01 X7.8806 Y0.3254
G01 X7.8915 Y0.3176
G01 X7.9078 Y0.3078
G01 X7.9203 Y0.3014
G01 X7.9380 Y0.2940
G01 X7.9513 Y0.2896
G01 X7.9638 Y0.2862
G01 X7.9808 Y0.2828
G01 X7.9965 Y0.2809
G01 X8.0162 Y0.2800
G01 X8.2154 Y0.2800
G01 X8.7814 Y-0.2818
G01 X8.7814 Y-1.7729
G01 X8.7817 Y-1.7852
G01 X8.7825 Y-1.7956
G01 X8.7853 Y-1.8145
G01 X8.7887 Y-1.8300
G01 X8.7949 Y-1.8498
G01 X8.7995 Y-1.8614
G01 X8.8069 Y-1.8771
G01 X8.8133 Y-1.8886
G01 X8.8190 Y-1.8976
G01 X8.8268 Y-1.9086
G01 X8.8382 Y-1.9225
G01 X8.8474 Y-1.9323
G01 X8.8560 Y-1.9405
G01 X8.8657 Y-1.9487
G01 X8.8796 Y-1.9590
G01 X8.8912 Y-1.9665
G01 X8.9005 Y-1.9717
G01 X8.9126 Y-1.9777
G01 X8.9286 Y-1.9844
G01 X8.9419 Y-1.9888
G01 X8.9521 Y-1.9916
G01 X8.9652 Y-1.9945
G01 X8.9823 Y-1.9970
G01 X8.9946 Y-1.9980
G01 X9.0068 Y-1.9984
G01 X9.3904 Y-1.9984
G01 X9.4026 Y-1.9980
G01 X9.4130 Y-1.9972
G01 X9.4333 Y-1.9943
G01 X9.4535 Y-1.9893
G01 X9.4686 Y-1.9844
G01 X9.4863 Y-1.9770
G01 X9.5042 Y-1.9675
G01 X9.5176 Y-1.9590
G01 X9.5332 Y-1.9474
G01 X9.5412 Y-1.9405
G01 X9.5498 Y-1.9323
G01 X9.5580 Y-1.9237
G01 X9.5648 Y-1.9157
G01 X9.5765 Y-1.9002
G01 X9.5850 Y-1.8867
G01 X9.5944 Y-1.8689
G01 X9.6018 Y-1.8511
G01 X9.6068 Y-1.8360
G01 X9.6117 Y-1.8158
G01 X9.6145 Y-1.7974
G01 X9.6155 Y-1.7852
G01 X9.6158 Y-1.7729
G01 X9.6158 Y-0.2818
G01 X10.1818 Y0.2800
G01 X10.3109 Y0.2802
G01 X10.3219 Y0.2809
G01 X10.3329 Y0.2821
G01 X10.3486 Y0.2848
G01 X10.3654 Y0.2890
G01 X10.3792 Y0.2935
G01 X10.3907 Y0.2981
G01 X10.4064 Y0.3055
G01 X10.4179 Y0.3119
G01 X10.4295 Y0.3194
G01 X10.4434 Y0.3297
G01 X10.4531 Y0.3379
G01 X10.4617 Y0.3460
G01 X10.4698 Y0.3546
G01 X10.4823 Y0.3698
G01 X10.4944 Y0.3875
G01 X10.5022 Y0.4013
G01 X10.5103 Y0.4186
G01 X10.5142 Y0.4285
G01 X10.5181 Y0.4405
G01 X10.5210 Y0.4507
G01 X10.5236 Y0.4625
G01 X10.5265 Y0.4820
G01 X11.2135 Y1.1690
G01 X12.1850 Y1.1690
G01 X12.8708 Y0.4832
G01 X12.8708 Y-0.4832
G01 X12.1850 Y-1.1690
G01 X11.2133 Y-1.1690
G01 X10.5655 Y-0.5235
G01 X10.5580 Y-0.5164
G01 X10.5472 Y-0.5072
G01 X10.5384 Y-0.5005
G01 X10.5240 Y-0.4910
G01 X10.5102 Y-0.4831
G01 X10.5003 Y-0.4783
G01 X10.4901 Y-0.4739
G01 X10.4712 Y-0.4673
G01 X10.4614 Y-0.4646
G01 X10.4477 Y-0.4616
G01 X10.4388 Y-0.4601
G01 X10.4267 Y-0.4587
G01 X10.4062 Y-0.4578
G01 X10.3940 Y-0.4581
G01 X10.3836 Y-0.4590
G01 X10.3737 Y-0.4602
G01 X10.3614 Y-0.4623
G01 X10.3490 Y-0.4652
G01 X10.3395 Y-0.4680
G01 X10.3194 Y-0.4753
G01 X10.3008 Y-0.4840
G01 X10.2830 Y-0.4946
G01 X10.2700 Y-0.5037
G01 X10.2614 Y-0.5106
G01 X10.2531 Y-0.5179
G01 X10.2396 Y-0.5315
G01 X10.2319 Y-0.5405
G01 X10.2246 Y-0.5499
G01 X10.2142 Y-0.5654
G01 X10.2071 Y-0.5778
G01 X10.1990 Y-0.5948
G01 X10.1942 Y-0.6070
G01 X10.1883 Y-0.6262
G01 X10.1850 Y-0.6404
G01 X10.1823 Y-0.6588
G01 X10.1811 Y-0.6746
G01 X10.1809 Y-1.7729
G01 X10.1813 Y-1.7852
G01 X10.1821 Y-1.7956
G01 X10.1833 Y-1.8055
G01 X10.1857 Y-1.8193
G01 X10.1900 Y-1.8360
G01 X10.1933 Y-1.8466
G01 X10.1983 Y-1.8598
G01 X10.2023 Y-1.8689
G01 X10.2076 Y-1.8792
G01 X10.2128 Y-1.8886
G01 X10.2185 Y-1.8976
G01 X10.2263 Y-1.9086
G01 X10.2336 Y-1.9178
G01 X10.2453 Y-1.9306
G01 X10.2556 Y-1.9405
G01 X10.2636 Y-1.9474
G01 X10.2740 Y-1.9554
G01 X10.2831 Y-1.9617
G01 X10.3001 Y-1.9717
G01 X10.3104 Y-1.9770
G01 X10.3223 Y-1.9821
G01 X10.3327 Y-1.9860
G01 X10.3433 Y-1.9893
G01 X10.3539 Y-1.9922
G01 X10.3709 Y-1.9956
G01 X10.3867 Y-1.9975
G01 X10.4040 Y-1.9984
G01 X10.4984 Y-1.9984
G01 X10.4984 Y-3.1985
G01 X10.3825 Y-3.1986
G01 X10.3666 Y-3.1998
G01 X10.3482 Y-3.2026
G01 X10.3364 Y-3.2052
G01 X10.3234 Y-3.2089
G01 X10.3071 Y-3.2147
G01 X10.2969 Y-3.2191
G01 X10.2848 Y-3.2251
G01 X10.2755 Y-3.2304
G01 X10.2664 Y-3.2361
G01 X10.2555 Y-3.2439
G01 X10.2415 Y-3.2553
G01 X10.2317 Y-3.2645
G01 X9.7449 Y-3.7514
G01 X9.7315 Y-3.7663
G01 X9.7199 Y-3.7818
G01 X9.7114 Y-3.7952
G01 X9.7032 Y-3.8105
G01 X9.6980 Y-3.8222
G01 X9.6941 Y-3.8321
G01 X9.6901 Y-3.8441
G01 X9.6867 Y-3.8566
G01 X9.6834 Y-3.8736
G01 X9.6819 Y-3.8846
G01 X9.6809 Y-3.8968
G01 X9.6806 Y-3.9066
G01 X9.6805 Y-4.8184
G01 X9.6814 Y-4.8381
G01 X9.6834 Y-4.8538
G01 X9.6867 Y-4.8708
G01 X9.6910 Y-4.8861
G01 X9.6980 Y-4.9053
G01 X9.7060 Y-4.9225
G01 X9.7139 Y-4.9363
G01 X9.7235 Y-4.9507
G01 X9.7333 Y-4.9633
G01 X9.7466 Y-4.9778
G01 X9.7611 Y-4.9911
G01 X9.7736 Y-5.0009
G01 X9.7903 Y-5.0119
G01 X9.8074 Y-5.0211
G01 X9.8220 Y-5.0276
G01 X9.8410 Y-5.0343
G01 X9.8597 Y-5.0390
G01 X9.8734 Y-5.0415
G01 X9.8925 Y-5.0434
G01 X9.9060 Y-5.0438
G01 X10.8915 Y-5.0438
G01 X10.9038 Y-5.0435
G01 X10.9241 Y-5.0415
G01 X10.9440 Y-5.0376
G01 X10.9593 Y-5.0334
G01 X10.9784 Y-5.0264
G01 X10.9957 Y-5.0183
G01 X11.0095 Y-5.0105
G01 X11.0272 Y-4.9984
G01 X11.0411 Y-4.9870
G01 X11.0509 Y-4.9778
G01 X11.0602 Y-4.9680
G01 X11.0716 Y-4.9541
G01 X11.0794 Y-4.9431
G01 X11.0861 Y-4.9322
G01 X11.0943 Y-4.9169
G01 X11.0996 Y-4.9053
G01 X11.1037 Y-4.8946
G01 X11.2821 Y-4.7162
G01 X12.7158 Y-4.7162
G01 X12.8809 Y-4.8813
G01 X12.8811 Y-4.9997
G01 X12.8823 Y-5.0156
G01 X12.8851 Y-5.0340
G01 X12.8877 Y-5.0458
G01 X12.8914 Y-5.0589
G01 X12.8972 Y-5.0751
G01 X12.9024 Y-5.0870
G01 X12.9076 Y-5.0974
G01 X12.9143 Y-5.1091
G01 X12.9203 Y-5.1184
G01 X12.9306 Y-5.1322
G01 X12.9388 Y-5.1419
G01 X12.9470 Y-5.1505
G01 X13.5159 Y-5.7195
G01 X13.5159 Y-6.4776
G01 X13.3339 Y-6.6597
G01 X13.3206 Y-6.6746
G01 X13.3150 Y-6.6817
G01 X13.3072 Y-6.6926
G01 X13.3015 Y-6.7017
G01 X13.2962 Y-6.7111
G01 X13.2877 Y-6.7289
G01 X13.2820 Y-6.7437
G01 X13.2763 Y-6.7626
G01 X13.2737 Y-6.7744
G01 X13.2719 Y-6.7848
G01 X13.2700 Y-6.8039
G01 X13.2696 Y-6.8198
G01 X13.2707 Y-6.8400
G01 X13.2724 Y-6.8528
G01 X13.2758 Y-6.8698
G01 X13.2791 Y-6.8823
G01 X13.2836 Y-6.8956
G01 X13.2902 Y-6.9116
G01 X13.2962 Y-6.9237
G01 X13.3029 Y-6.9353
G01 X13.3125 Y-6.9497
G01 X13.3206 Y-6.9602
G01 X13.3296 Y-6.9705
G01 X13.3418 Y-6.9828
G01 X13.3522 Y-6.9918
G01 X13.3627 Y-6.9999
G01 X13.3771 Y-7.0095
G01 X13.3887 Y-7.0162
G01 X13.3991 Y-7.0214
G01 X13.4181 Y-7.0293
G01 X13.4300 Y-7.0333
G01 X13.4403 Y-7.0361
G01 X13.4521 Y-7.0387
G01 X13.4625 Y-7.0405
G01 X13.4815 Y-7.0424
G01 X13.4950 Y-7.0428
G01 X13.7039 Y-7.0428
G01 X13.7039 Y-7.6231
G01 X13.6100 Y-7.6231
G01 X13.6057 Y-7.6197
G01 X13.5977 Y-7.6144
G01 X13.5892 Y-7.6098
G01 X13.5803 Y-7.6061
G01 X13.5711 Y-7.6033
G01 X13.5617 Y-7.6014
G01 X13.5471 Y-7.6003
G01 X11.9494 Y-7.6003
G01 X11.9348 Y-7.6014
G01 X11.9254 Y-7.6033
G01 X11.9162 Y-7.6061
G01 X11.9073 Y-7.6098
G01 X11.8988 Y-7.6144
G01 X11.8908 Y-7.6197
G01 X11.8865 Y-7.6231
G01 X11.2745 Y-7.6231
G01 X11.1170 Y-7.4656
G01 X11.1170 Y-7.1806
G01 X11.1166 Y-7.1671
G01 X11.1158 Y-7.1579
G01 X11.1142 Y-7.1451
G01 X11.1108 Y-7.1281
G01 X11.1079 Y-7.1175
G01 X11.1035 Y-7.1037
G01 X11.0996 Y-7.0937
G01 X11.0956 Y-7.0846
G01 X11.0903 Y-7.0743
G01 X11.0851 Y-7.0649
G01 X11.0776 Y-7.0533
G01 X11.0673 Y-7.0394
G01 X11.0591 Y-7.0298
G01 X11.0509 Y-7.0212
G01 X11.0411 Y-7.0119
G01 X11.0272 Y-7.0005
G01 X11.0162 Y-6.9927
G01 X11.0072 Y-6.9870
G01 X10.9957 Y-6.9806
G01 X10.9800 Y-6.9732
G01 X10.9684 Y-6.9686
G01 X10.9565 Y-6.9647
G01 X10.9440 Y-6.9613
G01 X10.9270 Y-6.9579
G01 X10.9160 Y-6.9565
G01 X10.9038 Y-6.9555
G01 X10.8915 Y-6.9551
G01 X8.1249 Y-6.9551
G01 X8.1249 Y-6.8613
G01 X8.1283 Y-6.8570
G01 X8.1336 Y-6.8490
G01 X8.1382 Y-6.8405
G01 X8.1419 Y-6.8316
G01 X8.1447 Y-6.8224
G01 X8.1466 Y-6.8129
G01 X8.1477 Y-6.7983
G01 X8.1477 Y-5.2007
G01 X8.1472 Y-5.1908
G01 X8.1447 Y-5.1766
G01 X8.1401 Y-5.1629
G01 X8.1336 Y-5.1500
G01 X8.1253 Y-5.1382
G01 X8.1154 Y-5.1277
G01 X8.1040 Y-5.1189
G01 X8.0914 Y-5.1117
G01 X8.0779 Y-5.1065
G01 X8.0639 Y-5.1033
G01 X8.0493 Y-5.1022
G01 X7.7495 Y-5.1022
G01 X7.7397 Y-5.1027
G01 X7.7302 Y-5.1042
G01 X7.7209 Y-5.1065
G01 X7.7074 Y-5.1117
G01 X7.6948 Y-5.1189
G01 X7.6834 Y-5.1277
G01 X7.6735 Y-5.1382
G01 X7.6652 Y-5.1500
G01 X7.6587 Y-5.1629
G01 X7.6541 Y-5.1766
G01 X7.6516 Y-5.1908
G01 X7.6511 Y-5.2007
G01 X7.6511 Y-6.7983
G01 X7.6522 Y-6.8129
G01 X7.6541 Y-6.8224
G01 X7.6569 Y-6.8316
G01 X7.6606 Y-6.8405
G01 X7.6652 Y-6.8490
G01 X7.6705 Y-6.8570
G01 X7.6739 Y-6.8613
G01 X7.6739 Y-6.9551
G01 X5.7302 Y-6.9551
G01 X5.7180 Y-6.9555
G01 X5.6996 Y-6.9572
G01 X5.6873 Y-6.9592
G01 X5.6731 Y-6.9625
G01 X5.6533 Y-6.9686
G01 X5.6360 Y-6.9758
G01 X5.6239 Y-6.9818
G01 X5.6123 Y-6.9885
G01 X5.5979 Y-6.9981
G01 X5.5854 Y-7.0078
G01 X5.5708 Y-7.0212
G01 X5.5616 Y-7.0310
G01 X5.5506 Y-7.0443
G01 X5.5424 Y-7.0559
G01 X5.5326 Y-7.0722
G01 X5.5262 Y-7.0846
G01 X5.5210 Y-7.0965
G01 X5.5143 Y-7.1156
G01 X5.5115 Y-7.1258
G01 X5.5089 Y-7.1377
G01 X5.5059 Y-7.1579
G01 X5.5051 Y-7.1683
G01 X5.5048 Y-7.1806
G01 X5.5048 Y-10.6229
G01 X5.4109 Y-10.6229
G01 X5.4066 Y-10.6195
G01 X5.3986 Y-10.6141
G01 X5.3901 Y-10.6096
G01 X5.3812 Y-10.6059
G01 X5.3720 Y-10.6031
G01 X5.3626 Y-10.6012
G01 X5.3480 Y-10.6001
G01 X3.7503 Y-10.6001
G01 X3.7357 Y-10.6012
G01 X3.7216 Y-10.6044
G01 X3.7082 Y-10.6096
G01 X3.6997 Y-10.6141
G01 X3.6917 Y-10.6195
G01 X3.6842 Y-10.6256
G01 X3.6774 Y-10.6324
G01 X3.6685 Y-10.6438
G01 X3.6614 Y-10.6563
G01 X3.6562 Y-10.6698
G01 X3.6530 Y-10.6839
G01 X3.6519 Y-10.6985
G01 X3.6519 Y-10.9982
G01 X3.6524 Y-11.0080
G01 X3.6538 Y-11.0175
G01 X3.6577 Y-11.0315
G01 X3.6636 Y-11.0447
G01 X3.6713 Y-11.0568
G01 X3.6807 Y-11.0678
G01 X3.6917 Y-11.0772
G01 X3.7039 Y-11.0849
G01 X3.7171 Y-11.0908
G01 X3.7310 Y-11.0947
G01 X3.7405 Y-11.0961
G01 X3.7503 Y-11.0966
G01 X5.3480 Y-11.0966
G01 X5.3626 Y-11.0955
G01 X5.3720 Y-11.0936
G01 X5.3812 Y-11.0908
G01 X5.3901 Y-11.0871
G01 X5.3986 Y-11.0826
G01 X5.4066 Y-11.0772
G01 X5.4109 Y-11.0738
G01 X5.5048 Y-11.0738
G01 X5.5048 Y-12.1240
G01 X5.4109 Y-12.1240
G01 X5.4066 Y-12.1206
G01 X5.3986 Y-12.1153
G01 X5.3901 Y-12.1107
G01 X5.3812 Y-12.1070
G01 X5.3720 Y-12.1042
G01 X5.3626 Y-12.1023
G01 X5.3480 Y-12.1012
G01 X3.7503 Y-12.1012
G01 X3.7357 Y-12.1023
G01 X3.7263 Y-12.1042
G01 X3.7171 Y-12.1070
G01 X3.7082 Y-12.1107
G01 X3.6997 Y-12.1153
G01 X3.6917 Y-12.1206
G01 X3.6874 Y-12.1240
G01 X3.5935 Y-12.1240
G00 Z1.0000
G00 X4.0406 Y-13.2851
G01 F20.00
G01 Z-0.0600
G01 F20.00
G01 X4.0292 Y-13.2944
G01 X3.9973 Y-13.3220
G01 X3.9634 Y-13.3541
G01 X3.9277 Y-13.3910
G01 X3.9100 Y-13.4111
G01 X3.9100 Y-13.2851
G01 X4.0406 Y-13.2851
G00 Z1.0000
G00 X3.4976 Y-14.3250
G01 F20.00
G01 Z-0.0600
G01 F20.00
G01 X3.8689 Y-14.3250
G01 X3.8755 Y-14.3488
G01 X3.8881 Y-14.3871
G01 X3.9044 Y-14.4294
G01 X3.9223 Y-14.4696
G01 X3.9402 Y-14.5052
G01 X3.9522 Y-14.5263
G01 X3.4043 Y-15.0730
G01 X1.8917 Y-15.0730
G01 X1.3253 Y-14.5065
G01 X1.3253 Y-13.5909
G01 X3.4589 Y-11.4573
G01 X3.4681 Y-11.4475
G01 X3.4791 Y-11.4342
G01 X3.4873 Y-11.4226
G01 X3.4930 Y-11.4136
G01 X3.4994 Y-11.4021
G01 X3.5068 Y-11.3864
G01 X3.5114 Y-11.3748
G01 X3.5154 Y-11.3629
G01 X3.5201 Y-11.3443
G01 X3.5226 Y-11.3305
G01 X3.5245 Y-11.3114
G01 X3.5249 Y-11.2979
G01 X3.5249 Y-7.0911
G01 X4.0067 Y-6.6093
G01 X4.0337 Y-6.6441
G01 X4.0631 Y-6.6781
G01 X4.0906 Y-6.7069
G01 X4.1194 Y-6.7344
G01 X4.1534 Y-6.7638
G01 X4.1851 Y-6.7886
G01 X4.2230 Y-6.8153
G01 X4.2588 Y-6.8377
G01 X4.2934 Y-6.8573
G01 X4.3290 Y-6.8753
G01 X4.3691 Y-6.8932
G01 X4.4082 Y-6.9083
G01 X4.4497 Y-6.9220
G01 X4.4923 Y-6.9337
G01 X4.5322 Y-6.9426
G01 X4.5704 Y-6.9492
G01 X4.6123 Y-6.9545
G01 X4.6556 Y-6.9578
G01 X4.7014 Y-6.9589
G01 X4.7436 Y-6.9578
G01 X4.7839 Y-6.9547
G01 X4.8229 Y-6.9500
G01 X4.8658 Y-6.9426
G01 X4.9080 Y-6.9332
G01 X4.9483 Y-6.9220
G01 X4.9911 Y-6.9078
G01 X5.0289 Y-6.8932
G01 X5.0647 Y-6.8773
G01 X5.1046 Y-6.8573
G01 X5.1411 Y-6.8367
G01 X5.1790 Y-6.8126
G01 X5.2129 Y-6.7886
G01 X5.2429 Y-6.7651
G01 X5.2762 Y-6.7366
G01 X5.3074 Y-6.7069
G01 X5.3381 Y-6.6745
G01 X5.3643 Y-6.6441
G01 X5.3886 Y-6.6130
G01 X5.4148 Y-6.5760
G01 X5.4371 Y-6.5406
G01 X5.4589 Y-6.5020
G01 X5.4770 Y-6.4659
G01 X5.4930 Y-6.4300
G01 X5.5083 Y-6.3907
G01 X5.5225 Y-6.3478
G01 X5.5336 Y-6.3076
G01 X5.5431 Y-6.2653
G01 X5.5502 Y-6.2243
G01 X5.5552 Y-6.1834
G01 X5.5585 Y-6.1383
G01 X5.5594 Y-6.0985
G01 X5.5585 Y-6.0587
G01 X5.5555 Y-6.0166
G01 X5.5502 Y-5.9728
G01 X5.5431 Y-5.9317
G01 X5.5336 Y-5.8895
G01 X5.5216 Y-5.8465
G01 X5.5088 Y-5.8077
G01 X5.4948 Y-5.7715
G01 X5.4778 Y-5.7329
G01 X5.4578 Y-5.6929
G01 X5.4371 Y-5.6565
G01 X5.4130 Y-5.6185
G01 X5.3890 Y-5.5846
G01 X5.3656 Y-5.5546
G01 X5.3370 Y-5.5213
G01 X5.3057 Y-5.4885
G01 X5.2762 Y-5.4605
G01 X5.2467 Y-5.4350
G01 X5.2135 Y-5.4089
G01 X5.1765 Y-5.3828
G01 X5.1392 Y-5.3593
G01 X5.1046 Y-5.3397
G01 X5.0690 Y-5.3218
G01 X5.0289 Y-5.3039
G01 X4.9866 Y-5.2876
G01 X4.9483 Y-5.2750
G01 X4.9245 Y-5.2684
G01 X4.9245 Y-5.0235
G01 X7.1736 Y-5.0235
G01 X7.1736 Y-5.1377
G01 X7.1701 Y-5.1420
G01 X7.1648 Y-5.1500
G01 X7.1602 Y-5.1585
G01 X7.1565 Y-5.1674
G01 X7.1537 Y-5.1766
G01 X7.1518 Y-5.1861
G01 X7.1508 Y-5.2007
G01 X7.1508 Y-6.7983
G01 X7.1513 Y-6.8081
G01 X7.1537 Y-6.8224
G01 X7.1583 Y-6.8361
G01 X7.1648 Y-6.8490
G01 X7.1731 Y-6.8608
G01 X7.1831 Y-6.8712
G01 X7.1945 Y-6.8801
G01 X7.2070 Y-6.8872
G01 X7.2205 Y-6.8924
G01 X7.2346 Y-6.8956
G01 X7.2492 Y-6.8967
G01 X7.5539 Y-6.8966
G01 X7.5635 Y-6.8956
G01 X7.5776 Y-6.8924
G01 X7.5866 Y-6.8892
G01 X7.5995 Y-6.8827
G01 X7.6075 Y-6.8773
G01 X7.6185 Y-6.8679
G01 X7.6249 Y-6.8608
G01 X7.6332 Y-6.8490
G01 X7.6398 Y-6.8361
G01 X7.6430 Y-6.8270
G01 X7.6462 Y-6.8129
G01 X7.6472 Y-6.8033
G01 X7.6472 Y-5.1956
G01 X7.6462 Y-5.1861
G01 X7.6443 Y-5.1766
G01 X7.6398 Y-5.1629
G01 X7.6332 Y-5.1500
G01 X7.6279 Y-5.1420
G01 X7.6245 Y-5.1377
G01 X7.6245 Y-4.7956
G01 X7.6236 Y-4.7784
G01 X7.6221 Y-4.7655
G01 X7.6204 Y-4.7551
G01 X7.6171 Y-4.7409
G01 X7.6140 Y-4.7303
G01 X7.6082 Y-4.7140
G01 X7.6031 Y-4.7021
G01 X7.5978 Y-4.6918
G01 X7.5926 Y-4.6824
G01 X7.5851 Y-4.6708
G01 X7.5748 Y-4.6569
G01 X7.5677 Y-4.6485
G01 X7.5584 Y-4.6386
G01 X7.5498 Y-4.6305
G01 X7.5418 Y-4.6236
G01 X7.5314 Y-4.6156
G01 X7.5223 Y-4.6093
G01 X7.5074 Y-4.6004
G01 X7.4950 Y-4.5940
G01 X7.4859 Y-4.5900
G01 X7.4759 Y-4.5861
G01 X7.4640 Y-4.5822
G01 X7.4538 Y-4.5793
G01 X7.4419 Y-4.5767
G01 X7.4217 Y-4.5737
G01 X7.4113 Y-4.5729
G01 X7.3990 Y-4.5726
G01 X4.6990 Y-4.5726
G01 X4.6868 Y-4.5729
G01 X4.6745 Y-4.5739
G01 X4.6574 Y-4.5765
G01 X4.6443 Y-4.5793
G01 X4.6340 Y-4.5822
G01 X4.6208 Y-4.5866
G01 X4.6048 Y-4.5932
G01 X4.5927 Y-4.5992
G01 X4.5833 Y-4.6045
G01 X4.5717 Y-4.6120
G01 X4.5579 Y-4.6223
G01 X4.5494 Y-4.6294
G01 X4.5396 Y-4.6386
G01 X4.5314 Y-4.6472
G01 X4.5245 Y-4.6553
G01 X4.5165 Y-4.6657
G01 X4.5102 Y-4.6748
G01 X4.5013 Y-4.6897
G01 X4.4950 Y-4.7021
G01 X4.4910 Y-4.7112
G01 X4.4871 Y-4.7211
G01 X4.4831 Y-4.7331
G01 X4.4803 Y-4.7433
G01 X4.4774 Y-4.7564
G01 X4.4747 Y-4.7754
G01 X4.4739 Y-4.7858
G01 X4.4735 Y-4.7981
G01 X4.4735 Y-5.2684
G01 X4.4497 Y-5.2750
G01 X4.4082 Y-5.2888
G01 X4.3691 Y-5.3039
G01 X4.3333 Y-5.3197
G01 X4.2913 Y-5.3409
G01 X4.2569 Y-5.3604
G01 X4.2230 Y-5.3818
G01 X4.1845 Y-5.4089
G01 X4.1534 Y-5.4333
G01 X4.1218 Y-5.4605
G01 X4.0889 Y-5.4919
G01 X4.0610 Y-5.5213
G01 X4.0355 Y-5.5509
G01 X4.0090 Y-5.5846
G01 X3.9850 Y-5.6185
G01 X3.9598 Y-5.6583
G01 X3.9402 Y-5.6929
G01 X3.9210 Y-5.7311
G01 X3.9044 Y-5.7687
G01 X3.8881 Y-5.8110
G01 X3.8755 Y-5.8493
G01 X3.8644 Y-5.8895
G01 X3.8549 Y-5.9317
G01 X3.8478 Y-5.9728
G01 X3.8428 Y-6.0137
G01 X3.8397 Y-6.0551
G01 X3.8386 Y-6.0985
G01 X3.8396 Y-6.1387
G01 X3.1383 Y-6.8400
G01 X3.1250 Y-6.8549
G01 X3.1194 Y-6.8620
G01 X3.1116 Y-6.8730
G01 X3.1059 Y-6.8820
G01 X3.1006 Y-6.8914
G01 X3.0954 Y-6.9018
G01 X3.0914 Y-6.9108
G01 X3.0875 Y-6.9208
G01 X3.0836 Y-6.9327
G01 X3.0807 Y-6.9430
G01 X3.0781 Y-6.9548
G01 X3.0751 Y-6.9751
G01 X3.0743 Y-6.9855
G01 X3.0740 Y-6.9977
G01 X3.0740 Y-11.2045
G01 X0.9404 Y-13.3381
G01 X0.9322 Y-13.3467
G01 X0.9254 Y-13.3548
G01 X0.9173 Y-13.3652
G01 X0.9110 Y-13.3743
G01 X0.9021 Y-13.3892
G01 X0.8958 Y-13.4016
G01 X0.8906 Y-13.4135
G01 X0.8848 Y-13.4298
G01 X0.8806 Y-13.4451
G01 X0.8772 Y-13.4621
G01 X0.8755 Y-13.4749
G01 X0.8745 Y-13.4889
G01 X0.8744 Y-14.5999
G01 X0.8747 Y-14.6122
G01 X0.8757 Y-14.6244
G01 X0.8785 Y-14.6428
G01 X0.8834 Y-14.6630
G01 X0.8879 Y-14.6768
G01 X0.8950 Y-14.6941
G01 X0.9021 Y-14.7083
G01 X0.9120 Y-14.7246
G01 X0.9202 Y-14.7362
G01 X0.9322 Y-14.7507
G01 X0.9404 Y-14.7593
G01 X1.6389 Y-15.4578
G01 X1.6475 Y-15.4660
G01 X1.6555 Y-15.4729
G01 X1.6711 Y-15.4845
G01 X1.6827 Y-15.4920
G01 X1.6899 Y-15.4961
G01 X1.7041 Y-15.5032
G01 X1.7214 Y-15.5104
G01 X1.7333 Y-15.5143
G01 X1.7436 Y-15.5171
G01 X1.7554 Y-15.5198
G01 X1.7658 Y-15.5215
G01 X1.7861 Y-15.5235
G01 X1.7983 Y-15.5239
G01 X3.4976 Y-15.5239
G01 X3.5099 Y-15.5235
G01 X3.5200 Y-15.5228
G01 X3.5405 Y-15.5198
G01 X3.5546 Y-15.5165
G01 X3.5712 Y-15.5115
G01 X3.5860 Y-15.5058
G01 X3.6016 Y-15.4984
G01 X3.6154 Y-15.4906
G01 X3.6298 Y-15.4810
G01 X3.6413 Y-15.4721
G01 X3.6506 Y-15.4640
G01 X4.2707 Y-14.8455
G01 X4.2934 Y-14.8583
G01 X4.3290 Y-14.8763
G01 X4.3675 Y-14.8935
G01 X4.4082 Y-14.9093
G01 X4.4497 Y-14.9230
G01 X4.4900 Y-14.9342
G01 X4.5335 Y-14.9438
G01 X4.5733 Y-14.9507
G01 X4.6123 Y-14.9555
G01 X4.6556 Y-14.9588
G01 X4.6990 Y-14.9599
G01 X4.7436 Y-14.9588
G01 X4.7839 Y-14.9557
G01 X4.8229 Y-14.9510
G01 X4.8645 Y-14.9438
G01 X4.9080 Y-14.9342
G01 X4.9483 Y-14.9230
G01 X4.9898 Y-14.9093
G01 X5.0305 Y-14.8935
G01 X5.0664 Y-14.8775
G01 X5.1024 Y-14.8595
G01 X5.1392 Y-14.8387
G01 X5.1765 Y-14.8153
G01 X5.2096 Y-14.7920
G01 X5.2446 Y-14.7648
G01 X5.2762 Y-14.7376
G01 X5.3074 Y-14.7079
G01 X5.3381 Y-14.6755
G01 X5.3656 Y-14.6435
G01 X5.3890 Y-14.6135
G01 X5.4130 Y-14.5795
G01 X5.4371 Y-14.5416
G01 X5.4578 Y-14.5052
G01 X5.4770 Y-14.4669
G01 X5.4948 Y-14.4266
G01 X5.5099 Y-14.3871
G01 X5.5225 Y-14.3488
G01 X5.5330 Y-14.3109
G01 X5.5431 Y-14.2663
G01 X5.5502 Y-14.2253
G01 X5.5552 Y-14.1844
G01 X5.5585 Y-14.1393
G01 X5.5594 Y-14.0995
G01 X5.5585 Y-14.0597
G01 X5.5555 Y-14.0176
G01 X5.5502 Y-13.9738
G01 X5.5431 Y-13.9327
G01 X5.5336 Y-13.8905
G01 X5.5225 Y-13.8503
G01 X5.5088 Y-13.8087
G01 X5.4930 Y-13.7681
G01 X5.4770 Y-13.7321
G01 X5.4589 Y-13.6961
G01 X5.4382 Y-13.6593
G01 X5.4148 Y-13.6221
G01 X5.3915 Y-13.5890
G01 X5.3625 Y-13.5519
G01 X5.3370 Y-13.5223
G01 X5.3091 Y-13.4929
G01 X5.2762 Y-13.4615
G01 X5.2429 Y-13.4329
G01 X5.2129 Y-13.4095
G01 X5.1790 Y-13.3855
G01 X5.1411 Y-13.3614
G01 X5.1024 Y-13.3396
G01 X5.0664 Y-13.3215
G01 X5.0289 Y-13.3049
G01 X4.9866 Y-13.2886
G01 X4.9483 Y-13.2760
G01 X4.9080 Y-13.2649
G01 X4.8645 Y-13.2552
G01 X4.8247 Y-13.2484
G01 X4.7857 Y-13.2435
G01 X4.7388 Y-13.2401
G01 X4.6990 Y-13.2391
G01 X4.6592 Y-13.2401
G01 X4.6141 Y-13.2433
G01 X4.5704 Y-13.2488
G01 X4.5322 Y-13.2555
G01 X4.4923 Y-13.2644
G01 X4.4516 Y-13.2755
G01 X4.4082 Y-13.2898
G01 X4.3691 Y-13.3049
G01 X4.3290 Y-13.3228
G01 X4.2934 Y-13.3407
G01 X4.2588 Y-13.3603
G01 X4.2215 Y-13.3838
G01 X4.1851 Y-13.4095
G01 X4.1534 Y-13.4343
G01 X4.1218 Y-13.4615
G01 X4.0906 Y-13.4911
G01 X4.0631 Y-13.5200
G01 X4.0324 Y-13.5556
G01 X4.0090 Y-13.5856
G01 X3.9832 Y-13.6221
G01 X3.9609 Y-13.6575
G01 X3.9414 Y-13.6918
G01 X3.9202 Y-13.7339
G01 X3.9044 Y-13.7697
G01 X3.8892 Y-13.8087
G01 X3.8755 Y-13.8503
G01 X3.8689 Y-13.8741
G01 X3.7230 Y-13.8741
G01 X3.7230 Y-13.0942
G01 X3.7357 Y-13.0970
G01 X3.7503 Y-13.0981
G01 X5.3480 Y-13.0981
G01 X5.3578 Y-13.0976
G01 X5.3720 Y-13.0951
G01 X5.3857 Y-13.0906
G01 X5.3986 Y-13.0841
G01 X5.4104 Y-13.0758
G01 X5.4209 Y-13.0658
G01 X5.4298 Y-13.0544
G01 X5.4347 Y-13.0462
G01 X5.4388 Y-13.0375
G01 X5.4434 Y-13.0238
G01 X5.4459 Y-13.0095
G01 X5.4464 Y-12.9997
G01 X5.4462 Y-12.6950
G01 X5.4453 Y-12.6854
G01 X5.4434 Y-12.6760
G01 X5.4388 Y-12.6623
G01 X5.4323 Y-12.6494
G01 X5.4270 Y-12.6414
G01 X5.4209 Y-12.6339
G01 X5.4104 Y-12.6240
G01 X5.4027 Y-12.6182
G01 X5.3944 Y-12.6133
G01 X5.3857 Y-12.6091
G01 X5.3767 Y-12.6059
G01 X5.3673 Y-12.6035
G01 X5.3578 Y-12.6021
G01 X5.3480 Y-12.6016
G01 X3.7503 Y-12.6016
G01 X3.7357 Y-12.6027
G01 X3.7263 Y-12.6046
G01 X3.7171 Y-12.6074
G01 X3.7082 Y-12.6111
G01 X3.6997 Y-12.6156
G01 X3.6917 Y-12.6210
G01 X3.6874 Y-12.6244
G01 X3.4952 Y-12.6244
G01 X3.4749 Y-12.6255
G01 X3.4547 Y-12.6285
G01 X3.4405 Y-12.6318
G01 X3.4239 Y-12.6368
G01 X3.4107 Y-12.6418
G01 X3.3990 Y-12.6471
G01 X3.3838 Y-12.6553
G01 X3.3729 Y-12.6620
G01 X3.3613 Y-12.6702
G01 X3.3468 Y-12.6823
G01 X3.3382 Y-12.6904
G01 X3.3300 Y-12.6990
G01 X3.3175 Y-12.7142
G01 X3.3097 Y-12.7251
G01 X3.3040 Y-12.7342
G01 X3.2988 Y-12.7436
G01 X3.2935 Y-12.7539
G01 X3.2856 Y-12.7729
G01 X3.2817 Y-12.7849
G01 X3.2789 Y-12.7951
G01 X3.2762 Y-12.8069
G01 X3.2745 Y-12.8173
G01 X3.2725 Y-12.8376
G01 X3.2721 Y-12.8499
G01 X3.2721 Y-14.0995
G01 X3.2725 Y-14.1118
G01 X3.2733 Y-14.1222
G01 X3.2762 Y-14.1425
G01 X3.2789 Y-14.1543
G01 X3.2817 Y-14.1645
G01 X3.2856 Y-14.1765
G01 X3.2895 Y-14.1864
G01 X3.2976 Y-14.2037
G01 X3.3055 Y-14.2175
G01 X3.3175 Y-14.2352
G01 X3.3300 Y-14.2504
G01 X3.3382 Y-14.2590
G01 X3.3468 Y-14.2671
G01 X3.3619 Y-14.2796
G01 X3.3729 Y-14.2874
G01 X3.3819 Y-14.2931
G01 X3.3913 Y-14.2984
G01 X3.4016 Y-14.3036
G01 X3.4194 Y-14.3110
G01 X3.4345 Y-14.3160
G01 X3.4428 Y-14.3183
G01 X3.4560 Y-14.3211
G01 X3.4749 Y-14.3239
G01 X3.4853 Y-14.3247
G01 X3.4976 Y-14.3250
G00 Z1.0000
G00 X5.7430 Y-15.0957
G01 F20.00
G01 Z-0.0600
G01 F20.00
G01 X6.0477 Y-15.0958
G01 X6.0576 Y-15.0953
G01 X6.0671 Y-15.0939
G01 X6.0810 Y-15.0900
G01 X6.0942 Y-15.0842
G01 X6.1064 Y-15.0764
G01 X6.1173 Y-15.0670
G01 X6.1268 Y-15.0561
G01 X6.1345 Y-15.0439
G01 X6.1404 Y-15.0307
G01 X6.1442 Y-15.0168
G01 X6.1456 Y-15.0072
G01 X6.1461 Y-14.9974
G01 X6.1460 Y-13.3948
G01 X6.1442 Y-13.3804
G01 X6.1419 Y-13.3711
G01 X6.1386 Y-13.3620
G01 X6.1321 Y-13.3491
G01 X6.1268 Y-13.3411
G01 X6.1206 Y-13.3337
G01 X6.1138 Y-13.3269
G01 X6.1064 Y-13.3208
G01 X6.0942 Y-13.3130
G01 X6.0810 Y-13.3072
G01 X6.0671 Y-13.3033
G01 X6.0576 Y-13.3019
G01 X6.0477 Y-13.3014
G01 X5.7480 Y-13.3014
G01 X5.7382 Y-13.3019
G01 X5.7287 Y-13.3033
G01 X5.7148 Y-13.3072
G01 X5.7016 Y-13.3130
G01 X5.6894 Y-13.3208
G01 X5.6784 Y-13.3302
G01 X5.6690 Y-13.3411
G01 X5.6613 Y-13.3533
G01 X5.6554 Y-13.3665
G01 X5.6515 Y-13.3804
G01 X5.6501 Y-13.3900
G01 X5.6496 Y-13.3998
G01 X5.6497 Y-15.0024
G01 X5.6507 Y-15.0120
G01 X5.6526 Y-15.0215
G01 X5.6571 Y-15.0352
G01 X5.6613 Y-15.0439
G01 X5.6662 Y-15.0521
G01 X5.6720 Y-15.0599
G01 X5.6784 Y-15.0670
G01 X5.6856 Y-15.0735
G01 X5.6933 Y-15.0792
G01 X5.7016 Y-15.0842
G01 X5.7103 Y-15.0883
G01 X5.7240 Y-15.0928
G01 X5.7334 Y-15.0947
G01 X5.7430 Y-15.0957
G00 Z1.0000
G00 X6.2434 Y-15.0957
G01 F20.00
G01 Z-0.0600
G01 F20.00
G01 X6.5481 Y-15.0958
G01 X6.5579 Y-15.0953
G01 X6.5675 Y-15.0939
G01 X6.5814 Y-15.0900
G01 X6.5946 Y-15.0842
G01 X6.6068 Y-15.0764
G01 X6.6177 Y-15.0670
G01 X6.6271 Y-15.0561
G01 X6.6349 Y-15.0439
G01 X6.6407 Y-15.0307
G01 X6.6446 Y-15.0168
G01 X6.6460 Y-15.0072
G01 X6.6465 Y-14.9974
G01 X6.6464 Y-13.3948
G01 X6.6446 Y-13.3804
G01 X6.6422 Y-13.3711
G01 X6.6390 Y-13.3620
G01 X6.6325 Y-13.3491
G01 X6.6271 Y-13.3411
G01 X6.6210 Y-13.3337
G01 X6.6106 Y-13.3237
G01 X6.5988 Y-13.3154
G01 X6.5903 Y-13.3109
G01 X6.5814 Y-13.3072
G01 X6.5675 Y-13.3033
G01 X6.5579 Y-13.3019
G01 X6.5481 Y-13.3014
G01 X6.2484 Y-13.3014
G01 X6.2386 Y-13.3019
G01 X6.2291 Y-13.3033
G01 X6.2151 Y-13.3072
G01 X6.2019 Y-13.3130
G01 X6.1898 Y-13.3208
G01 X6.1788 Y-13.3302
G01 X6.1694 Y-13.3411
G01 X6.1617 Y-13.3533
G01 X6.1558 Y-13.3665
G01 X6.1519 Y-13.3804
G01 X6.1505 Y-13.3900
G01 X6.1500 Y-13.3998
G01 X6.1501 Y-15.0024
G01 X6.1511 Y-15.0120
G01 X6.1530 Y-15.0215
G01 X6.1575 Y-15.0352
G01 X6.1617 Y-15.0439
G01 X6.1666 Y-15.0521
G01 X6.1724 Y-15.0599
G01 X6.1788 Y-15.0670
G01 X6.1860 Y-15.0735
G01 X6.1937 Y-15.0792
G01 X6.2019 Y-15.0842
G01 X6.2107 Y-15.0883
G01 X6.2244 Y-15.0928
G01 X6.2338 Y-15.0947
G01 X6.2434 Y-15.0957
G00 Z1.0000
G00 X6.6732 Y-15.0604
G01 F20.00
G01 Z-0.0600
G01 F20.00
G01 X6.6732 Y-17.2008
G01 X6.6741 Y-17.2180
G01 X6.6755 Y-17.2309
G01 X6.6780 Y-17.2447
G01 X6.6822 Y-17.2615
G01 X6.6867 Y-17.2753
G01 X6.6913 Y-17.2868
G01 X6.6987 Y-17.3025
G01 X6.7051 Y-17.3140
G01 X6.7108 Y-17.3231
G01 X6.7190 Y-17.3346
G01 X6.7300 Y-17.3479
G01 X6.7392 Y-17.3578
G01 X9.8406 Y-20.4591
G01 X9.8551 Y-20.4724
G01 X9.8643 Y-20.4797
G01 X9.8727 Y-20.4858
G01 X9.8862 Y-20.4943
G01 X9.9040 Y-20.5037
G01 X9.9231 Y-20.5116
G01 X9.9429 Y-20.5178
G01 X9.9571 Y-20.5210
G01 X9.9773 Y-20.5240
G01 X9.9976 Y-20.5251
G01 X13.2061 Y-20.5251
G01 X13.6734 Y-20.9925
G01 X13.6734 Y-24.7142
G01 X13.6738 Y-24.7264
G01 X13.6746 Y-24.7368
G01 X13.6773 Y-24.7558
G01 X13.6808 Y-24.7713
G01 X13.6869 Y-24.7911
G01 X13.6948 Y-24.8101
G01 X13.7001 Y-24.8205
G01 X13.7068 Y-24.8322
G01 X13.7128 Y-24.8415
G01 X13.7192 Y-24.8504
G01 X13.7261 Y-24.8591
G01 X13.7378 Y-24.8719
G01 X13.8233 Y-24.9574
G01 X13.8378 Y-24.9708
G01 X13.8503 Y-24.9805
G01 X13.8670 Y-24.9916
G01 X13.8786 Y-24.9980
G01 X13.8958 Y-25.0061
G01 X13.9149 Y-25.0130
G01 X13.9303 Y-25.0173
G01 X13.9501 Y-25.0211
G01 X13.9705 Y-25.0231
G01 X13.9827 Y-25.0235
G01 X14.2424 Y-25.0235
G01 X14.2424 Y-25.5600
G01 X14.2429 Y-25.5698
G01 X14.2454 Y-25.5841
G01 X14.2482 Y-25.5933
G01 X14.2519 Y-25.6022
G01 X14.2591 Y-25.6147
G01 X14.2679 Y-25.6261
G01 X14.2784 Y-25.6361
G01 X14.2902 Y-25.6444
G01 X14.2987 Y-25.6489
G01 X14.3076 Y-25.6526
G01 X14.3215 Y-25.6565
G01 X14.3310 Y-25.6579
G01 X14.3408 Y-25.6584
G01 X15.3568 Y-25.6584
G01 X15.3714 Y-25.6573
G01 X15.3809 Y-25.6554
G01 X15.3901 Y-25.6526
G01 X15.3990 Y-25.6489
G01 X15.4075 Y-25.6444
G01 X15.4193 Y-25.6361
G01 X15.4264 Y-25.6296
G01 X15.4359 Y-25.6187
G01 X15.4412 Y-25.6107
G01 X15.4458 Y-25.6022
G01 X15.4510 Y-25.5887
G01 X15.4533 Y-25.5794
G01 X15.4547 Y-25.5698
G01 X15.4552 Y-25.5600
G01 X15.4552 Y-24.0360
G01 X15.4547 Y-24.0262
G01 X15.4533 Y-24.0167
G01 X15.4510 Y-24.0073
G01 X15.4458 Y-23.9939
G01 X15.4412 Y-23.9854
G01 X15.4359 Y-23.9774
G01 X15.4264 Y-23.9664
G01 X15.4193 Y-23.9600
G01 X15.4075 Y-23.9517
G01 X15.3990 Y-23.9471
G01 X15.3901 Y-23.9434
G01 X15.3809 Y-23.9406
G01 X15.3714 Y-23.9387
G01 X15.3568 Y-23.9376
G01 X14.3408 Y-23.9376
G01 X14.3310 Y-23.9381
G01 X14.3215 Y-23.9395
G01 X14.3122 Y-23.9419
G01 X14.2987 Y-23.9471
G01 X14.2861 Y-23.9542
G01 X14.2747 Y-23.9631
G01 X14.2648 Y-23.9736
G01 X14.2591 Y-23.9813
G01 X14.2519 Y-23.9939
G01 X14.2482 Y-24.0028
G01 X14.2454 Y-24.0120
G01 X14.2429 Y-24.0262
G01 X14.2424 Y-24.0360
G01 X14.2424 Y-24.5726
G01 X14.1243 Y-24.5726
G01 X14.1243 Y-20.8967
G01 X14.1232 Y-20.8765
G01 X14.1202 Y-20.8562
G01 X14.1170 Y-20.8420
G01 X14.1108 Y-20.8222
G01 X14.1029 Y-20.8032
G01 X14.0935 Y-20.7853
G01 X14.0850 Y-20.7719
G01 X14.0733 Y-20.7563
G01 X14.0665 Y-20.7483
G01 X14.0583 Y-20.7397
G01 X13.4589 Y-20.1403
G01 X13.4503 Y-20.1321
G01 X13.4357 Y-20.1200
G01 X13.4242 Y-20.1118
G01 X13.4078 Y-20.1020
G01 X13.3954 Y-20.0956
G01 X13.3777 Y-20.0882
G01 X13.3644 Y-20.0838
G01 X13.3519 Y-20.0804
G01 X13.3349 Y-20.0770
G01 X13.3191 Y-20.0751
G01 X13.2994 Y-20.0742
G01 X10.0934 Y-20.0742
G01 X7.1241 Y-17.1049
G01 X7.1241 Y-15.0604
G01 X7.1275 Y-15.0561
G01 X7.1329 Y-15.0481
G01 X7.1374 Y-15.0396
G01 X7.1411 Y-15.0307
G01 X7.1439 Y-15.0215
G01 X7.1458 Y-15.0120
G01 X7.1469 Y-14.9974
G01 X7.1469 Y-13.3998
G01 X7.1458 Y-13.3852
G01 X7.1439 Y-13.3757
G01 X7.1411 Y-13.3665
G01 X7.1352 Y-13.3533
G01 X7.1303 Y-13.3451
G01 X7.1245 Y-13.3373
G01 X7.1181 Y-13.3302
G01 X7.1109 Y-13.3237
G01 X7.0991 Y-13.3154
G01 X7.0906 Y-13.3109
G01 X7.0818 Y-13.3072
G01 X7.0678 Y-13.3033
G01 X7.0583 Y-13.3019
G01 X7.0485 Y-13.3014
G01 X6.7488 Y-13.3014
G01 X6.7390 Y-13.3019
G01 X6.7294 Y-13.3033
G01 X6.7155 Y-13.3072
G01 X6.7023 Y-13.3130
G01 X6.6901 Y-13.3208
G01 X6.6792 Y-13.3302
G01 X6.6698 Y-13.3411
G01 X6.6620 Y-13.3533
G01 X6.6562 Y-13.3665
G01 X6.6523 Y-13.3804
G01 X6.6509 Y-13.3900
G01 X6.6504 Y-13.3998
G01 X6.6504 Y-14.9974
G01 X6.6515 Y-15.0120
G01 X6.6534 Y-15.0215
G01 X6.6562 Y-15.0307
G01 X6.6599 Y-15.0396
G01 X6.6644 Y-15.0481
G01 X6.6698 Y-15.0561
G01 X6.6732 Y-15.0604
G00 Z1.0000
G00 X7.1736 Y-15.0604
G01 F20.00
G01 Z-0.0600
G01 F20.00
G01 X7.1736 Y-16.9010
G01 X7.1744 Y-16.9183
G01 X7.1759 Y-16.9312
G01 X7.1784 Y-16.9450
G01 X7.1826 Y-16.9617
G01 X7.1871 Y-16.9755
G01 X7.1917 Y-16.9871
G01 X7.1991 Y-17.0028
G01 X7.2055 Y-17.0143
G01 X7.2112 Y-17.0233
G01 X7.2194 Y-17.0349
G01 X7.2304 Y-17.0482
G01 X7.2396 Y-17.0580
G01 X10.0404 Y-19.8588
G01 X10.0553 Y-19.8722
G01 X10.0624 Y-19.8778
G01 X10.0734 Y-19.8855
G01 X10.0824 Y-19.8912
G01 X10.0918 Y-19.8965
G01 X10.1022 Y-19.9017
G01 X10.1112 Y-19.9057
G01 X10.1212 Y-19.9096
G01 X10.1331 Y-19.9136
G01 X10.1434 Y-19.9164
G01 X10.1552 Y-19.9190
G01 X10.1755 Y-19.9220
G01 X10.1957 Y-19.9231
G01 X13.5056 Y-19.9232
G01 X14.6234 Y-21.0432
G01 X14.6234 Y-21.2376
G01 X14.3408 Y-21.2376
G01 X14.3310 Y-21.2381
G01 X14.3215 Y-21.2395
G01 X14.3076 Y-21.2434
G01 X14.2944 Y-21.2493
G01 X14.2822 Y-21.2570
G01 X14.2713 Y-21.2664
G01 X14.2618 Y-21.2774
G01 X14.2541 Y-21.2895
G01 X14.2482 Y-21.3027
G01 X14.2444 Y-21.3167
G01 X14.2429 Y-21.3262
G01 X14.2424 Y-21.3360
G01 X14.2424 Y-22.8600
G01 X14.2435 Y-22.8746
G01 X14.2467 Y-22.8887
G01 X14.2519 Y-22.9021
G01 X14.2591 Y-22.9147
G01 X14.2648 Y-22.9224
G01 X14.2747 Y-22.9329
G01 X14.2861 Y-22.9418
G01 X14.2944 Y-22.9467
G01 X14.3076 Y-22.9526
G01 X14.3168 Y-22.9554
G01 X14.3310 Y-22.9579
G01 X14.3408 Y-22.9584
G01 X15.3619 Y-22.9583
G01 X15.3714 Y-22.9573
G01 X15.3809 Y-22.9554
G01 X15.3901 Y-22.9526
G01 X15.3990 Y-22.9489
G01 X15.4115 Y-22.9418
G01 X15.4193 Y-22.9360
G01 X15.4264 Y-22.9296
G01 X15.4329 Y-22.9224
G01 X15.4386 Y-22.9147
G01 X15.4436 Y-22.9065
G01 X15.4477 Y-22.8977
G01 X15.4510 Y-22.8887
G01 X15.4533 Y-22.8793
G01 X15.4547 Y-22.8698
G01 X15.4552 Y-22.8600
G01 X15.4552 Y-21.3360
G01 X15.4547 Y-21.3262
G01 X15.4533 Y-21.3167
G01 X15.4510 Y-21.3073
G01 X15.4458 Y-21.2939
G01 X15.4386 Y-21.2813
G01 X15.4329 Y-21.2736
G01 X15.4229 Y-21.2631
G01 X15.4155 Y-21.2570
G01 X15.4075 Y-21.2516
G01 X15.3946 Y-21.2451
G01 X15.3809 Y-21.2406
