(G-CODE GENERATED BY FLATCAM v8.98 - www.flatcam.org - Version Date: 2019/10/16)

(Name: Плата - CADCAM Bottom Copper.TXT_iso_copy_cnc)
(Type: G-code from Geometry)
(Units: MM)

(Created on Sunday, 29 December 2019 at 16:56)

(TOOL DIAMETER: 0.12 mm)
(Feedrate: 30.0 mm/min)
(Feedrate_Z: 30.0 mm/min)
(Feedrate rapids 79.9998 mm/min)

(Z_Cut: -0.04 mm)
(Z_Move: 2.0 mm)
(Z Toolchange: 12.7 mm)
(X,Y Toolchange: 0.0000, 0.0000 mm)
(Z Start: None mm)
(Z End: 10.0 mm)
(Steps per circle: 128)
(Postprocessor Geometry: default)

(X range:    3.2892 ...   52.7001  mm)
(Y range:  -34.2089 ...   -2.2884  mm)

(Spindle Speed: 300 RPM)

G21
G90
G94

G01 F30.00
G00 Z2.0000

M03 S300
G00 X3.3982 Y-3.8814
G01 F30.00
G01 Z-0.0400
G01 F30.00
G01 X3.3982 Y-3.8687
G01 X3.4070 Y-3.8599
G01 X3.4029 Y-3.8693
G01 X3.3982 Y-3.8814
G00 Z2.0000
G00 X3.4687 Y-4.0083
G01 F30.00
G01 Z-0.0400
G01 F30.00
G01 X3.2892 Y-4.0083
G01 X3.2892 Y-3.8236
G01 X3.9988 Y-3.1139
G01 X4.3106 Y-3.1139
G01 X4.3106 Y-3.2632
G01 X4.2883 Y-3.2671
G01 X4.2353 Y-3.2790
G01 X4.1858 Y-3.2927
G01 X4.1356 Y-3.3093
G01 X4.0863 Y-3.3283
G01 X4.0393 Y-3.3491
G01 X3.9895 Y-3.3742
G01 X3.9448 Y-3.3996
G01 X3.9014 Y-3.4270
G01 X3.8558 Y-3.4592
G01 X3.8153 Y-3.4908
G01 X3.7753 Y-3.5253
G01 X3.7370 Y-3.5617
G01 X3.7016 Y-3.5989
G01 X3.6660 Y-3.6400
G01 X3.6335 Y-3.6817
G01 X3.6031 Y-3.7249
G01 X3.5741 Y-3.7708
G01 X3.5488 Y-3.8155
G01 X3.5244 Y-3.8641
G01 X3.5030 Y-3.9124
G01 X3.4846 Y-3.9604
G01 X3.4687 Y-4.0083
G00 Z2.0000
G00 X3.2892 Y-4.6379
G01 F30.00
G01 Z-0.0400
G01 F30.00
G01 X3.4687 Y-4.6379
G01 X3.4846 Y-4.6858
G01 X3.5030 Y-4.7337
G01 X3.5244 Y-4.7821
G01 X3.5488 Y-4.8306
G01 X3.5741 Y-4.8753
G01 X3.6031 Y-4.9213
G01 X3.6335 Y-4.9645
G01 X3.6660 Y-5.0061
G01 X3.7016 Y-5.0472
G01 X3.7370 Y-5.0844
G01 X3.7742 Y-5.1198
G01 X3.8165 Y-5.1563
G01 X3.8570 Y-5.1879
G01 X3.9002 Y-5.2183
G01 X3.9448 Y-5.2466
G01 X3.9895 Y-5.2719
G01 X4.0393 Y-5.2970
G01 X4.0863 Y-5.3178
G01 X4.1356 Y-5.3368
G01 X4.1858 Y-5.3534
G01 X4.2353 Y-5.3671
G01 X4.2883 Y-5.3791
G01 X4.3106 Y-5.3830
G01 X4.3106 Y-5.5323
G01 X3.9986 Y-5.5323
G01 X3.2892 Y-4.8249
G01 X3.2892 Y-4.6379
G00 Z2.0000
G00 X3.3982 Y-4.7648
G01 F30.00
G01 Z-0.0400
G01 F30.00
G01 X3.4029 Y-4.7768
G01 X3.4087 Y-4.7901
G01 X3.3982 Y-4.7796
G01 X3.3982 Y-4.7648
G00 Z2.0000
G00 X4.0345 Y-5.4141
G01 F30.00
G01 Z-0.0400
G01 F30.00
G01 X4.0446 Y-5.4185
G01 X4.0566 Y-5.4232
G01 X4.0436 Y-5.4232
G01 X4.0345 Y-5.4141
G00 Z2.0000
G00 X4.6861 Y-5.3830
G01 F30.00
G01 Z-0.0400
G01 F30.00
G01 X4.7084 Y-5.3791
G01 X4.7614 Y-5.3671
G01 X4.8109 Y-5.3534
G01 X4.8611 Y-5.3368
G01 X4.9117 Y-5.3172
G01 X4.9587 Y-5.2964
G01 X5.0059 Y-5.2726
G01 X5.0519 Y-5.2466
G01 X5.0953 Y-5.2191
G01 X5.1409 Y-5.1870
G01 X5.1814 Y-5.1554
G01 X5.2214 Y-5.1209
G01 X5.2597 Y-5.0844
G01 X5.2773 Y-5.0659
G01 X5.3720 Y-5.1606
G01 X5.0004 Y-5.5323
G01 X4.6861 Y-5.5323
G01 X4.6861 Y-5.3830
G00 Z2.0000
G00 X4.9401 Y-5.4232
G01 F30.00
G01 Z-0.0400
G01 F30.00
G01 X4.9521 Y-5.4185
G01 X4.9661 Y-5.4124
G01 X4.9552 Y-5.4232
G01 X4.9401 Y-5.4232
G00 Z2.0000
G00 X4.9401 Y-6.3979
G01 F30.00
G01 Z-0.0400
G01 F30.00
G01 X4.9549 Y-6.3979
G01 X4.9654 Y-6.4085
G01 X4.9521 Y-6.4026
G01 X4.9401 Y-6.3979
G00 Z2.0000
G00 X4.0352 Y-6.4067
G01 F30.00
G01 Z-0.0400
G01 F30.00
G01 X4.0440 Y-6.3979
G01 X4.0566 Y-6.3979
G01 X4.0446 Y-6.4026
G01 X4.0352 Y-6.4067
G00 Z2.0000
G00 X3.3982 Y-7.0564
G01 F30.00
G01 Z-0.0400
G01 F30.00
G01 X3.3982 Y-7.0437
G01 X3.4070 Y-7.0349
G01 X3.4029 Y-7.0443
G01 X3.3982 Y-7.0564
G00 Z2.0000
G00 X3.4087 Y-7.9651
G01 F30.00
G01 Z-0.0400
G01 F30.00
G01 X3.3982 Y-7.9546
G01 X3.3982 Y-7.9398
G01 X3.4029 Y-7.9518
G01 X3.4087 Y-7.9651
G00 Z2.0000
G00 X4.0566 Y-8.5982
G01 F30.00
G01 Z-0.0400
G01 F30.00
G01 X4.0436 Y-8.5982
G01 X4.0345 Y-8.5891
G01 X4.0446 Y-8.5935
G01 X4.0566 Y-8.5982
G00 Z2.0000
G00 X4.7422 Y-8.5465
G01 F30.00
G01 Z-0.0400
G01 F30.00
G01 X6.9291 Y-10.7335
G01 X6.9291 Y-11.0589
G01 X6.8916 Y-11.0734
G01 X6.8219 Y-11.1043
G01 X6.7524 Y-11.1392
G01 X6.6834 Y-11.1782
G01 X6.6189 Y-11.2190
G01 X6.5541 Y-11.2646
G01 X6.4928 Y-11.3125
G01 X6.4339 Y-11.3633
G01 X6.3775 Y-11.4169
G01 X6.3239 Y-11.4732
G01 X6.2731 Y-11.5321
G01 X6.2252 Y-11.5934
G01 X6.1796 Y-11.6583
G01 X6.1388 Y-11.7227
G01 X6.0998 Y-11.7917
G01 X6.0649 Y-11.8612
G01 X6.0340 Y-11.9310
G01 X6.0195 Y-11.9685
G01 X4.9835 Y-11.9685
G01 X4.9541 Y-11.9693
G01 X4.9278 Y-11.9712
G01 X4.9016 Y-11.9744
G01 X4.8727 Y-11.9794
G01 X4.8440 Y-11.9859
G01 X4.8186 Y-11.9929
G01 X4.7935 Y-12.0012
G01 X4.7661 Y-12.0117
G01 X4.7393 Y-12.0236
G01 X4.7157 Y-12.0355
G01 X4.6927 Y-12.0484
G01 X4.6678 Y-12.0641
G01 X4.6450 Y-12.0801
G01 X4.6230 Y-12.0972
G01 X4.6019 Y-12.1154
G01 X4.5822 Y-12.1341
G01 X3.5962 Y-13.1176
G01 X3.5769 Y-13.1378
G01 X3.5586 Y-13.1590
G01 X3.5422 Y-13.1798
G01 X3.5252 Y-13.2039
G01 X3.5095 Y-13.2288
G01 X3.4964 Y-13.2518
G01 X3.4845 Y-13.2754
G01 X3.4719 Y-13.3037
G01 X3.4624 Y-13.3284
G01 X3.4540 Y-13.3536
G01 X3.4461 Y-13.3820
G01 X3.4397 Y-13.4107
G01 X3.4352 Y-13.4368
G01 X3.4318 Y-13.4646
G01 X3.4297 Y-13.4925
G01 X3.4290 Y-13.5204
G01 X3.4290 Y-29.9593
G01 X3.4297 Y-29.9872
G01 X3.4316 Y-30.0136
G01 X3.4354 Y-30.0443
G01 X3.4399 Y-30.0703
G01 X3.4464 Y-30.0990
G01 X3.4535 Y-30.1245
G01 X3.4623 Y-30.1510
G01 X3.4723 Y-30.1770
G01 X3.4830 Y-30.2012
G01 X3.4969 Y-30.2288
G01 X3.5100 Y-30.2518
G01 X3.5249 Y-30.2754
G01 X3.5410 Y-30.2982
G01 X3.5572 Y-30.3191
G01 X3.5774 Y-30.3425
G01 X3.5956 Y-30.3616
G01 X6.6366 Y-33.4025
G01 X6.6563 Y-33.4212
G01 X6.6774 Y-33.4395
G01 X6.6994 Y-33.4567
G01 X6.7222 Y-33.4727
G01 X6.7458 Y-33.4877
G01 X6.7701 Y-33.5015
G01 X6.7951 Y-33.5140
G01 X6.8206 Y-33.5253
G01 X6.8467 Y-33.5354
G01 X6.8732 Y-33.5441
G01 X6.9001 Y-33.5516
G01 X6.9273 Y-33.5577
G01 X6.9549 Y-33.5625
G01 X6.9826 Y-33.5659
G01 X7.0104 Y-33.5679
G01 X7.0376 Y-33.5686
G01 X20.2971 Y-33.5686
G01 X20.3251 Y-33.5679
G01 X20.3529 Y-33.5659
G01 X20.3806 Y-33.5625
G01 X20.4081 Y-33.5577
G01 X20.4354 Y-33.5516
G01 X20.4609 Y-33.5446
G01 X20.4888 Y-33.5354
G01 X20.5162 Y-33.5247
G01 X20.5404 Y-33.5140
G01 X20.5640 Y-33.5021
G01 X20.5896 Y-33.4877
G01 X20.6145 Y-33.4719
G01 X20.6361 Y-33.4567
G01 X20.6569 Y-33.4404
G01 X20.6803 Y-33.4202
G01 X20.6995 Y-33.4020
G01 X21.9014 Y-32.2000
G01 X21.9201 Y-32.1803
G01 X21.9374 Y-32.1603
G01 X21.9564 Y-32.1360
G01 X21.9716 Y-32.1144
G01 X21.9866 Y-32.0908
G01 X22.0003 Y-32.0665
G01 X22.0122 Y-32.0429
G01 X22.0242 Y-32.0160
G01 X22.0343 Y-31.9899
G01 X22.0430 Y-31.9634
G01 X22.0505 Y-31.9365
G01 X22.0566 Y-31.9093
G01 X22.0614 Y-31.8817
G01 X22.0648 Y-31.8540
G01 X22.0669 Y-31.8247
G01 X22.0675 Y-31.7983
G01 X22.0675 Y-29.8267
G01 X22.4276 Y-29.4665
G01 X22.9847 Y-29.4665
G01 X22.9848 Y-29.5356
G01 X22.9854 Y-29.5415
G01 X22.9865 Y-29.5473
G01 X22.9883 Y-29.5530
G01 X22.9905 Y-29.5585
G01 X22.9949 Y-29.5663
G01 X23.0004 Y-29.5733
G01 X23.0069 Y-29.5795
G01 X23.0117 Y-29.5831
G01 X23.0195 Y-29.5875
G01 X23.0278 Y-29.5907
G01 X23.0365 Y-29.5926
G01 X23.0424 Y-29.5932
G01 X26.0934 Y-29.5933
G01 X26.0994 Y-29.5930
G01 X26.1053 Y-29.5921
G01 X26.1110 Y-29.5907
G01 X26.1166 Y-29.5887
G01 X26.1220 Y-29.5861
G01 X26.1271 Y-29.5831
G01 X26.1319 Y-29.5795
G01 X26.1363 Y-29.5755
G01 X26.1403 Y-29.5711
G01 X26.1439 Y-29.5663
G01 X26.1470 Y-29.5612
G01 X26.1495 Y-29.5558
G01 X26.1515 Y-29.5502
G01 X26.1530 Y-29.5444
G01 X26.1538 Y-29.5385
G01 X26.1541 Y-29.5326
G01 X26.1541 Y-28.2626
G01 X26.1538 Y-28.2566
G01 X26.1530 Y-28.2507
G01 X26.1506 Y-28.2421
G01 X26.1470 Y-28.2340
G01 X26.1422 Y-28.2264
G01 X26.1384 Y-28.2218
G01 X26.1342 Y-28.2176
G01 X26.1271 Y-28.2121
G01 X26.1194 Y-28.2077
G01 X26.1110 Y-28.2045
G01 X26.1023 Y-28.2025
G01 X26.0934 Y-28.2019
G01 X23.0424 Y-28.2020
G01 X23.0336 Y-28.2030
G01 X23.0250 Y-28.2054
G01 X23.0168 Y-28.2090
G01 X23.0117 Y-28.2121
G01 X23.0069 Y-28.2157
G01 X23.0004 Y-28.2218
G01 X22.9949 Y-28.2289
G01 X22.9905 Y-28.2366
G01 X22.9883 Y-28.2421
G01 X22.9865 Y-28.2478
G01 X22.9854 Y-28.2537
G01 X22.9848 Y-28.2596
G01 X22.9847 Y-28.3286
G01 X22.1920 Y-28.3286
G01 X22.1641 Y-28.3293
G01 X22.1362 Y-28.3314
G01 X22.1085 Y-28.3348
G01 X22.0810 Y-28.3396
G01 X22.0537 Y-28.3457
G01 X22.0268 Y-28.3531
G01 X22.0003 Y-28.3619
G01 X21.9743 Y-28.3719
G01 X21.9487 Y-28.3833
G01 X21.9225 Y-28.3965
G01 X21.8995 Y-28.4096
G01 X21.8759 Y-28.4245
G01 X21.8531 Y-28.4406
G01 X21.8322 Y-28.4568
G01 X21.8088 Y-28.4770
G01 X21.7897 Y-28.4953
G01 X21.0962 Y-29.1887
G01 X21.0770 Y-29.2089
G01 X21.0588 Y-29.2301
G01 X21.0416 Y-29.2521
G01 X21.0263 Y-29.2737
G01 X21.0098 Y-29.2998
G01 X20.9968 Y-29.3228
G01 X20.9842 Y-29.3477
G01 X20.9729 Y-29.3733
G01 X20.9629 Y-29.3993
G01 X20.9541 Y-29.4258
G01 X20.9467 Y-29.4528
G01 X20.9405 Y-29.4800
G01 X20.9358 Y-29.5075
G01 X20.9323 Y-29.5352
G01 X20.9302 Y-29.5646
G01 X20.9296 Y-29.5910
G01 X20.9296 Y-31.5626
G01 X20.0615 Y-32.4307
G01 X7.2740 Y-32.4307
G01 X4.5669 Y-29.7236
G01 X4.5669 Y-13.7565
G01 X5.2187 Y-13.1064
G01 X6.0195 Y-13.1064
G01 X6.0340 Y-13.1439
G01 X6.0655 Y-13.2150
G01 X6.1005 Y-13.2845
G01 X6.1388 Y-13.3521
G01 X6.1805 Y-13.4179
G01 X6.2252 Y-13.4814
G01 X6.2731 Y-13.5428
G01 X6.3239 Y-13.6017
G01 X6.3775 Y-13.6580
G01 X6.4339 Y-13.7116
G01 X6.4928 Y-13.7624
G01 X6.5541 Y-13.8103
G01 X6.6177 Y-13.8551
G01 X6.6834 Y-13.8967
G01 X6.7511 Y-13.9350
G01 X6.8192 Y-13.9693
G01 X6.8916 Y-14.0015
G01 X6.9642 Y-14.0295
G01 X7.0381 Y-14.0539
G01 X7.1116 Y-14.0743
G01 X7.1904 Y-14.0920
G01 X7.2656 Y-14.1050
G01 X7.3442 Y-14.1146
G01 X7.4203 Y-14.1202
G01 X7.4981 Y-14.1221
G01 X7.5758 Y-14.1202
G01 X7.6534 Y-14.1145
G01 X7.7306 Y-14.1050
G01 X7.8072 Y-14.0917
G01 X7.8831 Y-14.0746
G01 X7.9581 Y-14.0539
G01 X8.0319 Y-14.0295
G01 X8.1031 Y-14.0021
G01 X8.1770 Y-13.9693
G01 X8.2451 Y-13.9350
G01 X8.3128 Y-13.8967
G01 X8.3785 Y-13.8551
G01 X8.4421 Y-13.8103
G01 X8.5034 Y-13.7624
G01 X8.5612 Y-13.7126
G01 X8.6197 Y-13.6569
G01 X8.6723 Y-13.6017
G01 X8.7231 Y-13.5428
G01 X8.7709 Y-13.4814
G01 X8.8157 Y-13.4179
G01 X8.8573 Y-13.3521
G01 X8.8957 Y-13.2845
G01 X8.9306 Y-13.2150
G01 X8.9616 Y-13.1452
G01 X8.9906 Y-13.0699
G01 X9.0145 Y-12.9975
G01 X9.0353 Y-12.9225
G01 X9.0523 Y-12.8466
G01 X9.0656 Y-12.7700
G01 X9.0751 Y-12.6928
G01 X9.0808 Y-12.6167
G01 X9.0828 Y-12.5360
G01 X9.0809 Y-12.4597
G01 X9.0751 Y-12.3821
G01 X9.0654 Y-12.3034
G01 X9.0523 Y-12.2283
G01 X9.0353 Y-12.1524
G01 X9.0141 Y-12.0760
G01 X8.9901 Y-12.0036
G01 X8.9627 Y-11.9324
G01 X8.9300 Y-11.8586
G01 X8.8957 Y-11.7904
G01 X8.8581 Y-11.7240
G01 X8.8157 Y-11.6570
G01 X8.7700 Y-11.5922
G01 X8.7231 Y-11.5321
G01 X8.6733 Y-11.4743
G01 X8.6186 Y-11.4169
G01 X8.5623 Y-11.3633
G01 X8.5045 Y-11.3134
G01 X8.4421 Y-11.2646
G01 X8.3785 Y-11.2198
G01 X8.3140 Y-11.1790
G01 X8.2451 Y-11.1399
G01 X8.1743 Y-11.1043
G01 X8.1045 Y-11.0734
G01 X8.0670 Y-11.0589
G01 X8.0670 Y-10.4971
G01 X8.0663 Y-10.4684
G01 X8.0643 Y-10.4421
G01 X8.0611 Y-10.4158
G01 X8.0561 Y-10.3868
G01 X8.0496 Y-10.3581
G01 X8.0425 Y-10.3327
G01 X8.0343 Y-10.3076
G01 X8.0237 Y-10.2801
G01 X8.0118 Y-10.2532
G01 X7.9999 Y-10.2296
G01 X7.9868 Y-10.2066
G01 X7.9711 Y-10.1817
G01 X7.9551 Y-10.1589
G01 X7.9379 Y-10.1369
G01 X7.9206 Y-10.1168
G01 X7.9004 Y-10.0955
G01 X5.5468 Y-7.7419
G01 X5.5544 Y-7.7081
G01 X5.5631 Y-7.6575
G01 X5.5697 Y-7.6051
G01 X5.5737 Y-7.5509
G01 X5.5750 Y-7.4973
G01 X5.5737 Y-7.4452
G01 X5.5697 Y-7.3911
G01 X5.5631 Y-7.3386
G01 X5.5544 Y-7.2880
G01 X5.5431 Y-7.2379
G01 X5.5287 Y-7.1855
G01 X5.5121 Y-7.1354
G01 X5.4931 Y-7.0860
G01 X5.4710 Y-7.0364
G01 X5.4479 Y-6.9905
G01 X5.4226 Y-6.9458
G01 X5.3944 Y-6.9011
G01 X5.3632 Y-6.8567
G01 X5.3306 Y-6.8150
G01 X5.2961 Y-6.7750
G01 X5.2607 Y-6.7378
G01 X5.2214 Y-6.7003
G01 X5.1802 Y-6.6648
G01 X5.1397 Y-6.6333
G01 X5.0978 Y-6.6037
G01 X5.0519 Y-6.5746
G01 X5.0046 Y-6.5478
G01 X4.9587 Y-6.5248
G01 X4.9117 Y-6.5039
G01 X4.8597 Y-6.4838
G01 X4.8109 Y-6.4677
G01 X4.7614 Y-6.4540
G01 X4.7084 Y-6.4421
G01 X4.6563 Y-6.4330
G01 X4.6054 Y-6.4267
G01 X4.5512 Y-6.4227
G01 X4.4983 Y-6.4214
G01 X4.4470 Y-6.4226
G01 X4.3928 Y-6.4266
G01 X4.3404 Y-6.4330
G01 X4.2898 Y-6.4418
G01 X4.2367 Y-6.4536
G01 X4.1858 Y-6.4677
G01 X4.1356 Y-6.4843
G01 X4.0863 Y-6.5033
G01 X4.0380 Y-6.5248
G01 X3.9908 Y-6.5485
G01 X3.9448 Y-6.5746
G01 X3.9002 Y-6.6028
G01 X3.8570 Y-6.6333
G01 X3.8153 Y-6.6658
G01 X3.7753 Y-6.7003
G01 X3.7370 Y-6.7367
G01 X3.7006 Y-6.7750
G01 X3.6660 Y-6.8150
G01 X3.6335 Y-6.8567
G01 X3.6031 Y-6.8999
G01 X3.5748 Y-6.9445
G01 X3.5488 Y-6.9905
G01 X3.5250 Y-7.0377
G01 X3.5036 Y-7.0860
G01 X3.4846 Y-7.1354
G01 X3.4680 Y-7.1855
G01 X3.4539 Y-7.2365
G01 X3.4423 Y-7.2880
G01 X3.4333 Y-7.3401
G01 X3.4268 Y-7.3925
G01 X3.4229 Y-7.4452
G01 X3.4216 Y-7.4981
G01 X3.4229 Y-7.5509
G01 X3.4268 Y-7.6036
G01 X3.4333 Y-7.6561
G01 X3.4423 Y-7.7081
G01 X3.4539 Y-7.7597
G01 X3.4680 Y-7.8106
G01 X3.4846 Y-7.8608
G01 X3.5036 Y-7.9101
G01 X3.5250 Y-7.9584
G01 X3.5488 Y-8.0056
G01 X3.5748 Y-8.0516
G01 X3.6031 Y-8.0963
G01 X3.6335 Y-8.1395
G01 X3.6660 Y-8.1811
G01 X3.7006 Y-8.2211
G01 X3.7370 Y-8.2594
G01 X3.7753 Y-8.2959
G01 X3.8153 Y-8.3304
G01 X3.8570 Y-8.3629
G01 X3.9002 Y-8.3933
G01 X3.9448 Y-8.4216
G01 X3.9908 Y-8.4476
G01 X4.0380 Y-8.4714
G01 X4.0863 Y-8.4928
G01 X4.1356 Y-8.5118
G01 X4.1858 Y-8.5284
G01 X4.2367 Y-8.5425
G01 X4.2883 Y-8.5541
G01 X4.3404 Y-8.5631
G01 X4.3928 Y-8.5696
G01 X4.4455 Y-8.5735
G01 X4.4983 Y-8.5748
G01 X4.5512 Y-8.5735
G01 X4.6039 Y-8.5696
G01 X4.6563 Y-8.5631
G01 X4.7084 Y-8.5541
G01 X4.7422 Y-8.5465
G00 Z2.0000
G00 X5.5894 Y-7.0342
G01 F30.00
G01 Z-0.0400
G01 F30.00
G01 X5.5985 Y-7.0434
G01 X5.5985 Y-7.0564
G01 X5.5938 Y-7.0443
G01 X5.5894 Y-7.0342
G00 Z2.0000
G00 X4.9401 Y-3.2229
G01 F30.00
G01 Z-0.0400
G01 F30.00
G01 X4.9549 Y-3.2229
G01 X4.9654 Y-3.2335
G01 X4.9521 Y-3.2276
G01 X4.9401 Y-3.2229
G00 Z2.0000
G00 X4.6861 Y-3.2632
G01 F30.00
G01 Z-0.0400
G01 F30.00
G01 X4.6861 Y-3.1139
G01 X5.0001 Y-3.1139
G01 X5.7075 Y-3.8233
G01 X5.7075 Y-3.9633
G01 X5.6893 Y-3.9570
G01 X5.6649 Y-3.9497
G01 X5.6374 Y-3.9429
G01 X5.6111 Y-3.9377
G01 X5.4957 Y-3.9178
G01 X5.4925 Y-3.9097
G01 X5.4710 Y-3.8614
G01 X5.4479 Y-3.8155
G01 X5.4219 Y-3.7695
G01 X5.3936 Y-3.7249
G01 X5.3640 Y-3.6829
G01 X5.3306 Y-3.6400
G01 X5.2961 Y-3.6000
G01 X5.2607 Y-3.5628
G01 X5.2214 Y-3.5253
G01 X5.1814 Y-3.4908
G01 X5.1409 Y-3.4592
G01 X5.0965 Y-3.4278
G01 X5.0519 Y-3.3996
G01 X5.0059 Y-3.3735
G01 X4.9587 Y-3.3498
G01 X4.9104 Y-3.3283
G01 X4.8611 Y-3.3093
G01 X4.8109 Y-3.2927
G01 X4.7585 Y-3.2783
G01 X4.7084 Y-3.2671
G01 X4.6861 Y-3.2632
G00 Z2.0000
G00 X4.0352 Y-3.2317
G01 F30.00
G01 Z-0.0400
G01 F30.00
G01 X4.0440 Y-3.2229
G01 X4.0566 Y-3.2229
G01 X4.0446 Y-3.2276
G01 X4.0352 Y-3.2317
G00 Z2.0000
G00 X6.7148 Y-11.0361
G01 F30.00
G01 Z-0.0400
G01 F30.00
G01 X6.7262 Y-11.0180
G01 X6.7365 Y-10.9999
G01 X6.7459 Y-10.9813
G01 X6.7526 Y-10.9661
G01 X6.7631 Y-10.9389
G01 X6.7683 Y-10.9231
G01 X6.7748 Y-10.8990
G01 X6.7784 Y-10.8828
G01 X6.7820 Y-10.8623
G01 X6.7845 Y-10.8416
G01 X6.7860 Y-10.8209
G01 X6.7865 Y-10.8001
G01 X6.7860 Y-10.7793
G01 X6.7845 Y-10.7585
G01 X6.7824 Y-10.7409
G01 X6.8201 Y-10.7786
G01 X6.8201 Y-10.9858
G01 X6.7739 Y-11.0063
G01 X6.7148 Y-11.0361
G00 Z2.0000
G00 X5.8970 Y-11.8595
G01 F30.00
G01 Z-0.0400
G01 F30.00
G01 X5.9102 Y-11.8491
G01 X5.9290 Y-11.8327
G01 X5.9410 Y-11.8211
G01 X5.9852 Y-11.7770
G01 X5.9670 Y-11.8133
G01 X5.9464 Y-11.8595
G01 X5.8970 Y-11.8595
G00 Z2.0000
G00 X5.9852 Y-13.2979
G01 F30.00
G01 Z-0.0400
G01 F30.00
G01 X5.9410 Y-13.2537
G01 X5.9290 Y-13.2422
G01 X5.9102 Y-13.2258
G01 X5.8970 Y-13.2154
G01 X5.9464 Y-13.2154
G01 X5.9670 Y-13.2616
G01 X5.9852 Y-13.2979
G00 Z2.0000
G00 X8.2629 Y-14.0482
G01 F30.00
G01 Z-0.0400
G01 F30.00
G01 X8.0921 Y-14.2193
G01 X8.0806 Y-14.2313
G01 X8.0642 Y-14.2501
G01 X8.0515 Y-14.2665
G01 X8.0395 Y-14.2835
G01 X8.0306 Y-14.2975
G01 X8.0182 Y-14.3192
G01 X8.0071 Y-14.3415
G01 X8.0004 Y-14.3568
G01 X7.9944 Y-14.3723
G01 X7.9853 Y-14.3999
G01 X7.9809 Y-14.4160
G01 X7.9773 Y-14.4322
G01 X7.9729 Y-14.4567
G01 X7.9703 Y-14.4774
G01 X7.9691 Y-14.4939
G01 X7.9683 Y-14.5189
G01 X7.9688 Y-14.5397
G01 X7.9700 Y-14.5562
G01 X7.9729 Y-14.5810
G01 X7.9774 Y-14.6056
G01 X7.9811 Y-14.6218
G01 X7.9854 Y-14.6378
G01 X7.9931 Y-14.6616
G01 X8.0023 Y-14.6848
G01 X8.0091 Y-14.7000
G01 X8.0165 Y-14.7148
G01 X8.0308 Y-14.7401
G01 X8.0398 Y-14.7542
G01 X8.0518 Y-14.7712
G01 X8.0645 Y-14.7875
G01 X8.0810 Y-14.8063
G01 X8.0925 Y-14.8183
G01 X8.2636 Y-14.9895
G01 X8.2222 Y-14.9687
G01 X8.1501 Y-14.9367
G01 X8.0726 Y-14.9066
G01 X7.9897 Y-14.8791
G01 X7.9096 Y-14.8569
G01 X7.8244 Y-14.8379
G01 X7.7466 Y-14.8245
G01 X7.6682 Y-14.8147
G01 X7.5812 Y-14.8082
G01 X7.4981 Y-14.8061
G01 X7.4150 Y-14.8082
G01 X7.3279 Y-14.8147
G01 X7.2496 Y-14.8245
G01 X7.1717 Y-14.8379
G01 X7.0865 Y-14.8569
G01 X7.0064 Y-14.8791
G01 X6.9236 Y-14.9066
G01 X6.8461 Y-14.9367
G01 X6.7739 Y-14.9687
G01 X6.7369 Y-14.9873
G01 X6.9059 Y-14.8187
G01 X6.9174 Y-14.8067
G01 X6.9339 Y-14.7879
G01 X6.9467 Y-14.7715
G01 X6.9587 Y-14.7545
G01 X6.9677 Y-14.7404
G01 X6.9802 Y-14.7188
G01 X6.9913 Y-14.6964
G01 X6.9980 Y-14.6812
G01 X7.0040 Y-14.6657
G01 X7.0132 Y-14.6380
G01 X7.0176 Y-14.6219
G01 X7.0213 Y-14.6057
G01 X7.0258 Y-14.5811
G01 X7.0283 Y-14.5604
G01 X7.0296 Y-14.5438
G01 X7.0304 Y-14.5189
G01 X7.0296 Y-14.4939
G01 X7.0284 Y-14.4773
G01 X7.0258 Y-14.4566
G01 X7.0214 Y-14.4320
G01 X7.0177 Y-14.4158
G01 X7.0133 Y-14.3997
G01 X7.0042 Y-14.3721
G01 X6.9982 Y-14.3566
G01 X6.9915 Y-14.3413
G01 X6.9804 Y-14.3189
G01 X6.9679 Y-14.2973
G01 X6.9590 Y-14.2832
G01 X6.9470 Y-14.2662
G01 X6.9342 Y-14.2498
G01 X6.9178 Y-14.2310
G01 X6.9062 Y-14.2189
G01 X6.7376 Y-14.0503
G01 X6.7739 Y-14.0685
G01 X6.8461 Y-14.1006
G01 X6.9236 Y-14.1307
G01 X7.0064 Y-14.1582
G01 X7.0865 Y-14.1804
G01 X7.1717 Y-14.1994
G01 X7.2496 Y-14.2128
G01 X7.3279 Y-14.2225
G01 X7.4150 Y-14.2291
G01 X7.4981 Y-14.2312
G01 X7.5812 Y-14.2291
G01 X7.6682 Y-14.2225
G01 X7.7466 Y-14.2128
G01 X7.8244 Y-14.1994
G01 X7.9096 Y-14.1804
G01 X7.9897 Y-14.1582
G01 X8.0726 Y-14.1307
G01 X8.1501 Y-14.1006
G01 X8.2222 Y-14.0685
G01 X8.2629 Y-14.0482
G00 Z2.0000
G00 X9.1062 Y-13.0675
G01 F30.00
G01 Z-0.0400
G01 F30.00
G01 X9.1062 Y-13.2029
G01 X9.0105 Y-13.2989
G01 X9.0292 Y-13.2616
G01 X9.0629 Y-13.1856
G01 X9.0928 Y-13.1080
G01 X9.1062 Y-13.0675
G00 Z2.0000
G00 X9.0084 Y-11.7719
G01 F30.00
G01 Z-0.0400
G01 F30.00
G01 X9.1062 Y-11.8697
G01 X9.1062 Y-12.0074
G01 X9.0928 Y-11.9668
G01 X9.0629 Y-11.8893
G01 X9.0292 Y-11.8133
G01 X9.0084 Y-11.7719
G00 Z2.0000
G00 X8.1761 Y-10.9338
G01 F30.00
G01 Z-0.0400
G01 F30.00
G01 X8.1864 Y-10.9470
G01 X8.2029 Y-10.9658
G01 X8.2144 Y-10.9779
G01 X8.2636 Y-11.0271
G01 X8.2222 Y-11.0063
G01 X8.1761 Y-10.9858
G01 X8.1761 Y-10.9338
G00 Z2.0000
G00 X11.0036 Y-12.7250
G01 F30.00
G01 Z-0.0400
G01 F30.00
G01 X11.0035 Y-13.6885
G01 X10.8819 Y-13.8102
G01 X10.8711 Y-13.8102
G01 X10.8711 Y-12.5348
G01 X11.5113 Y-12.5348
G01 X11.5113 Y-12.6672
G01 X11.0642 Y-12.6672
G01 X11.0583 Y-12.6675
G01 X11.0524 Y-12.6684
G01 X11.0466 Y-12.6699
G01 X11.0410 Y-12.6719
G01 X11.0356 Y-12.6744
G01 X11.0281 Y-12.6792
G01 X11.0235 Y-12.6830
G01 X11.0193 Y-12.6872
G01 X11.0155 Y-12.6918
G01 X11.0122 Y-12.6967
G01 X11.0082 Y-12.7047
G01 X11.0062 Y-12.7103
G01 X11.0047 Y-12.7161
G01 X11.0036 Y-12.7250
G00 Z2.0000
G00 X12.6492 Y-12.6672
G01 F30.00
G01 Z-0.0400
G01 F30.00
G01 X12.6492 Y-12.5348
G01 X13.2894 Y-12.5348
G01 X13.2894 Y-13.8102
G01 X13.1569 Y-13.8102
G01 X13.1569 Y-12.7279
G01 X13.1563 Y-12.7190
G01 X13.1551 Y-12.7132
G01 X13.1523 Y-12.7047
G01 X13.1498 Y-12.6993
G01 X13.1450 Y-12.6918
G01 X13.1412 Y-12.6872
G01 X13.1347 Y-12.6810
G01 X13.1274 Y-12.6759
G01 X13.1222 Y-12.6731
G01 X13.1139 Y-12.6699
G01 X13.1051 Y-12.6679
G01 X13.0992 Y-12.6673
G01 X12.6492 Y-12.6672
G00 Z2.0000
G00 X12.2680 Y-15.3286
G01 F30.00
G01 Z-0.0400
G01 F30.00
G01 X13.0962 Y-15.3286
G01 X13.1022 Y-15.3283
G01 X13.1081 Y-15.3275
G01 X13.1139 Y-15.3260
G01 X13.1195 Y-15.3240
G01 X13.1249 Y-15.3215
G01 X13.1300 Y-15.3184
G01 X13.1347 Y-15.3149
G01 X13.1412 Y-15.3087
G01 X13.1450 Y-15.3041
G01 X13.1483 Y-15.2991
G01 X13.1523 Y-15.2912
G01 X13.1543 Y-15.2856
G01 X13.1558 Y-15.2798
G01 X13.1566 Y-15.2739
G01 X13.1569 Y-15.2679
G01 X13.1569 Y-14.1857
G01 X13.2894 Y-14.1857
G01 X13.2894 Y-15.4611
G01 X12.2680 Y-15.4611
G01 X12.2680 Y-15.3286
G00 Z2.0000
G00 X11.0090 Y-15.2931
G01 F30.00
G01 Z-0.0400
G01 F30.00
G01 X11.0122 Y-15.2991
G01 X11.0173 Y-15.3064
G01 X11.0235 Y-15.3129
G01 X11.0305 Y-15.3184
G01 X11.0383 Y-15.3228
G01 X11.0466 Y-15.3260
G01 X11.0553 Y-15.3280
G01 X11.0613 Y-15.3286
G01 X11.8925 Y-15.3286
G01 X11.8925 Y-15.4611
G01 X10.8711 Y-15.4611
G01 X10.8711 Y-15.4311
G01 X11.0090 Y-15.2931
G00 Z2.0000
G00 X11.0354 Y-16.9071
G01 F30.00
G01 Z-0.0400
G01 F30.00
G01 X11.0442 Y-16.8983
G01 X11.0569 Y-16.8983
G01 X11.0448 Y-16.9030
G01 X11.0354 Y-16.9071
G00 Z2.0000
G00 X11.9403 Y-16.8983
G01 F30.00
G01 Z-0.0400
G01 F30.00
G01 X11.9555 Y-16.8983
G01 X11.9663 Y-16.9091
G01 X11.9523 Y-16.9030
G01 X11.9403 Y-16.8983
G00 Z2.0000
G00 X10.3984 Y-17.5567
G01 F30.00
G01 Z-0.0400
G01 F30.00
G01 X10.3984 Y-17.5441
G01 X10.4072 Y-17.5353
G01 X10.4031 Y-17.5447
G01 X10.3984 Y-17.5567
G00 Z2.0000
G00 X10.4093 Y-18.4662
G01 F30.00
G01 Z-0.0400
G01 F30.00
G01 X10.3984 Y-18.4553
G01 X10.3984 Y-18.4402
G01 X10.4031 Y-18.4522
G01 X10.4093 Y-18.4662
G00 Z2.0000
G00 X12.0075 Y-19.0694
G01 F30.00
G01 Z-0.0400
G01 F30.00
G01 X12.0017 Y-19.0800
G01 X11.9925 Y-19.0986
G01 X11.9858 Y-19.1139
G01 X11.9770 Y-19.1372
G01 X11.9718 Y-19.1530
G01 X11.9663 Y-19.1731
G01 X11.9617 Y-19.1934
G01 X11.9582 Y-19.2139
G01 X11.9556 Y-19.2345
G01 X11.9543 Y-19.2511
G01 X11.9536 Y-19.2802
G01 X11.9541 Y-19.2969
G01 X11.9556 Y-19.3176
G01 X11.9582 Y-19.3383
G01 X11.9617 Y-19.3587
G01 X11.9663 Y-19.3790
G01 X11.9718 Y-19.3991
G01 X11.9784 Y-19.4188
G01 X11.9843 Y-19.4344
G01 X11.9961 Y-19.4610
G01 X12.0036 Y-19.4759
G01 X12.0161 Y-19.4975
G01 X12.0250 Y-19.5115
G01 X12.0370 Y-19.5285
G01 X12.0498 Y-19.5449
G01 X12.0634 Y-19.5607
G01 X12.0777 Y-19.5758
G01 X12.0928 Y-19.5901
G01 X12.1085 Y-19.6037
G01 X12.1221 Y-19.6143
G01 X10.8751 Y-19.6143
G01 X10.8886 Y-19.6037
G01 X10.9044 Y-19.5901
G01 X10.9194 Y-19.5758
G01 X10.9338 Y-19.5607
G01 X10.9474 Y-19.5449
G01 X10.9602 Y-19.5285
G01 X10.9722 Y-19.5115
G01 X10.9811 Y-19.4975
G01 X10.9955 Y-19.4722
G01 X11.0029 Y-19.4573
G01 X11.0129 Y-19.4344
G01 X11.0188 Y-19.4188
G01 X11.0253 Y-19.3991
G01 X11.0309 Y-19.3790
G01 X11.0354 Y-19.3587
G01 X11.0390 Y-19.3383
G01 X11.0411 Y-19.3217
G01 X11.0432 Y-19.2927
G01 X11.0436 Y-19.2761
G01 X11.0431 Y-19.2553
G01 X11.0415 Y-19.2345
G01 X11.0390 Y-19.2139
G01 X11.0354 Y-19.1934
G01 X11.0309 Y-19.1731
G01 X11.0253 Y-19.1530
G01 X11.0202 Y-19.1372
G01 X11.0113 Y-19.1139
G01 X11.0046 Y-19.0986
G01 X10.9955 Y-19.0800
G01 X10.9897 Y-19.0694
G01 X11.0448 Y-19.0939
G01 X11.0991 Y-19.1148
G01 X11.1544 Y-19.1331
G01 X11.2145 Y-19.1496
G01 X11.2673 Y-19.1614
G01 X11.3205 Y-19.1707
G01 X11.3782 Y-19.1780
G01 X11.4404 Y-19.1827
G01 X11.4986 Y-19.1842
G01 X11.5568 Y-19.1827
G01 X11.6189 Y-19.1780
G01 X11.6767 Y-19.1707
G01 X11.7299 Y-19.1614
G01 X11.7826 Y-19.1496
G01 X11.8428 Y-19.1331
G01 X11.8980 Y-19.1148
G01 X11.9523 Y-19.0939
G01 X12.0075 Y-19.0694
G00 Z2.0000
G00 X12.4124 Y-18.5674
G01 F30.00
G01 Z-0.0400
G01 F30.00
G01 X18.6770 Y-18.5674
G01 X20.5093 Y-20.4020
G01 X20.5284 Y-20.4203
G01 X20.5506 Y-20.4396
G01 X20.5739 Y-20.4576
G01 X20.5955 Y-20.4729
G01 X20.6178 Y-20.4871
G01 X20.6434 Y-20.5016
G01 X20.6697 Y-20.5148
G01 X20.6939 Y-20.5255
G01 X20.7186 Y-20.5351
G01 X20.7465 Y-20.5444
G01 X20.7735 Y-20.5518
G01 X20.8007 Y-20.5580
G01 X20.8297 Y-20.5629
G01 X20.8560 Y-20.5662
G01 X20.8824 Y-20.5681
G01 X20.9118 Y-20.5689
G01 X26.9291 Y-20.5689
G01 X26.9291 Y-23.2308
G01 X26.1541 Y-23.2308
G01 X26.1540 Y-23.1618
G01 X26.1535 Y-23.1559
G01 X26.1523 Y-23.1501
G01 X26.1506 Y-23.1444
G01 X26.1483 Y-23.1388
G01 X26.1455 Y-23.1336
G01 X26.1403 Y-23.1263
G01 X26.1342 Y-23.1198
G01 X26.1271 Y-23.1143
G01 X26.1194 Y-23.1099
G01 X26.1110 Y-23.1067
G01 X26.1023 Y-23.1048
G01 X26.0964 Y-23.1042
G01 X23.0454 Y-23.1041
G01 X23.0365 Y-23.1048
G01 X23.0278 Y-23.1067
G01 X23.0195 Y-23.1099
G01 X23.0117 Y-23.1143
G01 X23.0069 Y-23.1179
G01 X23.0025 Y-23.1219
G01 X22.9967 Y-23.1286
G01 X22.9919 Y-23.1362
G01 X22.9883 Y-23.1444
G01 X22.9859 Y-23.1530
G01 X22.9848 Y-23.1618
G01 X22.9847 Y-24.4348
G01 X22.9854 Y-24.4437
G01 X22.9873 Y-24.4524
G01 X22.9905 Y-24.4608
G01 X22.9949 Y-24.4685
G01 X23.0004 Y-24.4756
G01 X23.0047 Y-24.4798
G01 X23.0093 Y-24.4836
G01 X23.0168 Y-24.4883
G01 X23.0250 Y-24.4920
G01 X23.0336 Y-24.4943
G01 X23.0395 Y-24.4952
G01 X23.0454 Y-24.4955
G01 X26.0934 Y-24.4955
G01 X26.0994 Y-24.4952
G01 X26.1082 Y-24.4937
G01 X26.1166 Y-24.4909
G01 X26.1246 Y-24.4869
G01 X26.1319 Y-24.4817
G01 X26.1384 Y-24.4756
G01 X26.1439 Y-24.4685
G01 X26.1483 Y-24.4608
G01 X26.1506 Y-24.4552
G01 X26.1523 Y-24.4495
G01 X26.1535 Y-24.4437
G01 X26.1540 Y-24.4378
G01 X26.1541 Y-24.3688
G01 X27.4980 Y-24.3688
G01 X27.5260 Y-24.3681
G01 X27.5538 Y-24.3660
G01 X27.5815 Y-24.3626
G01 X27.6076 Y-24.3581
G01 X27.6363 Y-24.3517
G01 X27.6646 Y-24.3438
G01 X27.6897 Y-24.3355
G01 X27.7158 Y-24.3254
G01 X27.7426 Y-24.3135
G01 X27.7662 Y-24.3016
G01 X27.7905 Y-24.2878
G01 X27.8154 Y-24.2720
G01 X27.8370 Y-24.2568
G01 X27.8578 Y-24.2405
G01 X27.8801 Y-24.2214
G01 X27.9014 Y-24.2010
G01 X27.9196 Y-24.1819
G01 X27.9369 Y-24.1619
G01 X27.9559 Y-24.1375
G01 X27.9711 Y-24.1159
G01 X27.9853 Y-24.0936
G01 X27.9998 Y-24.0680
G01 X28.0130 Y-24.0417
G01 X28.0237 Y-24.0175
G01 X28.0337 Y-23.9915
G01 X28.0425 Y-23.9650
G01 X28.0496 Y-23.9395
G01 X28.0563 Y-23.9093
G01 X28.0608 Y-23.8833
G01 X28.0643 Y-23.8556
G01 X28.0663 Y-23.8277
G01 X28.0670 Y-23.8005
G01 X28.0670 Y-20.0000
G01 X28.0663 Y-19.9720
G01 X28.0644 Y-19.9457
G01 X28.0608 Y-19.9165
G01 X28.0558 Y-19.8875
G01 X28.0499 Y-19.8617
G01 X28.0429 Y-19.8362
G01 X28.0332 Y-19.8069
G01 X28.0237 Y-19.7822
G01 X28.0130 Y-19.7581
G01 X27.9998 Y-19.7318
G01 X27.9860 Y-19.7075
G01 X27.9719 Y-19.6851
G01 X27.9541 Y-19.6598
G01 X27.9378 Y-19.6390
G01 X27.9206 Y-19.6190
G01 X27.9004 Y-19.5976
G01 X27.8801 Y-19.5784
G01 X27.8601 Y-19.5611
G01 X27.8370 Y-19.5430
G01 X27.8129 Y-19.5261
G01 X27.7905 Y-19.5120
G01 X27.7662 Y-19.4982
G01 X27.7399 Y-19.4850
G01 X27.7158 Y-19.4743
G01 X27.6897 Y-19.4643
G01 X27.6632 Y-19.4555
G01 X27.6363 Y-19.4481
G01 X27.6090 Y-19.4419
G01 X27.5830 Y-19.4374
G01 X27.5523 Y-19.4336
G01 X27.5260 Y-19.4317
G01 X27.4980 Y-19.4310
G01 X21.1477 Y-19.4310
G01 X19.3154 Y-17.5964
G01 X19.2952 Y-17.5771
G01 X19.2729 Y-17.5579
G01 X19.2520 Y-17.5416
G01 X19.2292 Y-17.5255
G01 X19.2056 Y-17.5106
G01 X19.1825 Y-17.4975
G01 X19.1549 Y-17.4836
G01 X19.1307 Y-17.4729
G01 X19.1061 Y-17.4633
G01 X19.0767 Y-17.4536
G01 X19.0512 Y-17.4466
G01 X19.0239 Y-17.4404
G01 X18.9964 Y-17.4357
G01 X18.9701 Y-17.4324
G01 X18.9408 Y-17.4302
G01 X18.9128 Y-17.4295
G01 X12.4124 Y-17.4295
G01 X12.3938 Y-17.4003
G01 X12.3643 Y-17.3583
G01 X12.3309 Y-17.3154
G01 X12.2953 Y-17.2743
G01 X12.2599 Y-17.2371
G01 X12.2227 Y-17.2017
G01 X12.1816 Y-17.1661
G01 X12.1388 Y-17.1328
G01 X12.0955 Y-17.1024
G01 X12.0521 Y-17.0749
G01 X12.0074 Y-17.0496
G01 X11.9589 Y-17.0251
G01 X11.9092 Y-17.0031
G01 X11.8613 Y-16.9847
G01 X11.8125 Y-16.9686
G01 X11.7602 Y-16.9540
G01 X11.7072 Y-16.9422
G01 X11.6566 Y-16.9334
G01 X11.6056 Y-16.9271
G01 X11.5514 Y-16.9230
G01 X11.4986 Y-16.9217
G01 X11.4443 Y-16.9231
G01 X11.3930 Y-16.9269
G01 X11.3421 Y-16.9332
G01 X11.2885 Y-16.9424
G01 X11.2355 Y-16.9544
G01 X11.1860 Y-16.9681
G01 X11.1373 Y-16.9842
G01 X11.0865 Y-17.0037
G01 X11.0369 Y-17.0258
G01 X10.9910 Y-17.0489
G01 X10.9463 Y-17.0742
G01 X10.9004 Y-17.1032
G01 X10.8560 Y-17.1345
G01 X10.8155 Y-17.1661
G01 X10.7766 Y-17.1997
G01 X10.7372 Y-17.2371
G01 X10.6998 Y-17.2765
G01 X10.6663 Y-17.3154
G01 X10.6347 Y-17.3559
G01 X10.6033 Y-17.4003
G01 X10.5751 Y-17.4449
G01 X10.5490 Y-17.4909
G01 X10.5253 Y-17.5381
G01 X10.5038 Y-17.5864
G01 X10.4848 Y-17.6357
G01 X10.4682 Y-17.6859
G01 X10.4541 Y-17.7368
G01 X10.4426 Y-17.7884
G01 X10.4335 Y-17.8405
G01 X10.4271 Y-17.8929
G01 X10.4232 Y-17.9456
G01 X10.4219 Y-17.9984
G01 X10.4232 Y-18.0513
G01 X10.4271 Y-18.1040
G01 X10.4335 Y-18.1564
G01 X10.4426 Y-18.2085
G01 X10.4541 Y-18.2601
G01 X10.4682 Y-18.3110
G01 X10.4848 Y-18.3612
G01 X10.5038 Y-18.4105
G01 X10.5253 Y-18.4588
G01 X10.5490 Y-18.5060
G01 X10.5751 Y-18.5520
G01 X10.6033 Y-18.5966
G01 X10.6338 Y-18.6398
G01 X10.6663 Y-18.6815
G01 X10.7008 Y-18.7215
G01 X10.7372 Y-18.7598
G01 X10.7755 Y-18.7962
G01 X10.8155 Y-18.8307
G01 X10.8572 Y-18.8633
G01 X10.9004 Y-18.8937
G01 X10.9450 Y-18.9220
G01 X10.9910 Y-18.9480
G01 X11.0382 Y-18.9718
G01 X11.0865 Y-18.9932
G01 X11.1359 Y-19.0122
G01 X11.1860 Y-19.0288
G01 X11.2370 Y-19.0429
G01 X11.2885 Y-19.0545
G01 X11.3406 Y-19.0635
G01 X11.3930 Y-19.0700
G01 X11.4457 Y-19.0738
G01 X11.4986 Y-19.0751
G01 X11.5514 Y-19.0738
G01 X11.6041 Y-19.0700
G01 X11.6566 Y-19.0635
G01 X11.7086 Y-19.0545
G01 X11.7602 Y-19.0429
G01 X11.8111 Y-19.0288
G01 X11.8613 Y-19.0122
G01 X11.9106 Y-18.9932
G01 X11.9589 Y-18.9718
G01 X12.0061 Y-18.9480
G01 X12.0521 Y-18.9220
G01 X12.0968 Y-18.8937
G01 X12.1400 Y-18.8633
G01 X12.1816 Y-18.8307
G01 X12.2216 Y-18.7962
G01 X12.2599 Y-18.7598
G01 X12.2964 Y-18.7215
G01 X12.3309 Y-18.6815
G01 X12.3634 Y-18.6398
G01 X12.3938 Y-18.5966
G01 X12.4124 Y-18.5674
G00 Z2.0000
G00 X9.0105 Y-17.2612
G01 F30.00
G01 Z-0.0400
G01 F30.00
G01 X9.0292 Y-17.2240
G01 X9.0506 Y-17.1757
G01 X9.0699 Y-17.1741
G01 X9.1015 Y-17.1700
G01 X9.0105 Y-17.2612
G00 Z2.0000
G00 X8.3212 Y-17.8538
G01 F30.00
G01 Z-0.0400
G01 F30.00
G01 X8.3785 Y-17.8175
G01 X8.4421 Y-17.7727
G01 X8.5034 Y-17.7248
G01 X8.5612 Y-17.6750
G01 X8.6197 Y-17.6193
G01 X8.6723 Y-17.5641
G01 X8.7231 Y-17.5052
G01 X8.7709 Y-17.4438
G01 X8.8149 Y-17.3815
G01 X8.8581 Y-17.3133
G01 X8.8957 Y-17.2469
G01 X8.9306 Y-17.1774
G01 X8.9622 Y-17.1063
G01 X8.9766 Y-17.0688
G01 X9.0000 Y-17.0688
G01 X9.0257 Y-17.0682
G01 X9.0535 Y-17.0662
G01 X9.0828 Y-17.0626
G01 X9.1088 Y-17.0581
G01 X9.1376 Y-17.0517
G01 X9.1645 Y-17.0443
G01 X9.1910 Y-17.0355
G01 X9.2153 Y-17.0262
G01 X9.2153 Y-17.2104
G01 X8.3212 Y-18.1064
G01 X8.3212 Y-17.8538
G00 Z2.0000
G00 X5.8899 Y-17.0299
G01 F30.00
G01 Z-0.0400
G01 F30.00
G01 X5.9034 Y-17.0704
G01 X5.9333 Y-17.1480
G01 X5.9670 Y-17.2240
G01 X5.9852 Y-17.2603
G01 X5.8899 Y-17.1650
G01 X5.8899 Y-17.0299
G00 Z2.0000
G00 X5.7809 Y-16.6876
G01 F30.00
G01 Z-0.0400
G01 F30.00
G01 X5.9250 Y-16.6876
G01 X5.9305 Y-16.7324
G01 X5.9436 Y-16.8075
G01 X5.9605 Y-16.8834
G01 X5.9816 Y-16.9599
G01 X6.0060 Y-17.0337
G01 X6.0340 Y-17.1063
G01 X6.0662 Y-17.1787
G01 X6.1005 Y-17.2469
G01 X6.1381 Y-17.3133
G01 X6.1796 Y-17.3790
G01 X6.2252 Y-17.4438
G01 X6.2731 Y-17.5052
G01 X6.3239 Y-17.5641
G01 X6.3786 Y-17.6214
G01 X6.4339 Y-17.6740
G01 X6.4939 Y-17.7258
G01 X6.5553 Y-17.7736
G01 X6.6177 Y-17.8175
G01 X6.6750 Y-17.8538
G01 X6.6750 Y-18.1043
G01 X5.7809 Y-17.2102
G01 X5.7809 Y-16.6876
G00 Z2.0000
G00 X5.9250 Y-16.3121
G01 F30.00
G01 Z-0.0400
G01 F30.00
G01 X5.7809 Y-16.3121
G01 X5.7809 Y-15.7872
G01 X6.8289 Y-14.7415
G01 X6.8396 Y-14.7303
G01 X6.8487 Y-14.7198
G01 X6.8592 Y-14.7064
G01 X6.8681 Y-14.6938
G01 X6.8764 Y-14.6807
G01 X6.8847 Y-14.6660
G01 X6.8916 Y-14.6521
G01 X6.8973 Y-14.6394
G01 X6.9024 Y-14.6263
G01 X6.9077 Y-14.6103
G01 X6.9119 Y-14.5954
G01 X6.9153 Y-14.5803
G01 X6.9181 Y-14.5636
G01 X6.9200 Y-14.5482
G01 X6.9210 Y-14.5343
G01 X6.9213 Y-14.5203
G01 X6.9210 Y-14.5034
G01 X6.9199 Y-14.4879
G01 X6.9180 Y-14.4726
G01 X6.9153 Y-14.4573
G01 X6.9120 Y-14.4423
G01 X6.9083 Y-14.4288
G01 X6.9030 Y-14.4127
G01 X6.8968 Y-14.3969
G01 X6.8912 Y-14.3841
G01 X6.8849 Y-14.3716
G01 X6.8758 Y-14.3556
G01 X6.8683 Y-14.3438
G01 X6.8603 Y-14.3323
G01 X6.8499 Y-14.3189
G01 X6.8388 Y-14.3061
G01 X6.8292 Y-14.2960
G01 X5.8640 Y-13.3308
G01 X5.8516 Y-13.3192
G01 X5.8411 Y-13.3101
G01 X5.8301 Y-13.3015
G01 X5.8150 Y-13.2909
G01 X5.8032 Y-13.2834
G01 X5.7911 Y-13.2765
G01 X5.7759 Y-13.2688
G01 X5.7604 Y-13.2620
G01 X5.7474 Y-13.2570
G01 X5.7341 Y-13.2526
G01 X5.7178 Y-13.2480
G01 X5.7013 Y-13.2444
G01 X5.6875 Y-13.2420
G01 X5.6737 Y-13.2403
G01 X5.6568 Y-13.2390
G01 X5.6421 Y-13.2386
G01 X5.4018 Y-13.2386
G01 X5.3871 Y-13.2390
G01 X5.3717 Y-13.2401
G01 X5.3564 Y-13.2420
G01 X5.3412 Y-13.2447
G01 X5.3246 Y-13.2484
G01 X5.3112 Y-13.2522
G01 X5.2979 Y-13.2565
G01 X5.2821 Y-13.2626
G01 X5.2666 Y-13.2695
G01 X5.2542 Y-13.2758
G01 X5.2420 Y-13.2827
G01 X5.2277 Y-13.2917
G01 X5.2139 Y-13.3015
G01 X5.2029 Y-13.3101
G01 X5.1923 Y-13.3192
G01 X5.1800 Y-13.3308
G01 X4.7913 Y-13.7194
G01 X4.7817 Y-13.7295
G01 X4.7697 Y-13.7435
G01 X4.7611 Y-13.7545
G01 X4.7514 Y-13.7684
G01 X4.7439 Y-13.7802
G01 X4.7363 Y-13.7937
G01 X4.7294 Y-13.8075
G01 X4.7231 Y-13.8216
G01 X4.7175 Y-13.8360
G01 X4.7127 Y-13.8507
G01 X4.7086 Y-13.8656
G01 X4.7055 Y-13.8792
G01 X4.7023 Y-13.8973
G01 X4.7006 Y-13.9112
G01 X4.6995 Y-13.9281
G01 X4.6991 Y-13.9421
G01 X4.6991 Y-29.5377
G01 X4.6995 Y-29.5531
G01 X4.7006 Y-29.5685
G01 X4.7025 Y-29.5839
G01 X4.7049 Y-29.5976
G01 X4.7089 Y-29.6156
G01 X4.7127 Y-29.6290
G01 X4.7181 Y-29.6451
G01 X4.7231 Y-29.6581
G01 X4.7294 Y-29.6723
G01 X4.7363 Y-29.6861
G01 X4.7439 Y-29.6995
G01 X4.7522 Y-29.7126
G01 X4.7611 Y-29.7252
G01 X4.7706 Y-29.7374
G01 X4.7797 Y-29.7480
G01 X4.7913 Y-29.7603
G01 X7.2379 Y-32.2068
G01 X7.2486 Y-32.2170
G01 X7.2591 Y-32.2261
G01 X7.2724 Y-32.2366
G01 X7.2851 Y-32.2454
G01 X7.2969 Y-32.2529
G01 X7.3129 Y-32.2620
G01 X7.3254 Y-32.2683
G01 X7.3395 Y-32.2745
G01 X7.3539 Y-32.2801
G01 X7.3672 Y-32.2845
G01 X7.3849 Y-32.2894
G01 X7.3986 Y-32.2925
G01 X7.4123 Y-32.2949
G01 X7.4306 Y-32.2971
G01 X7.4445 Y-32.2981
G01 X7.4600 Y-32.2985
G01 X19.8780 Y-32.2985
G01 X19.8950 Y-32.2980
G01 X19.9090 Y-32.2970
G01 X19.9229 Y-32.2953
G01 X19.9411 Y-32.2921
G01 X19.9547 Y-32.2890
G01 X19.9697 Y-32.2849
G01 X19.9844 Y-32.2800
G01 X19.9974 Y-32.2750
G01 X20.0143 Y-32.2675
G01 X20.0268 Y-32.2611
G01 X20.0403 Y-32.2535
G01 X20.0534 Y-32.2452
G01 X20.0648 Y-32.2371
G01 X20.0794 Y-32.2257
G01 X20.0899 Y-32.2165
G01 X20.1001 Y-32.2069
G01 X20.7056 Y-31.5988
G01 X20.7152 Y-31.5887
G01 X20.7263 Y-31.5759
G01 X20.7358 Y-31.5637
G01 X20.7446 Y-31.5511
G01 X20.7536 Y-31.5368
G01 X20.7611 Y-31.5233
G01 X20.7673 Y-31.5109
G01 X20.7730 Y-31.4982
G01 X20.7791 Y-31.4824
G01 X20.7839 Y-31.4678
G01 X20.7883 Y-31.4515
G01 X20.7914 Y-31.4379
G01 X20.7940 Y-31.4227
G01 X20.7960 Y-31.4059
G01 X20.7970 Y-31.3920
G01 X20.7974 Y-31.3774
G01 X20.7974 Y-29.3021
G01 X21.9009 Y-28.1964
G01 X22.5382 Y-28.1964
G01 X22.5529 Y-28.1960
G01 X22.5683 Y-28.1949
G01 X22.5836 Y-28.1930
G01 X22.5988 Y-28.1904
G01 X22.6154 Y-28.1866
G01 X22.6288 Y-28.1829
G01 X22.6421 Y-28.1785
G01 X22.6579 Y-28.1724
G01 X22.6720 Y-28.1662
G01 X22.6858 Y-28.1592
G01 X22.7005 Y-28.1508
G01 X22.7136 Y-28.1425
G01 X22.7250 Y-28.1345
G01 X22.7360 Y-28.1259
G01 X22.7488 Y-28.1149
G01 X22.7600 Y-28.1042
G01 X22.7707 Y-28.0930
G01 X22.7817 Y-28.0801
G01 X22.7912 Y-28.0679
G01 X22.7992 Y-28.0565
G01 X22.8067 Y-28.0447
G01 X22.8151 Y-28.0300
G01 X22.8220 Y-28.0162
G01 X22.8283 Y-28.0021
G01 X22.8338 Y-27.9876
G01 X22.8387 Y-27.9730
G01 X22.8432 Y-27.9566
G01 X22.8465 Y-27.9415
G01 X22.8488 Y-27.9278
G01 X22.8506 Y-27.9139
G01 X22.8519 Y-27.8970
G01 X22.8522 Y-27.8823
G01 X22.8522 Y-26.0680
G01 X22.9847 Y-26.0680
G01 X22.9848 Y-26.1370
G01 X22.9854 Y-26.1430
G01 X22.9865 Y-26.1488
G01 X22.9883 Y-26.1545
G01 X22.9905 Y-26.1600
G01 X22.9934 Y-26.1653
G01 X22.9985 Y-26.1726
G01 X23.0047 Y-26.1790
G01 X23.0117 Y-26.1845
G01 X23.0195 Y-26.1889
G01 X23.0278 Y-26.1921
G01 X23.0365 Y-26.1941
G01 X23.0424 Y-26.1947
G01 X26.0934 Y-26.1948
G01 X26.0994 Y-26.1945
G01 X26.1053 Y-26.1936
G01 X26.1110 Y-26.1921
G01 X26.1194 Y-26.1889
G01 X26.1271 Y-26.1845
G01 X26.1319 Y-26.1810
G01 X26.1363 Y-26.1770
G01 X26.1403 Y-26.1726
G01 X26.1439 Y-26.1678
G01 X26.1483 Y-26.1600
G01 X26.1515 Y-26.1517
G01 X26.1530 Y-26.1459
G01 X26.1538 Y-26.1400
G01 X26.1541 Y-26.1341
G01 X26.1541 Y-25.6868
G01 X26.2866 Y-25.6868
G01 X26.2866 Y-26.1823
G01 X26.2870 Y-26.1978
G01 X26.2881 Y-26.2132
G01 X26.2902 Y-26.2300
G01 X26.2926 Y-26.2437
G01 X26.2960 Y-26.2588
G01 X26.3006 Y-26.2751
G01 X26.3050 Y-26.2884
G01 X26.3106 Y-26.3028
G01 X26.3175 Y-26.3183
G01 X26.3238 Y-26.3307
G01 X26.3314 Y-26.3442
G01 X26.3397 Y-26.3572
G01 X26.3477 Y-26.3687
G01 X26.3590 Y-26.3832
G01 X26.3681 Y-26.3937
G01 X26.3788 Y-26.4049
G01 X26.3900 Y-26.4156
G01 X26.4017 Y-26.4257
G01 X26.4139 Y-26.4352
G01 X26.4265 Y-26.4441
G01 X26.4396 Y-26.4524
G01 X26.4517 Y-26.4593
G01 X26.4682 Y-26.4675
G01 X26.4809 Y-26.4732
G01 X26.4968 Y-26.4792
G01 X26.5100 Y-26.4836
G01 X26.5249 Y-26.4877
G01 X26.5400 Y-26.4911
G01 X26.5538 Y-26.4935
G01 X26.5720 Y-26.4958
G01 X26.5860 Y-26.4968
G01 X26.6007 Y-26.4971
G01 X26.8798 Y-26.4971
G01 X26.8937 Y-26.4968
G01 X26.9077 Y-26.4958
G01 X26.9245 Y-26.4937
G01 X26.9412 Y-26.4908
G01 X26.9548 Y-26.4877
G01 X26.9682 Y-26.4840
G01 X26.9843 Y-26.4787
G01 X27.0001 Y-26.4726
G01 X27.0129 Y-26.4669
G01 X27.0254 Y-26.4607
G01 X27.0401 Y-26.4524
G01 X27.0532 Y-26.4441
G01 X27.0670 Y-26.4343
G01 X27.0780 Y-26.4257
G01 X27.0886 Y-26.4166
G01 X27.1004 Y-26.4055
G01 X29.2066 Y-24.2993
G01 X29.2172 Y-24.2881
G01 X29.2282 Y-24.2752
G01 X29.2377 Y-24.2630
G01 X29.2457 Y-24.2516
G01 X29.2532 Y-24.2398
G01 X29.2623 Y-24.2237
G01 X29.2685 Y-24.2113
G01 X29.2742 Y-24.1985
G01 X29.2804 Y-24.1827
G01 X29.2856 Y-24.1666
G01 X29.2893 Y-24.1532
G01 X29.2924 Y-24.1395
G01 X29.2954 Y-24.1229
G01 X29.2973 Y-24.1075
G01 X29.2983 Y-24.0936
G01 X29.2988 Y-24.0767
G01 X29.2988 Y-17.5057
G01 X29.2984 Y-17.4902
G01 X29.2971 Y-17.4733
G01 X29.2951 Y-17.4580
G01 X29.2927 Y-17.4443
G01 X29.2897 Y-17.4306
G01 X29.2848 Y-17.4129
G01 X29.2804 Y-17.3996
G01 X29.2748 Y-17.3852
G01 X29.2679 Y-17.3697
G01 X29.2616 Y-17.3573
G01 X29.2540 Y-17.3438
G01 X29.2457 Y-17.3308
G01 X29.2377 Y-17.3193
G01 X29.2273 Y-17.3060
G01 X29.2172 Y-17.2943
G01 X29.2076 Y-17.2841
G01 X29.1942 Y-17.2714
G01 X29.1837 Y-17.2623
G01 X29.1727 Y-17.2537
G01 X29.1576 Y-17.2431
G01 X29.1458 Y-17.2356
G01 X29.1323 Y-17.2280
G01 X29.1185 Y-17.2211
G01 X29.1058 Y-17.2154
G01 X29.0886 Y-17.2088
G01 X29.0753 Y-17.2044
G01 X29.0604 Y-17.2003
G01 X29.0454 Y-17.1969
G01 X29.0316 Y-17.1945
G01 X29.0148 Y-17.1924
G01 X28.9994 Y-17.1912
G01 X28.9839 Y-17.1909
G01 X26.8045 Y-17.1909
G01 X26.8045 Y-15.0139
G01 X26.8041 Y-14.9985
G01 X26.8030 Y-14.9831
G01 X26.8011 Y-14.9677
G01 X26.7987 Y-14.9540
G01 X26.7947 Y-14.9360
G01 X26.7909 Y-14.9226
G01 X26.7861 Y-14.9079
G01 X26.7805 Y-14.8935
G01 X26.7749 Y-14.8807
G01 X26.7666 Y-14.8642
G01 X26.7597 Y-14.8521
G01 X26.7514 Y-14.8390
G01 X26.7425 Y-14.8264
G01 X26.7340 Y-14.8154
G01 X26.7219 Y-14.8014
G01 X26.7123 Y-14.7913
G01 X26.7011 Y-14.7807
G01 X26.6894 Y-14.7706
G01 X26.6784 Y-14.7620
G01 X26.6633 Y-14.7514
G01 X26.6515 Y-14.7439
G01 X26.6381 Y-14.7363
G01 X26.6243 Y-14.7293
G01 X26.6115 Y-14.7237
G01 X26.5943 Y-14.7170
G01 X26.5810 Y-14.7127
G01 X26.5662 Y-14.7085
G01 X26.5511 Y-14.7052
G01 X26.5359 Y-14.7025
G01 X26.5190 Y-14.7005
G01 X26.5051 Y-14.6995
G01 X26.4897 Y-14.6991
G01 X18.0238 Y-14.6991
G01 X18.0069 Y-14.6996
G01 X17.9930 Y-14.7006
G01 X17.9791 Y-14.7023
G01 X17.9624 Y-14.7052
G01 X17.9473 Y-14.7085
G01 X17.9339 Y-14.7123
G01 X17.9178 Y-14.7175
G01 X17.9034 Y-14.7231
G01 X17.8906 Y-14.7287
G01 X17.8754 Y-14.7363
G01 X17.8607 Y-14.7447
G01 X17.8489 Y-14.7522
G01 X17.8375 Y-14.7602
G01 X17.8230 Y-14.7715
G01 X17.8124 Y-14.7807
G01 X17.8012 Y-14.7913
G01 X17.7896 Y-14.8036
G01 X17.7805 Y-14.8142
G01 X17.7719 Y-14.8252
G01 X17.7613 Y-14.8403
G01 X17.7538 Y-14.8521
G01 X17.7469 Y-14.8642
G01 X17.7392 Y-14.8793
G01 X17.7324 Y-14.8948
G01 X17.7274 Y-14.9079
G01 X17.7226 Y-14.9226
G01 X17.7184 Y-14.9374
G01 X17.7154 Y-14.9511
G01 X17.7122 Y-14.9692
G01 X17.7105 Y-14.9831
G01 X17.7094 Y-14.9985
G01 X17.7090 Y-15.0139
G01 X17.7090 Y-15.4611
G01 X15.2907 Y-15.4611
G01 X15.2907 Y-12.5348
G01 X17.7090 Y-12.5348
G01 X17.7090 Y-12.9819
G01 X17.7094 Y-12.9974
G01 X17.7105 Y-13.0128
G01 X17.7122 Y-13.0267
G01 X17.7154 Y-13.0448
G01 X17.7184 Y-13.0584
G01 X17.7226 Y-13.0733
G01 X17.7274 Y-13.0880
G01 X17.7324 Y-13.1010
G01 X17.7392 Y-13.1165
G01 X17.7469 Y-13.1317
G01 X17.7538 Y-13.1438
G01 X17.7613 Y-13.1556
G01 X17.7719 Y-13.1707
G01 X17.7805 Y-13.1817
G01 X17.7896 Y-13.1922
G01 X17.8012 Y-13.2046
G01 X17.8124 Y-13.2152
G01 X17.8230 Y-13.2243
G01 X17.8375 Y-13.2357
G01 X17.8489 Y-13.2437
G01 X17.8607 Y-13.2512
G01 X17.8754 Y-13.2596
G01 X17.8906 Y-13.2672
G01 X17.9034 Y-13.2728
G01 X17.9178 Y-13.2784
G01 X17.9339 Y-13.2836
G01 X17.9473 Y-13.2873
G01 X17.9624 Y-13.2907
G01 X17.9791 Y-13.2936
G01 X17.9930 Y-13.2953
G01 X18.0069 Y-13.2963
G01 X18.0238 Y-13.2968
G01 X26.4897 Y-13.2968
G01 X26.5036 Y-13.2964
G01 X26.5220 Y-13.2951
G01 X26.5359 Y-13.2934
G01 X26.5511 Y-13.2907
G01 X26.5662 Y-13.2873
G01 X26.5796 Y-13.2836
G01 X26.5971 Y-13.2778
G01 X26.6101 Y-13.2728
G01 X26.6243 Y-13.2665
G01 X26.6381 Y-13.2596
G01 X26.6502 Y-13.2527
G01 X26.6646 Y-13.2437
G01 X26.6760 Y-13.2357
G01 X26.6905 Y-13.2243
G01 X26.7011 Y-13.2152
G01 X26.7123 Y-13.2046
G01 X26.7229 Y-13.1934
G01 X26.7321 Y-13.1828
G01 X26.7434 Y-13.1683
G01 X26.7514 Y-13.1568
G01 X26.7597 Y-13.1438
G01 X26.7673 Y-13.1303
G01 X26.7736 Y-13.1179
G01 X26.7811 Y-13.1010
G01 X26.7861 Y-13.0880
G01 X26.7909 Y-13.0733
G01 X26.7951 Y-13.0584
G01 X26.7984 Y-13.0434
G01 X26.8011 Y-13.0281
G01 X26.8030 Y-13.0128
G01 X26.8041 Y-12.9974
G01 X26.8045 Y-12.9819
G01 X26.8045 Y-11.8058
G01 X40.1931 Y-11.8058
G01 X40.1931 Y-17.1909
G01 X31.0152 Y-17.1909
G01 X31.0005 Y-17.1912
G01 X30.9851 Y-17.1924
G01 X30.9697 Y-17.1943
G01 X30.9560 Y-17.1966
G01 X30.9380 Y-17.2007
G01 X30.9246 Y-17.2044
G01 X30.9099 Y-17.2093
G01 X30.8955 Y-17.2148
G01 X30.8813 Y-17.2211
G01 X30.8675 Y-17.2280
G01 X30.8554 Y-17.2349
G01 X30.8410 Y-17.2439
G01 X30.8296 Y-17.2519
G01 X30.8151 Y-17.2633
G01 X30.8034 Y-17.2734
G01 X30.7933 Y-17.2831
G01 X30.7837 Y-17.2932
G01 X30.7726 Y-17.3060
G01 X30.7640 Y-17.3170
G01 X30.7542 Y-17.3308
G01 X30.7459 Y-17.3438
G01 X30.7383 Y-17.3573
G01 X30.7313 Y-17.3711
G01 X30.7251 Y-17.3852
G01 X30.7195 Y-17.3996
G01 X30.7147 Y-17.4143
G01 X30.7102 Y-17.4306
G01 X30.7072 Y-17.4443
G01 X30.7048 Y-17.4580
G01 X30.7028 Y-17.4733
G01 X30.7015 Y-17.4902
G01 X30.7011 Y-17.5049
G01 X30.7011 Y-24.7895
G01 X27.5887 Y-27.8995
G01 X26.6014 Y-27.8995
G01 X26.5860 Y-27.8999
G01 X26.5720 Y-27.9009
G01 X26.5552 Y-27.9029
G01 X26.5400 Y-27.9055
G01 X26.5249 Y-27.9089
G01 X26.5115 Y-27.9126
G01 X26.4954 Y-27.9179
G01 X26.4823 Y-27.9229
G01 X26.4655 Y-27.9304
G01 X26.4530 Y-27.9367
G01 X26.4396 Y-27.9443
G01 X26.4265 Y-27.9526
G01 X26.4139 Y-27.9614
G01 X26.4017 Y-27.9710
G01 X26.3900 Y-27.9810
G01 X26.3788 Y-27.9917
G01 X26.3681 Y-28.0029
G01 X26.3581 Y-28.0146
G01 X26.3495 Y-28.0256
G01 X26.3388 Y-28.0407
G01 X26.3314 Y-28.0525
G01 X26.3238 Y-28.0659
G01 X26.3168 Y-28.0797
G01 X26.3106 Y-28.0938
G01 X26.3050 Y-28.1083
G01 X26.3001 Y-28.1229
G01 X26.2960 Y-28.1378
G01 X26.2930 Y-28.1514
G01 X26.2898 Y-28.1696
G01 X26.2881 Y-28.1835
G01 X26.2870 Y-28.1989
G01 X26.2866 Y-28.2143
G01 X26.2866 Y-29.7258
G01 X22.7088 Y-29.7258
G01 X22.6993 Y-29.7197
G01 X22.6871 Y-29.7128
G01 X22.6720 Y-29.7052
G01 X22.6565 Y-29.6984
G01 X22.6435 Y-29.6934
G01 X22.6288 Y-29.6885
G01 X22.6139 Y-29.6844
G01 X22.6003 Y-29.6813
G01 X22.5836 Y-29.6784
G01 X22.5668 Y-29.6763
G01 X22.5529 Y-29.6753
G01 X22.5374 Y-29.6750
G01 X22.5220 Y-29.6753
G01 X22.5066 Y-29.6765
G01 X22.4912 Y-29.6784
G01 X22.4775 Y-29.6807
G01 X22.4595 Y-29.6848
G01 X22.4460 Y-29.6885
G01 X22.4300 Y-29.6939
G01 X22.4169 Y-29.6989
G01 X22.4028 Y-29.7052
G01 X22.3890 Y-29.7121
G01 X22.3756 Y-29.7197
G01 X22.3625 Y-29.7280
G01 X22.3499 Y-29.7369
G01 X22.3377 Y-29.7464
G01 X22.3271 Y-29.7555
G01 X22.3153 Y-29.7666
G01 X22.2914 Y-29.7906
G01 X22.2813 Y-29.8012
G01 X22.2712 Y-29.8129
G01 X22.2617 Y-29.8251
G01 X22.2528 Y-29.8377
G01 X22.2445 Y-29.8508
G01 X22.2369 Y-29.8642
G01 X22.2300 Y-29.8780
G01 X22.2237 Y-29.8922
G01 X22.2181 Y-29.9066
G01 X22.2129 Y-29.9227
G01 X22.2092 Y-29.9361
G01 X22.2061 Y-29.9498
G01 X22.2034 Y-29.9650
G01 X22.2012 Y-29.9818
G01 X22.2001 Y-29.9972
G01 X22.1997 Y-30.0126
G01 X22.1997 Y-32.0895
G01 X20.5884 Y-33.7009
G01 X6.7472 Y-33.7009
G01 X3.2968 Y-30.2481
G01 X3.2968 Y-13.2293
G01 X4.6921 Y-11.8363
G01 X5.6413 Y-11.8363
G01 X5.6553 Y-11.8359
G01 X5.6722 Y-11.8348
G01 X5.6875 Y-11.8329
G01 X5.7028 Y-11.8302
G01 X5.7193 Y-11.8265
G01 X5.7327 Y-11.8227
G01 X5.7460 Y-11.8183
G01 X5.7604 Y-11.8129
G01 X5.7759 Y-11.8060
G01 X5.7884 Y-11.7998
G01 X5.8045 Y-11.7907
G01 X5.8162 Y-11.7832
G01 X5.8289 Y-11.7743
G01 X5.8422 Y-11.7638
G01 X5.8528 Y-11.7547
G01 X5.8634 Y-11.7446
G01 X6.5853 Y-11.0227
G01 X6.5960 Y-11.0115
G01 X6.6061 Y-10.9998
G01 X6.6147 Y-10.9888
G01 X6.6253 Y-10.9737
G01 X6.6327 Y-10.9619
G01 X6.6404 Y-10.9485
G01 X6.6473 Y-10.9347
G01 X6.6536 Y-10.9206
G01 X6.6591 Y-10.9061
G01 X6.6640 Y-10.8915
G01 X6.6681 Y-10.8766
G01 X6.6712 Y-10.8630
G01 X6.6741 Y-10.8463
G01 X6.6758 Y-10.8324
G01 X6.6772 Y-10.8140
G01 X6.6775 Y-10.8001
G01 X6.6771 Y-10.7846
G01 X6.6760 Y-10.7692
G01 X6.6741 Y-10.7539
G01 X6.6715 Y-10.7387
G01 X6.6681 Y-10.7236
G01 X6.6640 Y-10.7087
G01 X6.6591 Y-10.6940
G01 X6.6536 Y-10.6796
G01 X6.6473 Y-10.6655
G01 X6.6404 Y-10.6517
G01 X6.6327 Y-10.6382
G01 X6.6245 Y-10.6252
G01 X6.6156 Y-10.6125
G01 X6.6061 Y-10.6004
G01 X6.5950 Y-10.5876
G01 X6.5853 Y-10.5775
G01 X4.8073 Y-8.7995
G01 X4.7961 Y-8.7888
G01 X4.7844 Y-8.7787
G01 X4.7710 Y-8.7683
G01 X4.7596 Y-8.7603
G01 X4.7466 Y-8.7520
G01 X4.7331 Y-8.7444
G01 X4.7206 Y-8.7381
G01 X4.7052 Y-8.7312
G01 X4.6894 Y-8.7252
G01 X4.6761 Y-8.7208
G01 X4.6612 Y-8.7167
G01 X4.6447 Y-8.7130
G01 X4.6309 Y-8.7107
G01 X4.6156 Y-8.7088
G01 X4.6001 Y-8.7076
G01 X4.5847 Y-8.7073
G01 X3.9986 Y-8.7073
G01 X3.2892 Y-7.9999
G01 X3.2892 Y-6.9986
G01 X3.9988 Y-6.2889
G01 X5.0001 Y-6.2889
G01 X5.7075 Y-6.9983
G01 X5.7075 Y-7.5870
G01 X5.7079 Y-7.6024
G01 X5.7089 Y-7.6164
G01 X5.7109 Y-7.6332
G01 X5.7139 Y-7.6499
G01 X5.7169 Y-7.6635
G01 X5.7207 Y-7.6769
G01 X5.7264 Y-7.6944
G01 X5.7315 Y-7.7075
G01 X5.7371 Y-7.7202
G01 X5.7447 Y-7.7354
G01 X5.7523 Y-7.7488
G01 X5.7598 Y-7.7606
G01 X5.7695 Y-7.7745
G01 X5.7790 Y-7.7867
G01 X5.7881 Y-7.7973
G01 X5.7997 Y-7.8096
G01 X8.1993 Y-10.2091
G01 X8.1993 Y-10.6782
G01 X8.1997 Y-10.6951
G01 X8.2008 Y-10.7090
G01 X8.2025 Y-10.7229
G01 X8.2050 Y-10.7381
G01 X8.2087 Y-10.7547
G01 X8.2128 Y-10.7695
G01 X8.2182 Y-10.7856
G01 X8.2232 Y-10.7986
G01 X8.2289 Y-10.8114
G01 X8.2364 Y-10.8266
G01 X8.2448 Y-10.8413
G01 X8.2532 Y-10.8543
G01 X8.2612 Y-10.8657
G01 X8.2698 Y-10.8767
G01 X8.2808 Y-10.8896
G01 X8.2909 Y-10.9002
G01 X9.2153 Y-11.8246
G01 X9.2153 Y-13.2480
G01 X8.1693 Y-14.2963
G01 X8.1587 Y-14.3075
G01 X8.1486 Y-14.3192
G01 X8.1391 Y-14.3314
G01 X8.1302 Y-14.3440
G01 X8.1228 Y-14.3558
G01 X8.1137 Y-14.3718
G01 X8.1074 Y-14.3843
G01 X8.1012 Y-14.3984
G01 X8.0957 Y-14.4128
G01 X8.0908 Y-14.4275
G01 X8.0867 Y-14.4424
G01 X8.0836 Y-14.4560
G01 X8.0805 Y-14.4741
G01 X8.0788 Y-14.4880
G01 X8.0777 Y-14.5034
G01 X8.0773 Y-14.5188
G01 X8.0777 Y-14.5343
G01 X8.0789 Y-14.5497
G01 X8.0808 Y-14.5650
G01 X8.0834 Y-14.5802
G01 X8.0868 Y-14.5953
G01 X8.0909 Y-14.6101
G01 X8.0958 Y-14.6248
G01 X8.1013 Y-14.6392
G01 X8.1076 Y-14.6533
G01 X8.1145 Y-14.6671
G01 X8.1222 Y-14.6805
G01 X8.1304 Y-14.6936
G01 X8.1393 Y-14.7062
G01 X8.1488 Y-14.7184
G01 X8.1579 Y-14.7290
G01 X8.1695 Y-14.7413
G01 X9.0611 Y-15.6328
G01 X8.9110 Y-15.7832
G01 X8.8957 Y-15.7528
G01 X8.8565 Y-15.6839
G01 X8.8157 Y-15.6194
G01 X8.7700 Y-15.5546
G01 X8.7231 Y-15.4945
G01 X8.6723 Y-15.4356
G01 X8.6186 Y-15.3793
G01 X8.5612 Y-15.3247
G01 X8.5034 Y-15.2749
G01 X8.4421 Y-15.2270
G01 X8.3785 Y-15.1822
G01 X8.3128 Y-15.1406
G01 X8.2451 Y-15.1023
G01 X8.1756 Y-15.0673
G01 X8.1045 Y-15.0358
G01 X8.0319 Y-15.0078
G01 X7.9581 Y-14.9834
G01 X7.8846 Y-14.9630
G01 X7.8072 Y-14.9456
G01 X7.7291 Y-14.9321
G01 X7.6534 Y-14.9228
G01 X7.5773 Y-14.9171
G01 X7.4981 Y-14.9151
G01 X7.4188 Y-14.9171
G01 X7.3428 Y-14.9228
G01 X7.2670 Y-14.9321
G01 X7.1875 Y-14.9459
G01 X7.1130 Y-14.9626
G01 X7.0395 Y-14.9830
G01 X6.9628 Y-15.0083
G01 X6.8916 Y-15.0358
G01 X6.8205 Y-15.0673
G01 X6.7511 Y-15.1023
G01 X6.6847 Y-15.1398
G01 X6.6164 Y-15.1831
G01 X6.5541 Y-15.2270
G01 X6.4928 Y-15.2749
G01 X6.4339 Y-15.3257
G01 X6.3786 Y-15.3782
G01 X6.3239 Y-15.4356
G01 X6.2731 Y-15.4945
G01 X6.2261 Y-15.5546
G01 X6.1805 Y-15.6194
G01 X6.1388 Y-15.6851
G01 X6.1012 Y-15.7515
G01 X6.0649 Y-15.8236
G01 X6.0340 Y-15.8934
G01 X6.0065 Y-15.9646
G01 X5.9812 Y-16.0413
G01 X5.9609 Y-16.1148
G01 X5.9438 Y-16.1907
G01 X5.9305 Y-16.2673
G01 X5.9250 Y-16.3121
G00 Z2.0000
G00 X5.8899 Y-15.9698
G01 F30.00
G01 Z-0.0400
G01 F30.00
G01 X5.8899 Y-15.8324
G01 X5.9873 Y-15.7353
G01 X5.9670 Y-15.7757
G01 X5.9333 Y-15.8517
G01 X5.9034 Y-15.9292
G01 X5.8899 Y-15.9698
G00 Z2.0000
G00 X8.8594 Y-24.6760
G01 F30.00
G01 Z-0.0400
G01 F30.00
G01 X8.8594 Y-19.5909
G01 X10.6197 Y-19.5909
G01 X10.6367 Y-19.5904
G01 X10.6521 Y-19.5892
G01 X10.6659 Y-19.5875
G01 X10.6797 Y-19.5851
G01 X10.6962 Y-19.5815
G01 X10.7097 Y-19.5777
G01 X10.7258 Y-19.5725
G01 X10.7402 Y-19.5669
G01 X10.7543 Y-19.5607
G01 X10.7681 Y-19.5537
G01 X10.7816 Y-19.5461
G01 X10.7946 Y-19.5378
G01 X10.8073 Y-19.5289
G01 X10.8206 Y-19.5185
G01 X10.8312 Y-19.5093
G01 X10.8434 Y-19.4976
G01 X10.8540 Y-19.4864
G01 X10.8631 Y-19.4758
G01 X10.8717 Y-19.4648
G01 X10.8823 Y-19.4497
G01 X10.8898 Y-19.4379
G01 X10.8974 Y-19.4245
G01 X10.9043 Y-19.4107
G01 X10.9100 Y-19.3979
G01 X10.9162 Y-19.3821
G01 X10.9210 Y-19.3674
G01 X10.9248 Y-19.3540
G01 X10.9285 Y-19.3375
G01 X10.9312 Y-19.3223
G01 X10.9329 Y-19.3084
G01 X10.9342 Y-19.2915
G01 X10.9346 Y-19.2761
G01 X10.9342 Y-19.2621
G01 X10.9331 Y-19.2452
G01 X10.9312 Y-19.2299
G01 X10.9288 Y-19.2161
G01 X10.9251 Y-19.1996
G01 X10.9206 Y-19.1833
G01 X10.9162 Y-19.1700
G01 X10.9106 Y-19.1556
G01 X10.9043 Y-19.1415
G01 X10.8981 Y-19.1290
G01 X10.8898 Y-19.1142
G01 X10.8815 Y-19.1012
G01 X10.8717 Y-19.0873
G01 X10.8631 Y-19.0763
G01 X10.8540 Y-19.0658
G01 X10.8429 Y-19.0540
G01 X10.2894 Y-18.5005
G01 X10.2894 Y-17.4989
G01 X10.9991 Y-16.7893
G01 X12.0006 Y-16.7893
G01 X12.4164 Y-17.2051
G01 X12.4276 Y-17.2157
G01 X12.4393 Y-17.2258
G01 X12.4527 Y-17.2362
G01 X12.4641 Y-17.2442
G01 X12.4772 Y-17.2525
G01 X12.4906 Y-17.2601
G01 X12.5031 Y-17.2664
G01 X12.5199 Y-17.2739
G01 X12.5330 Y-17.2789
G01 X12.5477 Y-17.2837
G01 X12.5625 Y-17.2878
G01 X12.5762 Y-17.2909
G01 X12.5943 Y-17.2941
G01 X12.6082 Y-17.2958
G01 X12.6221 Y-17.2968
G01 X12.6390 Y-17.2973
G01 X19.2040 Y-17.2973
G01 X21.1112 Y-19.2070
G01 X21.1230 Y-19.2181
G01 X21.1336 Y-19.2272
G01 X21.1446 Y-19.2358
G01 X21.1584 Y-19.2456
G01 X21.1728 Y-19.2547
G01 X21.1849 Y-19.2616
G01 X21.1974 Y-19.2679
G01 X21.2129 Y-19.2748
G01 X21.2287 Y-19.2808
G01 X21.2420 Y-19.2852
G01 X21.2555 Y-19.2890
G01 X21.2720 Y-19.2927
G01 X21.2887 Y-19.2956
G01 X21.3026 Y-19.2973
G01 X21.3165 Y-19.2983
G01 X21.3335 Y-19.2988
G01 X27.7893 Y-19.2988
G01 X28.1992 Y-19.7087
G01 X28.1992 Y-24.0889
G01 X27.7889 Y-24.5010
G01 X26.6014 Y-24.5010
G01 X26.5860 Y-24.5014
G01 X26.5691 Y-24.5027
G01 X26.5552 Y-24.5044
G01 X26.5415 Y-24.5067
G01 X26.5249 Y-24.5104
G01 X26.5086 Y-24.5150
G01 X26.4954 Y-24.5194
G01 X26.4823 Y-24.5244
G01 X26.4668 Y-24.5312
G01 X26.4517 Y-24.5389
G01 X26.4396 Y-24.5458
G01 X26.4278 Y-24.5532
G01 X26.4139 Y-24.5629
G01 X26.4017 Y-24.5724
G01 X26.3900 Y-24.5825
G01 X26.3788 Y-24.5932
G01 X26.3681 Y-24.6044
G01 X26.3581 Y-24.6161
G01 X26.3485 Y-24.6283
G01 X26.3397 Y-24.6409
G01 X26.3314 Y-24.6539
G01 X26.3238 Y-24.6674
G01 X26.3168 Y-24.6812
G01 X26.3106 Y-24.6953
G01 X26.3050 Y-24.7097
G01 X26.3001 Y-24.7244
G01 X26.2960 Y-24.7393
G01 X26.2926 Y-24.7544
G01 X26.2900 Y-24.7696
G01 X26.2881 Y-24.7849
G01 X26.2870 Y-24.8004
G01 X26.2866 Y-24.8151
G01 X26.2866 Y-25.3113
G01 X26.1541 Y-25.3113
G01 X26.1541 Y-24.8641
G01 X26.1538 Y-24.8581
G01 X26.1523 Y-24.8493
G01 X26.1506 Y-24.8436
G01 X26.1483 Y-24.8381
G01 X26.1455 Y-24.8329
G01 X26.1422 Y-24.8279
G01 X26.1363 Y-24.8211
G01 X26.1296 Y-24.8153
G01 X26.1246 Y-24.8120
G01 X26.1194 Y-24.8092
G01 X26.1110 Y-24.8060
G01 X26.1053 Y-24.8045
G01 X26.0994 Y-24.8037
G01 X26.0934 Y-24.8034
G01 X23.0424 Y-24.8034
G01 X23.0336 Y-24.8045
G01 X23.0278 Y-24.8060
G01 X23.0195 Y-24.8092
G01 X23.0117 Y-24.8136
G01 X23.0047 Y-24.8191
G01 X22.9985 Y-24.8256
G01 X22.9949 Y-24.8303
G01 X22.9905 Y-24.8381
G01 X22.9883 Y-24.8436
G01 X22.9865 Y-24.8493
G01 X22.9854 Y-24.8552
G01 X22.9848 Y-24.8611
G01 X22.9847 Y-24.9301
G01 X22.8522 Y-24.9301
G01 X22.8522 Y-22.6670
G01 X22.9847 Y-22.6670
G01 X22.9848 Y-22.7360
G01 X22.9854 Y-22.7419
G01 X22.9865 Y-22.7477
G01 X22.9883 Y-22.7534
G01 X22.9905 Y-22.7590
G01 X22.9949 Y-22.7667
G01 X22.9985 Y-22.7715
G01 X23.0047 Y-22.7780
G01 X23.0117 Y-22.7835
G01 X23.0195 Y-22.7879
G01 X23.0278 Y-22.7911
G01 X23.0365 Y-22.7930
G01 X23.0424 Y-22.7936
G01 X26.0934 Y-22.7937
G01 X26.1023 Y-22.7930
G01 X26.1082 Y-22.7919
G01 X26.1139 Y-22.7902
G01 X26.1220 Y-22.7865
G01 X26.1296 Y-22.7818
G01 X26.1363 Y-22.7759
G01 X26.1422 Y-22.7692
G01 X26.1470 Y-22.7616
G01 X26.1506 Y-22.7534
G01 X26.1530 Y-22.7448
G01 X26.1538 Y-22.7389
G01 X26.1541 Y-22.7330
G01 X26.1541 Y-21.4630
G01 X26.1535 Y-21.4541
G01 X26.1523 Y-21.4483
G01 X26.1506 Y-21.4426
G01 X26.1483 Y-21.4370
G01 X26.1455 Y-21.4318
G01 X26.1403 Y-21.4245
G01 X26.1363 Y-21.4201
G01 X26.1319 Y-21.4161
G01 X26.1271 Y-21.4125
G01 X26.1220 Y-21.4095
G01 X26.1139 Y-21.4058
G01 X26.1082 Y-21.4041
G01 X26.1023 Y-21.4030
G01 X26.0934 Y-21.4023
G01 X23.0424 Y-21.4024
G01 X23.0336 Y-21.4035
G01 X23.0278 Y-21.4049
G01 X23.0195 Y-21.4081
G01 X23.0117 Y-21.4125
G01 X23.0047 Y-21.4180
G01 X22.9985 Y-21.4245
G01 X22.9949 Y-21.4293
G01 X22.9905 Y-21.4370
G01 X22.9883 Y-21.4426
G01 X22.9865 Y-21.4483
G01 X22.9854 Y-21.4541
G01 X22.9848 Y-21.4600
G01 X22.9847 Y-21.5290
G01 X22.8522 Y-21.5290
G01 X22.8522 Y-21.0152
G01 X22.8519 Y-21.0005
G01 X22.8507 Y-20.9851
G01 X22.8488 Y-20.9698
G01 X22.8465 Y-20.9560
G01 X22.8428 Y-20.9395
G01 X22.8387 Y-20.9246
G01 X22.8338 Y-20.9099
G01 X22.8283 Y-20.8955
G01 X22.8220 Y-20.8814
G01 X22.8151 Y-20.8676
G01 X22.8075 Y-20.8541
G01 X22.7992 Y-20.8411
G01 X22.7903 Y-20.8284
G01 X22.7808 Y-20.8162
G01 X22.7707 Y-20.8045
G01 X22.7600 Y-20.7933
G01 X22.7488 Y-20.7827
G01 X22.7371 Y-20.7726
G01 X22.7250 Y-20.7631
G01 X22.7123 Y-20.7542
G01 X22.6993 Y-20.7459
G01 X22.6871 Y-20.7390
G01 X22.6720 Y-20.7314
G01 X22.6565 Y-20.7245
G01 X22.6435 Y-20.7195
G01 X22.6302 Y-20.7151
G01 X22.6139 Y-20.7106
G01 X22.5974 Y-20.7069
G01 X22.5836 Y-20.7045
G01 X22.5698 Y-20.7028
G01 X22.5514 Y-20.7015
G01 X22.5374 Y-20.7011
G01 X20.6231 Y-20.7011
G01 X18.7138 Y-18.7918
G01 X18.7037 Y-18.7822
G01 X18.6909 Y-18.7711
G01 X18.6799 Y-18.7625
G01 X18.6649 Y-18.7519
G01 X18.6531 Y-18.7444
G01 X18.6396 Y-18.7368
G01 X18.6258 Y-18.7298
G01 X18.6117 Y-18.7236
G01 X18.5973 Y-18.7180
G01 X18.5826 Y-18.7132
G01 X18.5677 Y-18.7090
G01 X18.5541 Y-18.7060
G01 X18.5359 Y-18.7028
G01 X18.5221 Y-18.7011
G01 X18.5052 Y-18.6999
G01 X18.4912 Y-18.6996
G01 X12.6390 Y-18.6996
G01 X12.6236 Y-18.7000
G01 X12.6082 Y-18.7011
G01 X12.5928 Y-18.7030
G01 X12.5791 Y-18.7054
G01 X12.5625 Y-18.7090
G01 X12.5462 Y-18.7136
G01 X12.5330 Y-18.7180
G01 X12.5186 Y-18.7236
G01 X12.5044 Y-18.7298
G01 X12.4920 Y-18.7361
G01 X12.4772 Y-18.7444
G01 X12.4641 Y-18.7527
G01 X12.4527 Y-18.7607
G01 X12.4393 Y-18.7711
G01 X12.4276 Y-18.7812
G01 X12.4164 Y-18.7918
G01 X12.1543 Y-19.0540
G01 X12.1441 Y-19.0646
G01 X12.1341 Y-19.0763
G01 X12.1245 Y-19.0885
G01 X12.1157 Y-19.1012
G01 X12.1074 Y-19.1142
G01 X12.1005 Y-19.1263
G01 X12.0928 Y-19.1415
G01 X12.0860 Y-19.1570
G01 X12.0810 Y-19.1700
G01 X12.0761 Y-19.1847
G01 X12.0717 Y-19.2010
G01 X12.0686 Y-19.2146
G01 X12.0660 Y-19.2299
G01 X12.0640 Y-19.2467
G01 X12.0630 Y-19.2606
G01 X12.0626 Y-19.2761
G01 X12.0630 Y-19.2915
G01 X12.0640 Y-19.3054
G01 X12.0660 Y-19.3223
G01 X12.0686 Y-19.3375
G01 X12.0717 Y-19.3511
G01 X12.0761 Y-19.3674
G01 X12.0810 Y-19.3821
G01 X12.0860 Y-19.3952
G01 X12.0928 Y-19.4107
G01 X12.0998 Y-19.4245
G01 X12.1066 Y-19.4366
G01 X12.1165 Y-19.4522
G01 X12.1255 Y-19.4648
G01 X12.1341 Y-19.4758
G01 X12.1432 Y-19.4864
G01 X12.1548 Y-19.4987
G01 X12.1649 Y-19.5083
G01 X12.1777 Y-19.5194
G01 X12.1899 Y-19.5289
G01 X12.2025 Y-19.5378
G01 X12.2156 Y-19.5461
G01 X12.2290 Y-19.5537
G01 X12.2428 Y-19.5607
G01 X12.2569 Y-19.5669
G01 X12.2728 Y-19.5730
G01 X12.2860 Y-19.5773
G01 X12.2995 Y-19.5811
G01 X12.3145 Y-19.5845
G01 X12.3312 Y-19.5875
G01 X12.3451 Y-19.5892
G01 X12.3620 Y-19.5905
G01 X12.3774 Y-19.5909
G01 X13.3098 Y-19.5909
G01 X13.3098 Y-19.7234
G01 X9.0526 Y-19.7234
G01 X9.0466 Y-19.7237
G01 X9.0378 Y-19.7252
G01 X9.0293 Y-19.7280
G01 X9.0214 Y-19.7320
G01 X9.0164 Y-19.7353
G01 X9.0096 Y-19.7411
G01 X9.0038 Y-19.7479
G01 X8.9990 Y-19.7554
G01 X8.9965 Y-19.7608
G01 X8.9937 Y-19.7693
G01 X8.9922 Y-19.7781
G01 X8.9919 Y-19.7841
G01 X8.9919 Y-24.6760
G01 X8.8594 Y-24.6760
G00 Z2.0000
G00 X8.8594 Y-26.3221
G01 F30.00
G01 Z-0.0400
G01 F30.00
G01 X8.9919 Y-26.3221
G01 X8.9919 Y-31.2141
G01 X8.9922 Y-31.2200
G01 X8.9930 Y-31.2259
G01 X8.9945 Y-31.2317
G01 X8.9965 Y-31.2373
G01 X8.9990 Y-31.2427
G01 X9.0021 Y-31.2478
G01 X9.0076 Y-31.2548
G01 X9.0118 Y-31.2590
G01 X9.0164 Y-31.2628
G01 X9.0214 Y-31.2661
G01 X9.0266 Y-31.2689
G01 X9.0321 Y-31.2712
G01 X9.0378 Y-31.2729
G01 X9.0437 Y-31.2741
G01 X9.0526 Y-31.2748
G01 X13.3098 Y-31.2748
G01 X13.3098 Y-31.4072
G01 X8.8594 Y-31.4072
G01 X8.8594 Y-26.3221
G00 Z2.0000
G00 X13.6853 Y-31.2748
G01 F30.00
G01 Z-0.0400
G01 F30.00
G01 X17.9426 Y-31.2748
G01 X17.9515 Y-31.2741
G01 X17.9573 Y-31.2729
G01 X17.9630 Y-31.2712
G01 X17.9685 Y-31.2689
G01 X17.9738 Y-31.2661
G01 X17.9811 Y-31.2610
G01 X17.9855 Y-31.2570
G01 X17.9895 Y-31.2526
G01 X17.9930 Y-31.2478
G01 X17.9961 Y-31.2427
G01 X17.9997 Y-31.2345
G01 X18.0014 Y-31.2288
G01 X18.0026 Y-31.2230
G01 X18.0033 Y-31.2141
G01 X18.0033 Y-26.0680
G01 X18.1357 Y-26.0680
G01 X18.1357 Y-31.4072
G01 X13.6853 Y-31.4072
G01 X13.6853 Y-31.2748
G00 Z2.0000
G00 X22.8977 Y-29.6160
G01 F30.00
G01 Z-0.0400
G01 F30.00
G01 X22.7372 Y-29.6160
G01 X22.7186 Y-29.6066
G01 X22.7034 Y-29.5998
G01 X22.6802 Y-29.5907
G01 X22.6565 Y-29.5830
G01 X22.6404 Y-29.5786
G01 X22.6269 Y-29.5756
G01 X22.8813 Y-29.5756
G01 X22.8856 Y-29.5898
G01 X22.8886 Y-29.5975
G01 X22.8920 Y-29.6051
G01 X22.8977 Y-29.6160
G00 Z2.0000
G00 X22.7931 Y-28.2196
G01 F30.00
G01 Z-0.0400
G01 F30.00
G01 X22.8063 Y-28.2092
G01 X22.8221 Y-28.1956
G01 X22.8371 Y-28.1813
G01 X22.8486 Y-28.1693
G01 X22.8677 Y-28.1472
G01 X22.8779 Y-28.1341
G01 X22.8921 Y-28.1136
G01 X22.9010 Y-28.0995
G01 X22.9112 Y-28.0814
G01 X22.9206 Y-28.0628
G01 X22.9290 Y-28.0438
G01 X22.9365 Y-28.0244
G01 X22.9430 Y-28.0046
G01 X22.9486 Y-27.9846
G01 X22.9509 Y-27.9743
G01 X22.9582 Y-27.9789
G01 X22.9729 Y-27.9867
G01 X22.9805 Y-27.9901
G01 X22.9962 Y-27.9957
G01 X23.0123 Y-27.9998
G01 X23.0205 Y-28.0012
G01 X23.0288 Y-28.0022
G01 X23.0454 Y-28.0030
G01 X26.1017 Y-28.0028
G01 X26.1183 Y-28.0012
G01 X26.1265 Y-27.9998
G01 X26.1347 Y-27.9980
G01 X26.1506 Y-27.9931
G01 X26.1660 Y-27.9867
G01 X26.1807 Y-27.9789
G01 X26.1945 Y-27.9696
G01 X26.2011 Y-27.9645
G01 X26.2074 Y-27.9591
G01 X26.2192 Y-27.9473
G01 X26.2297 Y-27.9344
G01 X26.2345 Y-27.9276
G01 X26.2390 Y-27.9206
G01 X26.2468 Y-27.9059
G01 X26.2532 Y-27.8905
G01 X26.2576 Y-27.8763
G01 X26.3458 Y-27.8763
G01 X26.3325 Y-27.8867
G01 X26.3168 Y-27.9003
G01 X26.3017 Y-27.9146
G01 X26.2902 Y-27.9266
G01 X26.2712 Y-27.9487
G01 X26.2610 Y-27.9618
G01 X26.2467 Y-27.9823
G01 X26.2379 Y-27.9964
G01 X26.2276 Y-28.0145
G01 X26.2183 Y-28.0331
G01 X26.2098 Y-28.0521
G01 X26.2024 Y-28.0715
G01 X26.1958 Y-28.0913
G01 X26.1903 Y-28.1113
G01 X26.1879 Y-28.1216
G01 X26.1807 Y-28.1170
G01 X26.1660 Y-28.1092
G01 X26.1506 Y-28.1028
G01 X26.1427 Y-28.1002
G01 X26.1347 Y-28.0979
G01 X26.1183 Y-28.0947
G01 X26.1101 Y-28.0937
G01 X26.0934 Y-28.0929
G01 X23.0371 Y-28.0931
G01 X23.0205 Y-28.0947
G01 X23.0123 Y-28.0961
G01 X23.0042 Y-28.0979
G01 X22.9882 Y-28.1028
G01 X22.9729 Y-28.1092
G01 X22.9582 Y-28.1170
G01 X22.9443 Y-28.1263
G01 X22.9378 Y-28.1314
G01 X22.9314 Y-28.1368
G01 X22.9197 Y-28.1486
G01 X22.9142 Y-28.1549
G01 X22.9043 Y-28.1683
G01 X22.8998 Y-28.1753
G01 X22.8920 Y-28.1900
G01 X22.8856 Y-28.2054
G01 X22.8813 Y-28.2196
G01 X22.7931 Y-28.2196
G00 Z2.0000
G00 X22.9613 Y-26.4160
G01 F30.00
G01 Z-0.0400
G01 F30.00
G01 X22.9613 Y-26.2814
G01 X22.9729 Y-26.2875
G01 X22.9805 Y-26.2909
G01 X22.9962 Y-26.2965
G01 X23.0042 Y-26.2987
G01 X23.0205 Y-26.3019
G01 X23.0288 Y-26.3030
G01 X23.0454 Y-26.3038
G01 X26.0934 Y-26.3038
G01 X26.1101 Y-26.3030
G01 X26.1183 Y-26.3019
G01 X26.1347 Y-26.2987
G01 X26.1427 Y-26.2965
G01 X26.1506 Y-26.2939
G01 X26.1660 Y-26.2875
G01 X26.1807 Y-26.2796
G01 X26.1879 Y-26.2750
G01 X26.1903 Y-26.2853
G01 X26.1958 Y-26.3054
G01 X26.2024 Y-26.3251
G01 X26.2098 Y-26.3445
G01 X26.2183 Y-26.3635
G01 X26.2276 Y-26.3821
G01 X26.2379 Y-26.4002
G01 X26.2467 Y-26.4143
G01 X26.2635 Y-26.4381
G01 X26.2738 Y-26.4512
G01 X26.2902 Y-26.4700
G01 X26.3017 Y-26.4820
G01 X26.3168 Y-26.4964
G01 X26.3325 Y-26.5100
G01 X26.3458 Y-26.5203
G01 X26.2576 Y-26.5203
G01 X26.2532 Y-26.5061
G01 X26.2468 Y-26.4908
G01 X26.2431 Y-26.4833
G01 X26.2345 Y-26.4690
G01 X26.2246 Y-26.4557
G01 X26.2192 Y-26.4493
G01 X26.2134 Y-26.4433
G01 X26.2011 Y-26.4321
G01 X26.1877 Y-26.4222
G01 X26.1807 Y-26.4177
G01 X26.1660 Y-26.4099
G01 X26.1506 Y-26.4035
G01 X26.1427 Y-26.4009
G01 X26.1265 Y-26.3969
G01 X26.1101 Y-26.3944
G01 X26.1017 Y-26.3938
G01 X23.0454 Y-26.3936
G01 X23.0288 Y-26.3944
G01 X23.0205 Y-26.3954
G01 X23.0042 Y-26.3987
G01 X22.9882 Y-26.4035
G01 X22.9805 Y-26.4065
G01 X22.9729 Y-26.4099
G01 X22.9613 Y-26.4160
G00 Z2.0000
G00 X22.9613 Y-23.0175
G01 F30.00
G01 Z-0.0400
G01 F30.00
G01 X22.9613 Y-22.8803
G01 X22.9729 Y-22.8864
G01 X22.9805 Y-22.8898
G01 X22.9882 Y-22.8928
G01 X23.0042 Y-22.8976
G01 X23.0205 Y-22.9009
G01 X23.0288 Y-22.9019
G01 X23.0454 Y-22.9027
G01 X26.0934 Y-22.9027
G01 X26.1101 Y-22.9019
G01 X26.1265 Y-22.8995
G01 X26.1347 Y-22.8976
G01 X26.1506 Y-22.8928
G01 X26.1660 Y-22.8864
G01 X26.1734 Y-22.8827
G01 X26.1877 Y-22.8741
G01 X26.2011 Y-22.8642
G01 X26.2074 Y-22.8588
G01 X26.2192 Y-22.8470
G01 X26.2297 Y-22.8341
G01 X26.2345 Y-22.8273
G01 X26.2390 Y-22.8203
G01 X26.2468 Y-22.8056
G01 X26.2502 Y-22.7979
G01 X26.2558 Y-22.7823
G01 X26.2581 Y-22.7742
G01 X26.2613 Y-22.7579
G01 X26.2629 Y-22.7413
G01 X26.2629 Y-21.4547
G01 X26.2613 Y-21.4381
G01 X26.2581 Y-21.4218
G01 X26.2532 Y-21.4058
G01 X26.2502 Y-21.3981
G01 X26.2431 Y-21.3830
G01 X26.2345 Y-21.3687
G01 X26.2246 Y-21.3553
G01 X26.2134 Y-21.3430
G01 X26.2011 Y-21.3318
G01 X26.1877 Y-21.3219
G01 X26.1734 Y-21.3133
G01 X26.1584 Y-21.3062
G01 X26.1427 Y-21.3006
G01 X26.1265 Y-21.2965
G01 X26.1101 Y-21.2941
G01 X26.1017 Y-21.2935
G01 X23.0454 Y-21.2933
G01 X23.0288 Y-21.2941
G01 X23.0205 Y-21.2951
G01 X23.0042 Y-21.2984
G01 X22.9882 Y-21.3032
G01 X22.9805 Y-21.3062
G01 X22.9729 Y-21.3096
G01 X22.9613 Y-21.3157
G01 X22.9613 Y-21.0160
G01 X22.9609 Y-20.9993
G01 X22.9592 Y-20.9744
G01 X22.9567 Y-20.9538
G01 X22.9531 Y-20.9333
G01 X22.9475 Y-20.9089
G01 X22.9430 Y-20.8929
G01 X22.9365 Y-20.8732
G01 X22.9290 Y-20.8538
G01 X22.9223 Y-20.8385
G01 X22.9092 Y-20.8125
G01 X22.9010 Y-20.7981
G01 X22.8898 Y-20.7805
G01 X22.8779 Y-20.7635
G01 X22.8677 Y-20.7503
G01 X22.8486 Y-20.7283
G01 X22.8371 Y-20.7163
G01 X22.8221 Y-20.7019
G01 X22.8063 Y-20.6883
G01 X22.7931 Y-20.6779
G01 X26.8201 Y-20.6779
G01 X26.8201 Y-23.1218
G01 X26.2576 Y-23.1218
G01 X26.2532 Y-23.1076
G01 X26.2468 Y-23.0922
G01 X26.2390 Y-23.0775
G01 X26.2345 Y-23.0705
G01 X26.2297 Y-23.0637
G01 X26.2192 Y-23.0508
G01 X26.2074 Y-23.0390
G01 X26.2011 Y-23.0336
G01 X26.1877 Y-23.0237
G01 X26.1734 Y-23.0151
G01 X26.1584 Y-23.0080
G01 X26.1506 Y-23.0050
G01 X26.1347 Y-23.0002
G01 X26.1265 Y-22.9983
G01 X26.1101 Y-22.9959
G01 X26.1017 Y-22.9953
G01 X23.0454 Y-22.9951
G01 X23.0288 Y-22.9959
G01 X23.0205 Y-22.9969
G01 X23.0042 Y-23.0002
G01 X22.9882 Y-23.0050
G01 X22.9805 Y-23.0080
G01 X22.9729 Y-23.0114
G01 X22.9613 Y-23.0175
G00 Z2.0000
G00 X26.3458 Y-24.4778
G01 F30.00
G01 Z-0.0400
G01 F30.00
G01 X26.3325 Y-24.4882
G01 X26.3168 Y-24.5018
G01 X26.3017 Y-24.5161
G01 X26.2902 Y-24.5281
G01 X26.2712 Y-24.5502
G01 X26.2610 Y-24.5633
G01 X26.2467 Y-24.5838
G01 X26.2379 Y-24.5979
G01 X26.2276 Y-24.6160
G01 X26.2183 Y-24.6346
G01 X26.2098 Y-24.6536
G01 X26.2024 Y-24.6730
G01 X26.1958 Y-24.6928
G01 X26.1903 Y-24.7128
G01 X26.1879 Y-24.7231
G01 X26.1807 Y-24.7185
G01 X26.1660 Y-24.7106
G01 X26.1506 Y-24.7043
G01 X26.1427 Y-24.7017
G01 X26.1347 Y-24.6994
G01 X26.1183 Y-24.6962
G01 X26.1017 Y-24.6945
G01 X26.0934 Y-24.6943
G01 X23.0454 Y-24.6943
G01 X23.0288 Y-24.6952
G01 X23.0205 Y-24.6962
G01 X23.0042 Y-24.6994
G01 X22.9882 Y-24.7043
G01 X22.9805 Y-24.7073
G01 X22.9729 Y-24.7106
G01 X22.9613 Y-24.7167
G01 X22.9613 Y-24.5821
G01 X22.9729 Y-24.5882
G01 X22.9805 Y-24.5916
G01 X22.9962 Y-24.5972
G01 X23.0042 Y-24.5994
G01 X23.0205 Y-24.6027
G01 X23.0288 Y-24.6037
G01 X23.0454 Y-24.6045
G01 X26.1017 Y-24.6043
G01 X26.1101 Y-24.6037
G01 X26.1265 Y-24.6013
G01 X26.1427 Y-24.5972
G01 X26.1506 Y-24.5946
G01 X26.1660 Y-24.5882
G01 X26.1807 Y-24.5804
G01 X26.1877 Y-24.5759
G01 X26.2011 Y-24.5660
G01 X26.2074 Y-24.5606
G01 X26.2192 Y-24.5488
G01 X26.2297 Y-24.5359
G01 X26.2345 Y-24.5291
G01 X26.2390 Y-24.5221
G01 X26.2468 Y-24.5074
G01 X26.2532 Y-24.4920
G01 X26.2576 Y-24.4778
G01 X26.3458 Y-24.4778
G00 Z2.0000
G00 X26.5742 Y-31.9088
G01 F30.00
G01 Z-0.0400
G01 F30.00
G01 X26.5834 Y-31.8995
G01 X26.5966 Y-31.8995
G01 X26.5845 Y-31.9042
G01 X26.5742 Y-31.9088
G00 Z2.0000
G00 X27.4800 Y-31.8995
G01 F30.00
G01 Z-0.0400
G01 F30.00
G01 X27.4952 Y-31.8995
G01 X27.5060 Y-31.9104
G01 X27.4921 Y-31.9042
G01 X27.4800 Y-31.8995
G00 Z2.0000
G00 X28.1150 Y-32.9989
G01 F30.00
G01 Z-0.0400
G01 F30.00
G01 X28.1137 Y-32.9468
G01 X28.1098 Y-32.8941
G01 X28.1033 Y-32.8417
G01 X28.0943 Y-32.7896
G01 X28.0827 Y-32.7381
G01 X28.0686 Y-32.6871
G01 X28.0521 Y-32.6370
G01 X28.0330 Y-32.5876
G01 X28.0116 Y-32.5393
G01 X27.9879 Y-32.4921
G01 X27.9618 Y-32.4461
G01 X27.9335 Y-32.4015
G01 X27.9031 Y-32.3583
G01 X27.8706 Y-32.3166
G01 X27.8361 Y-32.2766
G01 X27.7996 Y-32.2383
G01 X27.7614 Y-32.2019
G01 X27.7214 Y-32.1674
G01 X27.6797 Y-32.1349
G01 X27.6365 Y-32.1044
G01 X27.5918 Y-32.0762
G01 X27.5459 Y-32.0501
G01 X27.4986 Y-32.0264
G01 X27.4503 Y-32.0049
G01 X27.4010 Y-31.9859
G01 X27.3508 Y-31.9693
G01 X27.2999 Y-31.9552
G01 X27.2484 Y-31.9437
G01 X27.1963 Y-31.9346
G01 X27.1438 Y-31.9282
G01 X27.0911 Y-31.9243
G01 X27.0383 Y-31.9230
G01 X26.9855 Y-31.9243
G01 X26.9328 Y-31.9282
G01 X26.8803 Y-31.9346
G01 X26.8282 Y-31.9437
G01 X26.7767 Y-31.9552
G01 X26.7258 Y-31.9693
G01 X26.6756 Y-31.9859
G01 X26.6263 Y-32.0049
G01 X26.5780 Y-32.0264
G01 X26.5307 Y-32.0501
G01 X26.4848 Y-32.0762
G01 X26.4401 Y-32.1044
G01 X26.3969 Y-32.1349
G01 X26.3552 Y-32.1674
G01 X26.3152 Y-32.2019
G01 X26.2770 Y-32.2383
G01 X26.2405 Y-32.2766
G01 X26.2060 Y-32.3166
G01 X26.1735 Y-32.3583
G01 X26.1431 Y-32.4015
G01 X26.1148 Y-32.4461
G01 X26.0887 Y-32.4921
G01 X26.0650 Y-32.5393
G01 X26.0436 Y-32.5876
G01 X26.0245 Y-32.6370
G01 X26.0080 Y-32.6871
G01 X25.9939 Y-32.7381
G01 X25.9823 Y-32.7896
G01 X25.9733 Y-32.8417
G01 X25.9668 Y-32.8941
G01 X25.9629 Y-32.9468
G01 X25.9616 Y-32.9997
G01 X25.9629 Y-33.0525
G01 X25.9668 Y-33.1052
G01 X25.9733 Y-33.1577
G01 X25.9823 Y-33.2097
G01 X25.9939 Y-33.2613
G01 X26.0080 Y-33.3122
G01 X26.0245 Y-33.3624
G01 X26.0436 Y-33.4117
G01 X26.0650 Y-33.4600
G01 X26.0887 Y-33.5072
G01 X26.1148 Y-33.5532
G01 X26.1431 Y-33.5979
G01 X26.1735 Y-33.6411
G01 X26.2060 Y-33.6827
G01 X26.2405 Y-33.7227
G01 X26.2770 Y-33.7610
G01 X26.3152 Y-33.7975
G01 X26.3552 Y-33.8320
G01 X26.3969 Y-33.8645
G01 X26.4401 Y-33.8949
G01 X26.4848 Y-33.9232
G01 X26.5307 Y-33.9492
G01 X26.5780 Y-33.9730
G01 X26.6263 Y-33.9944
G01 X26.6756 Y-34.0134
G01 X26.7258 Y-34.0300
G01 X26.7767 Y-34.0441
G01 X26.8282 Y-34.0557
G01 X26.8803 Y-34.0647
G01 X26.9328 Y-34.0712
G01 X26.9855 Y-34.0751
G01 X27.0383 Y-34.0764
G01 X27.0911 Y-34.0751
G01 X27.1438 Y-34.0712
G01 X27.1963 Y-34.0647
G01 X27.2484 Y-34.0557
G01 X27.2999 Y-34.0441
G01 X27.3508 Y-34.0300
G01 X27.4010 Y-34.0134
G01 X27.4503 Y-33.9944
G01 X27.4986 Y-33.9730
G01 X27.5459 Y-33.9492
G01 X27.5918 Y-33.9232
G01 X27.6365 Y-33.8949
G01 X27.6797 Y-33.8645
G01 X27.7214 Y-33.8320
G01 X27.7614 Y-33.7975
G01 X27.7996 Y-33.7610
G01 X27.8361 Y-33.7227
G01 X27.8706 Y-33.6827
G01 X27.9031 Y-33.6411
G01 X27.9335 Y-33.5979
G01 X27.9618 Y-33.5532
G01 X27.9879 Y-33.5072
G01 X28.0116 Y-33.4600
G01 X28.0330 Y-33.4117
G01 X28.0521 Y-33.3624
G01 X28.0686 Y-33.3122
G01 X28.0827 Y-33.2613
G01 X28.0943 Y-33.2097
G01 X28.1033 Y-33.1577
G01 X28.1098 Y-33.1052
G01 X28.1137 Y-33.0525
G01 X28.1150 Y-32.9989
G00 Z2.0000
G00 X28.5079 Y-33.5097
G01 F30.00
G01 Z-0.0400
G01 F30.00
G01 X28.4856 Y-33.4986
G01 X28.4703 Y-33.4919
G01 X28.4548 Y-33.4859
G01 X28.4311 Y-33.4779
G01 X28.4110 Y-33.4724
G01 X28.3866 Y-33.4671
G01 X28.3702 Y-33.4643
G01 X28.3536 Y-33.4622
G01 X28.3287 Y-33.4602
G01 X28.3079 Y-33.4598
G01 X28.2829 Y-33.4605
G01 X28.2663 Y-33.4618
G01 X28.2497 Y-33.4639
G01 X28.2251 Y-33.4680
G01 X28.2048 Y-33.4726
G01 X28.1847 Y-33.4782
G01 X28.1610 Y-33.4862
G01 X28.1455 Y-33.4923
G01 X28.1303 Y-33.4990
G01 X28.1087 Y-33.5097
G01 X28.1338 Y-33.4534
G01 X28.1547 Y-33.3991
G01 X28.1730 Y-33.3439
G01 X28.1894 Y-33.2837
G01 X28.2020 Y-33.2269
G01 X28.2112 Y-33.1737
G01 X28.2178 Y-33.1200
G01 X28.2226 Y-33.0579
G01 X28.2240 Y-32.9976
G01 X28.2226 Y-32.9415
G01 X28.2178 Y-32.8793
G01 X28.2105 Y-32.8216
G01 X28.2012 Y-32.7684
G01 X28.1894 Y-32.7156
G01 X28.1730 Y-32.6555
G01 X28.1547 Y-32.6002
G01 X28.1338 Y-32.5459
G01 X28.1119 Y-32.4965
G01 X28.1069 Y-32.4862
G01 X28.1269 Y-32.4963
G01 X28.1498 Y-32.5063
G01 X28.1653 Y-32.5122
G01 X28.1810 Y-32.5175
G01 X28.2050 Y-32.5243
G01 X28.2294 Y-32.5296
G01 X28.2458 Y-32.5324
G01 X28.2623 Y-32.5345
G01 X28.2871 Y-32.5365
G01 X28.3079 Y-32.5371
G01 X28.3328 Y-32.5363
G01 X28.3494 Y-32.5351
G01 X28.3659 Y-32.5331
G01 X28.3905 Y-32.5290
G01 X28.4107 Y-32.5245
G01 X28.4347 Y-32.5177
G01 X28.4505 Y-32.5125
G01 X28.4660 Y-32.5066
G01 X28.4889 Y-32.4967
G01 X28.5097 Y-32.4861
G01 X28.5047 Y-32.4965
G01 X28.4828 Y-32.5459
G01 X28.4619 Y-32.6002
G01 X28.4436 Y-32.6555
G01 X28.4272 Y-32.7156
G01 X28.4154 Y-32.7684
G01 X28.4061 Y-32.8216
G01 X28.3988 Y-32.8793
G01 X28.3940 Y-32.9415
G01 X28.3926 Y-32.9997
G01 X28.3940 Y-33.0579
G01 X28.3988 Y-33.1200
G01 X28.4054 Y-33.1737
G01 X28.4146 Y-33.2269
G01 X28.4272 Y-33.2837
G01 X28.4436 Y-33.3439
G01 X28.4619 Y-33.3991
G01 X28.4828 Y-33.4534
G01 X28.5079 Y-33.5097
G00 Z2.0000
G00 X29.1366 Y-34.0998
G01 F30.00
G01 Z-0.0400
G01 F30.00
G01 X29.1239 Y-34.0998
G01 X29.1151 Y-34.0910
G01 X29.1245 Y-34.0951
G01 X29.1366 Y-34.0998
G00 Z2.0000
G00 X30.0451 Y-34.0894
G01 F30.00
G01 Z-0.0400
G01 F30.00
G01 X30.0347 Y-34.0998
G01 X30.0200 Y-34.0998
G01 X30.0321 Y-34.0951
G01 X30.0451 Y-34.0894
G00 Z2.0000
G00 X31.0479 Y-33.5097
G01 F30.00
G01 Z-0.0400
G01 F30.00
G01 X31.0256 Y-33.4986
G01 X31.0103 Y-33.4919
G01 X30.9948 Y-33.4859
G01 X30.9711 Y-33.4779
G01 X30.9510 Y-33.4724
G01 X30.9266 Y-33.4671
G01 X30.9102 Y-33.4643
G01 X30.8936 Y-33.4622
G01 X30.8687 Y-33.4602
G01 X30.8479 Y-33.4598
G01 X30.8229 Y-33.4605
G01 X30.8063 Y-33.4618
G01 X30.7897 Y-33.4639
G01 X30.7651 Y-33.4680
G01 X30.7448 Y-33.4726
G01 X30.7247 Y-33.4782
G01 X30.7010 Y-33.4862
G01 X30.6855 Y-33.4923
G01 X30.6703 Y-33.4990
G01 X30.6487 Y-33.5097
G01 X30.6738 Y-33.4534
G01 X30.6947 Y-33.3991
G01 X30.7130 Y-33.3439
G01 X30.7294 Y-33.2837
G01 X30.7420 Y-33.2269
G01 X30.7512 Y-33.1737
G01 X30.7578 Y-33.1200
G01 X30.7626 Y-33.0579
G01 X30.7640 Y-32.9976
G01 X30.7626 Y-32.9415
G01 X30.7578 Y-32.8793
G01 X30.7512 Y-32.8257
G01 X30.7420 Y-32.7725
G01 X30.7294 Y-32.7156
G01 X30.7130 Y-32.6555
G01 X30.6947 Y-32.6002
G01 X30.6738 Y-32.5459
G01 X30.6519 Y-32.4965
G01 X30.6469 Y-32.4862
G01 X30.6669 Y-32.4963
G01 X30.6898 Y-32.5063
G01 X30.7053 Y-32.5122
G01 X30.7210 Y-32.5175
G01 X30.7450 Y-32.5243
G01 X30.7653 Y-32.5289
G01 X30.7899 Y-32.5330
G01 X30.8064 Y-32.5350
G01 X30.8230 Y-32.5363
G01 X30.8479 Y-32.5371
G01 X30.8728 Y-32.5363
G01 X30.8894 Y-32.5351
G01 X30.9059 Y-32.5331
G01 X30.9305 Y-32.5290
G01 X30.9507 Y-32.5245
G01 X30.9747 Y-32.5177
G01 X30.9905 Y-32.5125
G01 X31.0060 Y-32.5066
G01 X31.0289 Y-32.4967
G01 X31.0497 Y-32.4861
G01 X31.0447 Y-32.4965
G01 X31.0228 Y-32.5459
G01 X31.0019 Y-32.6002
G01 X30.9836 Y-32.6555
G01 X30.9672 Y-32.7156
G01 X30.9554 Y-32.7684
G01 X30.9461 Y-32.8216
G01 X30.9388 Y-32.8793
G01 X30.9340 Y-32.9415
G01 X30.9326 Y-32.9997
G01 X30.9340 Y-33.0579
G01 X30.9388 Y-33.1200
G01 X30.9454 Y-33.1737
G01 X30.9546 Y-33.2269
G01 X30.9672 Y-33.2837
G01 X30.9836 Y-33.3439
G01 X31.0019 Y-33.3991
G01 X31.0228 Y-33.4534
G01 X31.0479 Y-33.5097
G00 Z2.0000
G00 X30.6550 Y-32.9989
G01 F30.00
G01 Z-0.0400
G01 F30.00
G01 X30.6537 Y-32.9468
G01 X30.6498 Y-32.8941
G01 X30.6433 Y-32.8417
G01 X30.6343 Y-32.7896
G01 X30.6227 Y-32.7381
G01 X30.6086 Y-32.6871
G01 X30.5921 Y-32.6370
G01 X30.5730 Y-32.5876
G01 X30.5516 Y-32.5393
G01 X30.5279 Y-32.4921
G01 X30.5018 Y-32.4461
G01 X30.4735 Y-32.4015
G01 X30.4431 Y-32.3583
G01 X30.4106 Y-32.3166
G01 X30.3761 Y-32.2766
G01 X30.3396 Y-32.2383
G01 X30.3014 Y-32.2019
G01 X30.2614 Y-32.1674
G01 X30.2197 Y-32.1349
G01 X30.1765 Y-32.1044
G01 X30.1318 Y-32.0762
G01 X30.0859 Y-32.0501
G01 X30.0386 Y-32.0264
G01 X29.9903 Y-32.0049
G01 X29.9410 Y-31.9859
G01 X29.8908 Y-31.9693
G01 X29.8399 Y-31.9552
G01 X29.7884 Y-31.9437
G01 X29.7363 Y-31.9346
G01 X29.6838 Y-31.9282
G01 X29.6311 Y-31.9243
G01 X29.5783 Y-31.9230
G01 X29.5255 Y-31.9243
G01 X29.4728 Y-31.9282
G01 X29.4203 Y-31.9346
G01 X29.3682 Y-31.9437
G01 X29.3167 Y-31.9552
G01 X29.2658 Y-31.9693
G01 X29.2156 Y-31.9859
G01 X29.1663 Y-32.0049
G01 X29.1180 Y-32.0264
G01 X29.0707 Y-32.0501
G01 X29.0248 Y-32.0762
G01 X28.9801 Y-32.1044
G01 X28.9369 Y-32.1349
G01 X28.8952 Y-32.1674
G01 X28.8552 Y-32.2019
G01 X28.8170 Y-32.2383
G01 X28.7805 Y-32.2766
G01 X28.7460 Y-32.3166
G01 X28.7135 Y-32.3583
G01 X28.6831 Y-32.4015
G01 X28.6548 Y-32.4461
G01 X28.6287 Y-32.4921
G01 X28.6050 Y-32.5393
G01 X28.5836 Y-32.5876
G01 X28.5645 Y-32.6370
G01 X28.5480 Y-32.6871
G01 X28.5339 Y-32.7381
G01 X28.5223 Y-32.7896
G01 X28.5133 Y-32.8417
G01 X28.5068 Y-32.8941
G01 X28.5029 Y-32.9468
G01 X28.5016 Y-32.9997
G01 X28.5029 Y-33.0525
G01 X28.5068 Y-33.1052
G01 X28.5133 Y-33.1577
G01 X28.5223 Y-33.2097
G01 X28.5339 Y-33.2613
G01 X28.5480 Y-33.3122
G01 X28.5645 Y-33.3624
G01 X28.5836 Y-33.4117
G01 X28.6050 Y-33.4600
G01 X28.6287 Y-33.5072
G01 X28.6548 Y-33.5532
G01 X28.6831 Y-33.5979
G01 X28.7135 Y-33.6411
G01 X28.7460 Y-33.6827
G01 X28.7805 Y-33.7227
G01 X28.8170 Y-33.7610
G01 X28.8552 Y-33.7975
G01 X28.8952 Y-33.8320
G01 X28.9369 Y-33.8645
G01 X28.9801 Y-33.8949
G01 X29.0248 Y-33.9232
G01 X29.0707 Y-33.9492
G01 X29.1180 Y-33.9730
G01 X29.1663 Y-33.9944
G01 X29.2156 Y-34.0134
G01 X29.2658 Y-34.0300
G01 X29.3167 Y-34.0441
G01 X29.3682 Y-34.0557
G01 X29.4203 Y-34.0647
G01 X29.4728 Y-34.0712
G01 X29.5255 Y-34.0751
G01 X29.5783 Y-34.0764
G01 X29.6311 Y-34.0751
G01 X29.6838 Y-34.0712
G01 X29.7363 Y-34.0647
G01 X29.7884 Y-34.0557
G01 X29.8399 Y-34.0441
G01 X29.8908 Y-34.0300
G01 X29.9410 Y-34.0134
G01 X29.9903 Y-33.9944
G01 X30.0386 Y-33.9730
G01 X30.0859 Y-33.9492
G01 X30.1318 Y-33.9232
G01 X30.1765 Y-33.8949
G01 X30.2197 Y-33.8645
G01 X30.2614 Y-33.8320
G01 X30.3014 Y-33.7975
G01 X30.3396 Y-33.7610
G01 X30.3761 Y-33.7227
G01 X30.4106 Y-33.6827
G01 X30.4431 Y-33.6411
G01 X30.4735 Y-33.5979
G01 X30.5018 Y-33.5532
G01 X30.5279 Y-33.5072
G01 X30.5516 Y-33.4600
G01 X30.5730 Y-33.4117
G01 X30.5921 Y-33.3624
G01 X30.6086 Y-33.3122
G01 X30.6227 Y-33.2613
G01 X30.6343 Y-33.2097
G01 X30.6433 Y-33.1577
G01 X30.6498 Y-33.1052
G01 X30.6537 Y-33.0525
G01 X30.6550 Y-32.9989
G00 Z2.0000
G00 X30.0200 Y-31.8995
G01 F30.00
G01 Z-0.0400
G01 F30.00
G01 X30.0352 Y-31.8995
G01 X30.0460 Y-31.9104
G01 X30.0321 Y-31.9042
G01 X30.0200 Y-31.8995
G00 Z2.0000
G00 X29.1142 Y-31.9088
G01 F30.00
G01 Z-0.0400
G01 F30.00
G01 X29.1234 Y-31.8995
G01 X29.1366 Y-31.8995
G01 X29.1245 Y-31.9042
G01 X29.1142 Y-31.9088
G00 Z2.0000
G00 X31.6542 Y-31.9088
G01 F30.00
G01 Z-0.0400
G01 F30.00
G01 X31.6634 Y-31.8995
G01 X31.6766 Y-31.8995
G01 X31.6645 Y-31.9042
G01 X31.6542 Y-31.9088
G00 Z2.0000
G00 X32.5600 Y-31.8995
G01 F30.00
G01 Z-0.0400
G01 F30.00
G01 X32.5752 Y-31.8995
G01 X32.5860 Y-31.9104
G01 X32.5721 Y-31.9042
G01 X32.5600 Y-31.8995
G00 Z2.0000
G00 X33.1950 Y-32.9989
G01 F30.00
G01 Z-0.0400
G01 F30.00
G01 X33.1937 Y-32.9468
G01 X33.1898 Y-32.8941
G01 X33.1833 Y-32.8417
G01 X33.1743 Y-32.7896
G01 X33.1627 Y-32.7381
G01 X33.1486 Y-32.6871
G01 X33.1321 Y-32.6370
G01 X33.1130 Y-32.5876
G01 X33.0916 Y-32.5393
G01 X33.0679 Y-32.4921
G01 X33.0418 Y-32.4461
G01 X33.0135 Y-32.4015
G01 X32.9831 Y-32.3583
G01 X32.9506 Y-32.3166
G01 X32.9161 Y-32.2766
G01 X32.8796 Y-32.2383
G01 X32.8414 Y-32.2019
G01 X32.8014 Y-32.1674
G01 X32.7597 Y-32.1349
G01 X32.7165 Y-32.1044
G01 X32.6718 Y-32.0762
G01 X32.6259 Y-32.0501
G01 X32.5786 Y-32.0264
G01 X32.5303 Y-32.0049
G01 X32.4810 Y-31.9859
G01 X32.4308 Y-31.9693
G01 X32.3799 Y-31.9552
G01 X32.3284 Y-31.9437
G01 X32.2763 Y-31.9346
G01 X32.2238 Y-31.9282
G01 X32.1711 Y-31.9243
G01 X32.1183 Y-31.9230
G01 X32.0655 Y-31.9243
G01 X32.0128 Y-31.9282
G01 X31.9603 Y-31.9346
G01 X31.9082 Y-31.9437
G01 X31.8567 Y-31.9552
G01 X31.8058 Y-31.9693
G01 X31.7556 Y-31.9859
G01 X31.7063 Y-32.0049
G01 X31.6580 Y-32.0264
G01 X31.6107 Y-32.0501
G01 X31.5648 Y-32.0762
G01 X31.5201 Y-32.1044
G01 X31.4769 Y-32.1349
G01 X31.4352 Y-32.1674
G01 X31.3952 Y-32.2019
G01 X31.3570 Y-32.2383
G01 X31.3205 Y-32.2766
G01 X31.2860 Y-32.3166
G01 X31.2535 Y-32.3583
G01 X31.2231 Y-32.4015
G01 X31.1948 Y-32.4461
G01 X31.1687 Y-32.4921
G01 X31.1450 Y-32.5393
G01 X31.1236 Y-32.5876
G01 X31.1045 Y-32.6370
G01 X31.0880 Y-32.6871
G01 X31.0739 Y-32.7381
G01 X31.0623 Y-32.7896
G01 X31.0533 Y-32.8417
G01 X31.0468 Y-32.8941
G01 X31.0429 Y-32.9468
G01 X31.0416 Y-32.9997
G01 X31.0429 Y-33.0525
G01 X31.0468 Y-33.1052
G01 X31.0533 Y-33.1577
G01 X31.0623 Y-33.2097
G01 X31.0739 Y-33.2613
G01 X31.0880 Y-33.3122
G01 X31.1045 Y-33.3624
G01 X31.1236 Y-33.4117
G01 X31.1450 Y-33.4600
G01 X31.1687 Y-33.5072
G01 X31.1948 Y-33.5532
G01 X31.2231 Y-33.5979
G01 X31.2535 Y-33.6411
G01 X31.2860 Y-33.6827
G01 X31.3205 Y-33.7227
G01 X31.3570 Y-33.7610
G01 X31.3952 Y-33.7975
G01 X31.4352 Y-33.8320
G01 X31.4769 Y-33.8645
G01 X31.5201 Y-33.8949
G01 X31.5648 Y-33.9232
G01 X31.6107 Y-33.9492
G01 X31.6580 Y-33.9730
G01 X31.7063 Y-33.9944
G01 X31.7556 Y-34.0134
G01 X31.8058 Y-34.0300
G01 X31.8567 Y-34.0441
G01 X31.9082 Y-34.0557
G01 X31.9603 Y-34.0647
G01 X32.0128 Y-34.0712
G01 X32.0655 Y-34.0751
G01 X32.1183 Y-34.0764
G01 X32.1711 Y-34.0751
G01 X32.2238 Y-34.0712
G01 X32.2763 Y-34.0647
G01 X32.3284 Y-34.0557
G01 X32.3799 Y-34.0441
G01 X32.4308 Y-34.0300
G01 X32.4810 Y-34.0134
G01 X32.5303 Y-33.9944
G01 X32.5786 Y-33.9730
G01 X32.6259 Y-33.9492
G01 X32.6718 Y-33.9232
G01 X32.7165 Y-33.8949
G01 X32.7597 Y-33.8645
G01 X32.8014 Y-33.8320
G01 X32.8414 Y-33.7975
G01 X32.8796 Y-33.7610
G01 X32.9161 Y-33.7227
G01 X32.9506 Y-33.6827
G01 X32.9831 Y-33.6411
G01 X33.0135 Y-33.5979
G01 X33.0418 Y-33.5532
G01 X33.0679 Y-33.5072
G01 X33.0916 Y-33.4600
G01 X33.1130 Y-33.4117
G01 X33.1321 Y-33.3624
G01 X33.1486 Y-33.3122
G01 X33.1627 Y-33.2613
G01 X33.1743 Y-33.2097
G01 X33.1833 Y-33.1577
G01 X33.1898 Y-33.1052
G01 X33.1937 Y-33.0525
G01 X33.1950 Y-32.9989
G00 Z2.0000
G00 X33.5879 Y-33.5097
G01 F30.00
G01 Z-0.0400
G01 F30.00
G01 X33.5656 Y-33.4986
G01 X33.5503 Y-33.4919
G01 X33.5348 Y-33.4859
G01 X33.5111 Y-33.4779
G01 X33.4910 Y-33.4724
G01 X33.4666 Y-33.4671
G01 X33.4502 Y-33.4643
G01 X33.4336 Y-33.4622
G01 X33.4087 Y-33.4602
G01 X33.3879 Y-33.4598
G01 X33.3629 Y-33.4605
G01 X33.3463 Y-33.4618
G01 X33.3297 Y-33.4639
G01 X33.3051 Y-33.4680
G01 X33.2848 Y-33.4726
G01 X33.2647 Y-33.4782
G01 X33.2410 Y-33.4862
G01 X33.2255 Y-33.4923
G01 X33.2103 Y-33.4990
G01 X33.1887 Y-33.5097
G01 X33.2138 Y-33.4534
G01 X33.2347 Y-33.3991
G01 X33.2530 Y-33.3439
G01 X33.2694 Y-33.2837
G01 X33.2820 Y-33.2269
G01 X33.2912 Y-33.1737
G01 X33.2978 Y-33.1200
G01 X33.3026 Y-33.0579
G01 X33.3040 Y-32.9976
G01 X33.3026 Y-32.9415
G01 X33.2978 Y-32.8793
G01 X33.2905 Y-32.8216
G01 X33.2812 Y-32.7684
G01 X33.2694 Y-32.7156
G01 X33.2530 Y-32.6555
G01 X33.2347 Y-32.6002
G01 X33.2138 Y-32.5459
G01 X33.1919 Y-32.4965
G01 X33.1869 Y-32.4862
G01 X33.2069 Y-32.4963
G01 X33.2298 Y-32.5063
G01 X33.2453 Y-32.5122
G01 X33.2610 Y-32.5175
G01 X33.2850 Y-32.5243
G01 X33.3053 Y-32.5289
G01 X33.3299 Y-32.5330
G01 X33.3464 Y-32.5350
G01 X33.3630 Y-32.5363
G01 X33.3879 Y-32.5371
G01 X33.4128 Y-32.5363
G01 X33.4294 Y-32.5351
G01 X33.4459 Y-32.5331
G01 X33.4705 Y-32.5290
G01 X33.4907 Y-32.5245
G01 X33.5147 Y-32.5177
G01 X33.5305 Y-32.5125
G01 X33.5460 Y-32.5066
G01 X33.5689 Y-32.4967
G01 X33.5897 Y-32.4861
G01 X33.5847 Y-32.4965
G01 X33.5628 Y-32.5459
G01 X33.5419 Y-32.6002
G01 X33.5236 Y-32.6555
G01 X33.5072 Y-32.7156
G01 X33.4954 Y-32.7684
G01 X33.4861 Y-32.8216
G01 X33.4788 Y-32.8793
G01 X33.4740 Y-32.9415
G01 X33.4726 Y-32.9997
G01 X33.4740 Y-33.0579
G01 X33.4788 Y-33.1200
G01 X33.4861 Y-33.1778
G01 X33.4954 Y-33.2310
G01 X33.5072 Y-33.2837
G01 X33.5236 Y-33.3439
G01 X33.5419 Y-33.3991
G01 X33.5628 Y-33.4534
G01 X33.5879 Y-33.5097
G00 Z2.0000
G00 X34.2166 Y-34.0998
G01 F30.00
G01 Z-0.0400
G01 F30.00
G01 X34.2039 Y-34.0998
G01 X34.1951 Y-34.0910
G01 X34.2045 Y-34.0951
G01 X34.2166 Y-34.0998
G00 Z2.0000
G00 X35.1251 Y-34.0894
G01 F30.00
G01 Z-0.0400
G01 F30.00
G01 X35.1147 Y-34.0998
G01 X35.1000 Y-34.0998
G01 X35.1121 Y-34.0951
G01 X35.1251 Y-34.0894
G00 Z2.0000
G00 X36.1279 Y-33.5097
G01 F30.00
G01 Z-0.0400
G01 F30.00
G01 X36.1056 Y-33.4986
G01 X36.0903 Y-33.4919
G01 X36.0748 Y-33.4859
G01 X36.0511 Y-33.4779
G01 X36.0310 Y-33.4724
G01 X36.0066 Y-33.4671
G01 X35.9902 Y-33.4643
G01 X35.9736 Y-33.4622
G01 X35.9487 Y-33.4602
G01 X35.9279 Y-33.4598
G01 X35.9029 Y-33.4605
G01 X35.8863 Y-33.4618
G01 X35.8697 Y-33.4639
G01 X35.8451 Y-33.4680
G01 X35.8248 Y-33.4726
G01 X35.8047 Y-33.4782
G01 X35.7810 Y-33.4862
G01 X35.7655 Y-33.4923
G01 X35.7503 Y-33.4990
G01 X35.7287 Y-33.5097
G01 X35.7538 Y-33.4534
G01 X35.7747 Y-33.3991
G01 X35.7930 Y-33.3439
G01 X35.8094 Y-33.2837
G01 X35.8220 Y-33.2269
G01 X35.8312 Y-33.1737
G01 X35.8378 Y-33.1200
G01 X35.8426 Y-33.0579
G01 X35.8440 Y-32.9976
G01 X35.8426 Y-32.9415
G01 X35.8378 Y-32.8793
G01 X35.8312 Y-32.8257
G01 X35.8220 Y-32.7725
G01 X35.8094 Y-32.7156
G01 X35.7930 Y-32.6555
G01 X35.7747 Y-32.6002
G01 X35.7538 Y-32.5459
G01 X35.7319 Y-32.4965
G01 X35.7269 Y-32.4862
G01 X35.7469 Y-32.4963
G01 X35.7698 Y-32.5063
G01 X35.7853 Y-32.5122
G01 X35.8010 Y-32.5175
G01 X35.8250 Y-32.5243
G01 X35.8453 Y-32.5289
G01 X35.8699 Y-32.5330
G01 X35.8864 Y-32.5350
G01 X35.9030 Y-32.5363
G01 X35.9279 Y-32.5371
G01 X35.9528 Y-32.5363
G01 X35.9694 Y-32.5351
G01 X35.9859 Y-32.5331
G01 X36.0105 Y-32.5290
G01 X36.0307 Y-32.5245
G01 X36.0547 Y-32.5177
G01 X36.0705 Y-32.5125
G01 X36.0860 Y-32.5066
G01 X36.1089 Y-32.4967
G01 X36.1297 Y-32.4861
G01 X36.1247 Y-32.4965
G01 X36.1028 Y-32.5459
G01 X36.0819 Y-32.6002
G01 X36.0636 Y-32.6555
G01 X36.0472 Y-32.7156
G01 X36.0354 Y-32.7684
G01 X36.0261 Y-32.8216
G01 X36.0188 Y-32.8793
G01 X36.0140 Y-32.9415
G01 X36.0126 Y-32.9997
G01 X36.0140 Y-33.0579
G01 X36.0188 Y-33.1200
G01 X36.0254 Y-33.1737
G01 X36.0346 Y-33.2269
G01 X36.0472 Y-33.2837
G01 X36.0636 Y-33.3439
G01 X36.0819 Y-33.3991
G01 X36.1028 Y-33.4534
G01 X36.1279 Y-33.5097
G00 Z2.0000
G00 X35.7350 Y-32.9989
G01 F30.00
G01 Z-0.0400
G01 F30.00
G01 X35.7337 Y-32.9468
G01 X35.7298 Y-32.8941
G01 X35.7233 Y-32.8417
G01 X35.7143 Y-32.7896
G01 X35.7027 Y-32.7381
G01 X35.6886 Y-32.6871
G01 X35.6721 Y-32.6370
G01 X35.6530 Y-32.5876
G01 X35.6316 Y-32.5393
G01 X35.6079 Y-32.4921
G01 X35.5818 Y-32.4461
G01 X35.5535 Y-32.4015
G01 X35.5231 Y-32.3583
G01 X35.4906 Y-32.3166
G01 X35.4561 Y-32.2766
G01 X35.4196 Y-32.2383
G01 X35.3814 Y-32.2019
G01 X35.3414 Y-32.1674
G01 X35.2997 Y-32.1349
G01 X35.2565 Y-32.1044
G01 X35.2118 Y-32.0762
G01 X35.1659 Y-32.0501
G01 X35.1186 Y-32.0264
G01 X35.0703 Y-32.0049
G01 X35.0210 Y-31.9859
G01 X34.9708 Y-31.9693
G01 X34.9199 Y-31.9552
G01 X34.8684 Y-31.9437
G01 X34.8163 Y-31.9346
G01 X34.7638 Y-31.9282
G01 X34.7111 Y-31.9243
G01 X34.6583 Y-31.9230
G01 X34.6055 Y-31.9243
G01 X34.5528 Y-31.9282
G01 X34.5003 Y-31.9346
G01 X34.4482 Y-31.9437
G01 X34.3967 Y-31.9552
G01 X34.3458 Y-31.9693
G01 X34.2956 Y-31.9859
G01 X34.2463 Y-32.0049
G01 X34.1980 Y-32.0264
G01 X34.1507 Y-32.0501
G01 X34.1048 Y-32.0762
G01 X34.0601 Y-32.1044
G01 X34.0169 Y-32.1349
G01 X33.9752 Y-32.1674
G01 X33.9352 Y-32.2019
G01 X33.8970 Y-32.2383
G01 X33.8605 Y-32.2766
G01 X33.8260 Y-32.3166
G01 X33.7935 Y-32.3583
G01 X33.7631 Y-32.4015
G01 X33.7348 Y-32.4461
G01 X33.7087 Y-32.4921
G01 X33.6850 Y-32.5393
G01 X33.6636 Y-32.5876
G01 X33.6445 Y-32.6370
G01 X33.6280 Y-32.6871
G01 X33.6139 Y-32.7381
G01 X33.6023 Y-32.7896
G01 X33.5933 Y-32.8417
G01 X33.5868 Y-32.8941
G01 X33.5829 Y-32.9468
G01 X33.5816 Y-32.9997
G01 X33.5829 Y-33.0525
G01 X33.5868 Y-33.1052
G01 X33.5933 Y-33.1577
G01 X33.6023 Y-33.2097
G01 X33.6139 Y-33.2613
G01 X33.6280 Y-33.3122
G01 X33.6445 Y-33.3624
G01 X33.6636 Y-33.4117
G01 X33.6850 Y-33.4600
G01 X33.7087 Y-33.5072
G01 X33.7348 Y-33.5532
G01 X33.7631 Y-33.5979
G01 X33.7935 Y-33.6411
G01 X33.8260 Y-33.6827
G01 X33.8605 Y-33.7227
G01 X33.8970 Y-33.7610
G01 X33.9352 Y-33.7975
G01 X33.9752 Y-33.8320
G01 X34.0169 Y-33.8645
G01 X34.0601 Y-33.8949
G01 X34.1048 Y-33.9232
G01 X34.1507 Y-33.9492
G01 X34.1980 Y-33.9730
G01 X34.2463 Y-33.9944
G01 X34.2956 Y-34.0134
G01 X34.3458 Y-34.0300
G01 X34.3967 Y-34.0441
G01 X34.4482 Y-34.0557
G01 X34.5003 Y-34.0647
G01 X34.5528 Y-34.0712
G01 X34.6055 Y-34.0751
G01 X34.6583 Y-34.0764
G01 X34.7111 Y-34.0751
G01 X34.7638 Y-34.0712
G01 X34.8163 Y-34.0647
G01 X34.8684 Y-34.0557
G01 X34.9199 Y-34.0441
G01 X34.9708 Y-34.0300
G01 X35.0210 Y-34.0134
G01 X35.0703 Y-33.9944
G01 X35.1186 Y-33.9730
G01 X35.1659 Y-33.9492
G01 X35.2118 Y-33.9232
G01 X35.2565 Y-33.8949
G01 X35.2997 Y-33.8645
G01 X35.3414 Y-33.8320
G01 X35.3814 Y-33.7975
G01 X35.4196 Y-33.7610
G01 X35.4561 Y-33.7227
G01 X35.4906 Y-33.6827
G01 X35.5231 Y-33.6411
G01 X35.5535 Y-33.5979
G01 X35.5818 Y-33.5532
G01 X35.6079 Y-33.5072
G01 X35.6316 Y-33.4600
G01 X35.6530 Y-33.4117
G01 X35.6721 Y-33.3624
G01 X35.6886 Y-33.3122
G01 X35.7027 Y-33.2613
G01 X35.7143 Y-33.2097
G01 X35.7233 Y-33.1577
G01 X35.7298 Y-33.1052
G01 X35.7337 Y-33.0525
G01 X35.7350 Y-32.9989
G00 Z2.0000
G00 X35.1000 Y-31.8995
G01 F30.00
G01 Z-0.0400
G01 F30.00
G01 X35.1152 Y-31.8995
G01 X35.1260 Y-31.9104
G01 X35.1121 Y-31.9042
G01 X35.1000 Y-31.8995
G00 Z2.0000
G00 X34.1942 Y-31.9088
G01 F30.00
G01 Z-0.0400
G01 F30.00
G01 X34.2034 Y-31.8995
G01 X34.2166 Y-31.8995
G01 X34.2045 Y-31.9042
G01 X34.1942 Y-31.9088
G00 Z2.0000
G00 X36.7342 Y-31.9088
G01 F30.00
G01 Z-0.0400
G01 F30.00
G01 X36.7434 Y-31.8995
G01 X36.7566 Y-31.8995
G01 X36.7445 Y-31.9042
G01 X36.7342 Y-31.9088
G00 Z2.0000
G00 X37.6400 Y-31.8995
G01 F30.00
G01 Z-0.0400
G01 F30.00
G01 X37.6552 Y-31.8995
G01 X37.6660 Y-31.9104
G01 X37.6521 Y-31.9042
G01 X37.6400 Y-31.8995
G00 Z2.0000
G00 X38.2750 Y-32.9989
G01 F30.00
G01 Z-0.0400
G01 F30.00
G01 X38.2737 Y-32.9468
G01 X38.2698 Y-32.8941
G01 X38.2633 Y-32.8417
G01 X38.2543 Y-32.7896
G01 X38.2427 Y-32.7381
G01 X38.2286 Y-32.6871
G01 X38.2121 Y-32.6370
G01 X38.1930 Y-32.5876
G01 X38.1716 Y-32.5393
G01 X38.1479 Y-32.4921
G01 X38.1218 Y-32.4461
G01 X38.0935 Y-32.4015
G01 X38.0631 Y-32.3583
G01 X38.0306 Y-32.3166
G01 X37.9961 Y-32.2766
G01 X37.9596 Y-32.2383
G01 X37.9214 Y-32.2019
G01 X37.8814 Y-32.1674
G01 X37.8397 Y-32.1349
G01 X37.7965 Y-32.1044
G01 X37.7518 Y-32.0762
G01 X37.7059 Y-32.0501
G01 X37.6586 Y-32.0264
G01 X37.6103 Y-32.0049
G01 X37.5610 Y-31.9859
G01 X37.5108 Y-31.9693
G01 X37.4599 Y-31.9552
G01 X37.4084 Y-31.9437
G01 X37.3563 Y-31.9346
G01 X37.3038 Y-31.9282
G01 X37.2511 Y-31.9243
G01 X37.1983 Y-31.9230
G01 X37.1455 Y-31.9243
G01 X37.0928 Y-31.9282
G01 X37.0403 Y-31.9346
G01 X36.9882 Y-31.9437
G01 X36.9367 Y-31.9552
G01 X36.8858 Y-31.9693
G01 X36.8356 Y-31.9859
G01 X36.7863 Y-32.0049
G01 X36.7380 Y-32.0264
G01 X36.6907 Y-32.0501
G01 X36.6448 Y-32.0762
G01 X36.6001 Y-32.1044
G01 X36.5569 Y-32.1349
G01 X36.5152 Y-32.1674
G01 X36.4752 Y-32.2019
G01 X36.4370 Y-32.2383
G01 X36.4005 Y-32.2766
G01 X36.3660 Y-32.3166
G01 X36.3335 Y-32.3583
G01 X36.3031 Y-32.4015
G01 X36.2748 Y-32.4461
G01 X36.2487 Y-32.4921
G01 X36.2250 Y-32.5393
G01 X36.2036 Y-32.5876
G01 X36.1845 Y-32.6370
G01 X36.1680 Y-32.6871
G01 X36.1539 Y-32.7381
G01 X36.1423 Y-32.7896
G01 X36.1333 Y-32.8417
G01 X36.1268 Y-32.8941
G01 X36.1229 Y-32.9468
G01 X36.1216 Y-32.9997
G01 X36.1229 Y-33.0525
G01 X36.1268 Y-33.1052
G01 X36.1333 Y-33.1577
G01 X36.1423 Y-33.2097
G01 X36.1539 Y-33.2613
G01 X36.1680 Y-33.3122
G01 X36.1845 Y-33.3624
G01 X36.2036 Y-33.4117
G01 X36.2250 Y-33.4600
G01 X36.2487 Y-33.5072
G01 X36.2748 Y-33.5532
G01 X36.3031 Y-33.5979
G01 X36.3335 Y-33.6411
G01 X36.3660 Y-33.6827
G01 X36.4005 Y-33.7227
G01 X36.4370 Y-33.7610
G01 X36.4752 Y-33.7975
G01 X36.5152 Y-33.8320
G01 X36.5569 Y-33.8645
G01 X36.6001 Y-33.8949
G01 X36.6448 Y-33.9232
G01 X36.6907 Y-33.9492
G01 X36.7380 Y-33.9730
G01 X36.7863 Y-33.9944
G01 X36.8356 Y-34.0134
G01 X36.8858 Y-34.0300
G01 X36.9367 Y-34.0441
G01 X36.9882 Y-34.0557
G01 X37.0403 Y-34.0647
G01 X37.0928 Y-34.0712
G01 X37.1455 Y-34.0751
G01 X37.1983 Y-34.0764
G01 X37.2511 Y-34.0751
G01 X37.3038 Y-34.0712
G01 X37.3563 Y-34.0647
G01 X37.4084 Y-34.0557
G01 X37.4599 Y-34.0441
G01 X37.5108 Y-34.0300
G01 X37.5610 Y-34.0134
G01 X37.6103 Y-33.9944
G01 X37.6586 Y-33.9730
G01 X37.7059 Y-33.9492
G01 X37.7518 Y-33.9232
G01 X37.7965 Y-33.8949
G01 X37.8397 Y-33.8645
G01 X37.8814 Y-33.8320
G01 X37.9214 Y-33.7975
G01 X37.9596 Y-33.7610
G01 X37.9961 Y-33.7227
G01 X38.0306 Y-33.6827
G01 X38.0631 Y-33.6411
G01 X38.0935 Y-33.5979
G01 X38.1218 Y-33.5532
G01 X38.1479 Y-33.5072
G01 X38.1716 Y-33.4600
G01 X38.1930 Y-33.4117
G01 X38.2121 Y-33.3624
G01 X38.2286 Y-33.3122
G01 X38.2427 Y-33.2613
G01 X38.2543 Y-33.2097
G01 X38.2633 Y-33.1577
G01 X38.2698 Y-33.1052
G01 X38.2737 Y-33.0525
G01 X38.2750 Y-32.9989
G00 Z2.0000
G00 X38.3840 Y-32.9976
G01 F30.00
G01 Z-0.0400
G01 F30.00
G01 X38.3826 Y-32.9415
G01 X38.3778 Y-32.8793
G01 X38.3705 Y-32.8216
G01 X38.3612 Y-32.7684
G01 X38.3494 Y-32.7156
G01 X38.3330 Y-32.6555
G01 X38.3147 Y-32.6002
G01 X38.2938 Y-32.5459
G01 X38.2719 Y-32.4965
G01 X38.2669 Y-32.4862
G01 X38.2871 Y-32.4964
G01 X38.3100 Y-32.5063
G01 X38.3255 Y-32.5123
G01 X38.3413 Y-32.5176
G01 X38.3653 Y-32.5244
G01 X38.3856 Y-32.5289
G01 X38.4102 Y-32.5330
G01 X38.4268 Y-32.5350
G01 X38.4433 Y-32.5363
G01 X38.4683 Y-32.5371
G01 X38.4891 Y-32.5366
G01 X38.5140 Y-32.5346
G01 X38.5305 Y-32.5325
G01 X38.5469 Y-32.5297
G01 X38.5713 Y-32.5244
G01 X38.5953 Y-32.5176
G01 X38.6111 Y-32.5123
G01 X38.6266 Y-32.5063
G01 X38.6495 Y-32.4964
G01 X38.6697 Y-32.4862
G01 X38.6647 Y-32.4965
G01 X38.6428 Y-32.5459
G01 X38.6219 Y-32.6002
G01 X38.6036 Y-32.6555
G01 X38.5872 Y-32.7156
G01 X38.5754 Y-32.7684
G01 X38.5661 Y-32.8216
G01 X38.5588 Y-32.8793
G01 X38.5540 Y-32.9415
G01 X38.5526 Y-32.9997
G01 X38.5540 Y-33.0579
G01 X38.5588 Y-33.1200
G01 X38.5661 Y-33.1778
G01 X38.5754 Y-33.2310
G01 X38.5872 Y-33.2837
G01 X38.6036 Y-33.3439
G01 X38.6219 Y-33.3991
G01 X38.6428 Y-33.4534
G01 X38.6679 Y-33.5097
G01 X38.6456 Y-33.4986
G01 X38.6303 Y-33.4919
G01 X38.6148 Y-33.4859
G01 X38.5911 Y-33.4779
G01 X38.5710 Y-33.4724
G01 X38.5466 Y-33.4671
G01 X38.5302 Y-33.4643
G01 X38.5136 Y-33.4622
G01 X38.4887 Y-33.4602
G01 X38.4679 Y-33.4598
G01 X38.4429 Y-33.4605
G01 X38.4263 Y-33.4618
G01 X38.4097 Y-33.4639
G01 X38.3851 Y-33.4680
G01 X38.3648 Y-33.4726
G01 X38.3447 Y-33.4782
G01 X38.3210 Y-33.4862
G01 X38.3055 Y-33.4923
G01 X38.2903 Y-33.4990
G01 X38.2687 Y-33.5097
G01 X38.2938 Y-33.4534
G01 X38.3147 Y-33.3991
G01 X38.3330 Y-33.3439
G01 X38.3494 Y-33.2837
G01 X38.3612 Y-33.2310
G01 X38.3705 Y-33.1778
G01 X38.3778 Y-33.1200
G01 X38.3826 Y-33.0579
G01 X38.3840 Y-32.9976
G00 Z2.0000
G00 X37.6651 Y-34.0894
G01 F30.00
G01 Z-0.0400
G01 F30.00
G01 X37.6547 Y-34.0998
G01 X37.6400 Y-34.0998
G01 X37.6521 Y-34.0951
G01 X37.6651 Y-34.0894
G00 Z2.0000
G00 X36.7566 Y-34.0998
G01 F30.00
G01 Z-0.0400
G01 F30.00
G01 X36.7439 Y-34.0998
G01 X36.7351 Y-34.0910
G01 X36.7445 Y-34.0951
G01 X36.7566 Y-34.0998
G00 Z2.0000
G00 X39.2966 Y-34.0998
G01 F30.00
G01 Z-0.0400
G01 F30.00
G01 X39.2839 Y-34.0998
G01 X39.2751 Y-34.0910
G01 X39.2845 Y-34.0951
G01 X39.2966 Y-34.0998
G00 Z2.0000
G00 X40.2051 Y-34.0894
G01 F30.00
G01 Z-0.0400
G01 F30.00
G01 X40.1947 Y-34.0998
G01 X40.1800 Y-34.0998
G01 X40.1921 Y-34.0951
G01 X40.2051 Y-34.0894
G00 Z2.0000
G00 X41.8366 Y-34.0998
G01 F30.00
G01 Z-0.0400
G01 F30.00
G01 X41.8239 Y-34.0998
G01 X41.8151 Y-34.0910
G01 X41.8245 Y-34.0951
G01 X41.8366 Y-34.0998
G00 Z2.0000
G00 X42.7451 Y-34.0894
G01 F30.00
G01 Z-0.0400
G01 F30.00
G01 X42.7347 Y-34.0998
G01 X42.7200 Y-34.0998
G01 X42.7321 Y-34.0951
G01 X42.7451 Y-34.0894
G00 Z2.0000
G00 X44.3551 Y-34.0910
G01 F30.00
G01 Z-0.0400
G01 F30.00
G01 X44.3645 Y-34.0951
G01 X44.3766 Y-34.0998
G01 X44.3639 Y-34.0998
G01 X44.3551 Y-34.0910
G00 Z2.0000
G00 X45.2600 Y-34.0998
G01 F30.00
G01 Z-0.0400
G01 F30.00
G01 X45.2721 Y-34.0951
G01 X45.2851 Y-34.0894
G01 X45.2747 Y-34.0998
G01 X45.2600 Y-34.0998
G00 Z2.0000
G00 X46.2879 Y-33.5097
G01 F30.00
G01 Z-0.0400
G01 F30.00
G01 X46.2656 Y-33.4986
G01 X46.2503 Y-33.4919
G01 X46.2348 Y-33.4859
G01 X46.2111 Y-33.4779
G01 X46.1910 Y-33.4724
G01 X46.1666 Y-33.4671
G01 X46.1502 Y-33.4643
G01 X46.1336 Y-33.4622
G01 X46.1087 Y-33.4602
G01 X46.0879 Y-33.4598
G01 X46.0629 Y-33.4605
G01 X46.0463 Y-33.4618
G01 X46.0297 Y-33.4639
G01 X46.0051 Y-33.4680
G01 X45.9848 Y-33.4726
G01 X45.9647 Y-33.4782
G01 X45.9410 Y-33.4862
G01 X45.9255 Y-33.4923
G01 X45.9103 Y-33.4990
G01 X45.8887 Y-33.5097
G01 X45.9138 Y-33.4534
G01 X45.9347 Y-33.3991
G01 X45.9530 Y-33.3439
G01 X45.9694 Y-33.2837
G01 X45.9820 Y-33.2269
G01 X45.9912 Y-33.1737
G01 X45.9978 Y-33.1200
G01 X46.0026 Y-33.0579
G01 X46.0040 Y-32.9976
G01 X46.0026 Y-32.9415
G01 X45.9978 Y-32.8793
G01 X45.9905 Y-32.8216
G01 X45.9812 Y-32.7684
G01 X45.9694 Y-32.7156
G01 X45.9530 Y-32.6555
G01 X45.9347 Y-32.6002
G01 X45.9138 Y-32.5459
G01 X45.8919 Y-32.4965
G01 X45.8869 Y-32.4862
G01 X45.9069 Y-32.4963
G01 X45.9298 Y-32.5063
G01 X45.9453 Y-32.5122
G01 X45.9610 Y-32.5175
G01 X45.9850 Y-32.5243
G01 X46.0053 Y-32.5289
G01 X46.0299 Y-32.5330
G01 X46.0464 Y-32.5350
G01 X46.0630 Y-32.5363
G01 X46.0879 Y-32.5371
G01 X46.1086 Y-32.5366
G01 X46.1335 Y-32.5346
G01 X46.1500 Y-32.5325
G01 X46.1664 Y-32.5298
G01 X46.1907 Y-32.5245
G01 X46.2147 Y-32.5177
G01 X46.2305 Y-32.5125
G01 X46.2460 Y-32.5066
G01 X46.2689 Y-32.4967
G01 X46.2897 Y-32.4861
G01 X46.2847 Y-32.4965
G01 X46.2628 Y-32.5459
G01 X46.2419 Y-32.6002
G01 X46.2236 Y-32.6555
G01 X46.2072 Y-32.7156
G01 X46.1954 Y-32.7684
G01 X46.1861 Y-32.8216
G01 X46.1788 Y-32.8793
G01 X46.1740 Y-32.9415
G01 X46.1726 Y-32.9997
G01 X46.1740 Y-33.0579
G01 X46.1788 Y-33.1200
G01 X46.1854 Y-33.1737
G01 X46.1946 Y-33.2269
G01 X46.2072 Y-33.2837
G01 X46.2236 Y-33.3439
G01 X46.2419 Y-33.3991
G01 X46.2628 Y-33.4534
G01 X46.2879 Y-33.5097
G00 Z2.0000
G00 X46.9166 Y-34.0998
G01 F30.00
G01 Z-0.0400
G01 F30.00
G01 X46.9039 Y-34.0998
G01 X46.8951 Y-34.0910
G01 X46.9045 Y-34.0951
G01 X46.9166 Y-34.0998
G00 Z2.0000
G00 X47.8253 Y-34.0893
G01 F30.00
G01 Z-0.0400
G01 F30.00
G01 X47.8148 Y-34.0998
G01 X47.8000 Y-34.0998
G01 X47.8121 Y-34.0951
G01 X47.8253 Y-34.0893
G00 Z2.0000
G00 X48.4585 Y-33.4414
G01 F30.00
G01 Z-0.0400
G01 F30.00
G01 X48.4585 Y-33.4544
G01 X48.4493 Y-33.4635
G01 X48.4538 Y-33.4534
G01 X48.4585 Y-33.4414
G00 Z2.0000
G00 X48.4350 Y-32.9989
G01 F30.00
G01 Z-0.0400
G01 F30.00
G01 X48.4337 Y-32.9468
G01 X48.4298 Y-32.8941
G01 X48.4233 Y-32.8417
G01 X48.4143 Y-32.7896
G01 X48.4027 Y-32.7381
G01 X48.3886 Y-32.6871
G01 X48.3721 Y-32.6370
G01 X48.3530 Y-32.5876
G01 X48.3316 Y-32.5393
G01 X48.3079 Y-32.4921
G01 X48.2818 Y-32.4461
G01 X48.2535 Y-32.4015
G01 X48.2231 Y-32.3583
G01 X48.1906 Y-32.3166
G01 X48.1561 Y-32.2766
G01 X48.1196 Y-32.2383
G01 X48.0814 Y-32.2019
G01 X48.0414 Y-32.1674
G01 X47.9997 Y-32.1349
G01 X47.9565 Y-32.1044
G01 X47.9118 Y-32.0762
G01 X47.8659 Y-32.0501
G01 X47.8186 Y-32.0264
G01 X47.7703 Y-32.0049
G01 X47.7210 Y-31.9859
G01 X47.6708 Y-31.9693
G01 X47.6199 Y-31.9552
G01 X47.5684 Y-31.9437
G01 X47.5163 Y-31.9346
G01 X47.4638 Y-31.9282
G01 X47.4111 Y-31.9243
G01 X47.3583 Y-31.9230
G01 X47.3055 Y-31.9243
G01 X47.2528 Y-31.9282
G01 X47.2003 Y-31.9346
G01 X47.1482 Y-31.9437
G01 X47.0967 Y-31.9552
G01 X47.0458 Y-31.9693
G01 X46.9956 Y-31.9859
G01 X46.9463 Y-32.0049
G01 X46.8980 Y-32.0264
G01 X46.8507 Y-32.0501
G01 X46.8048 Y-32.0762
G01 X46.7601 Y-32.1044
G01 X46.7169 Y-32.1349
G01 X46.6752 Y-32.1674
G01 X46.6352 Y-32.2019
G01 X46.5970 Y-32.2383
G01 X46.5605 Y-32.2766
G01 X46.5260 Y-32.3166
G01 X46.4935 Y-32.3583
G01 X46.4631 Y-32.4015
G01 X46.4348 Y-32.4461
G01 X46.4087 Y-32.4921
G01 X46.3850 Y-32.5393
G01 X46.3636 Y-32.5876
G01 X46.3445 Y-32.6370
G01 X46.3280 Y-32.6871
G01 X46.3139 Y-32.7381
G01 X46.3023 Y-32.7896
G01 X46.2933 Y-32.8417
G01 X46.2868 Y-32.8941
G01 X46.2829 Y-32.9468
G01 X46.2816 Y-32.9997
G01 X46.2829 Y-33.0525
G01 X46.2868 Y-33.1052
G01 X46.2933 Y-33.1577
G01 X46.3023 Y-33.2097
G01 X46.3139 Y-33.2613
G01 X46.3280 Y-33.3122
G01 X46.3445 Y-33.3624
G01 X46.3636 Y-33.4117
G01 X46.3850 Y-33.4600
G01 X46.4087 Y-33.5072
G01 X46.4348 Y-33.5532
G01 X46.4631 Y-33.5979
G01 X46.4935 Y-33.6411
G01 X46.5260 Y-33.6827
G01 X46.5605 Y-33.7227
G01 X46.5970 Y-33.7610
G01 X46.6352 Y-33.7975
G01 X46.6752 Y-33.8320
G01 X46.7169 Y-33.8645
G01 X46.7601 Y-33.8949
G01 X46.8048 Y-33.9232
G01 X46.8507 Y-33.9492
G01 X46.8980 Y-33.9730
G01 X46.9463 Y-33.9944
G01 X46.9956 Y-34.0134
G01 X47.0458 Y-34.0300
G01 X47.0967 Y-34.0441
G01 X47.1482 Y-34.0557
G01 X47.2003 Y-34.0647
G01 X47.2528 Y-34.0712
G01 X47.3055 Y-34.0751
G01 X47.3583 Y-34.0764
G01 X47.4111 Y-34.0751
G01 X47.4638 Y-34.0712
G01 X47.5163 Y-34.0647
G01 X47.5684 Y-34.0557
G01 X47.6199 Y-34.0441
G01 X47.6708 Y-34.0300
G01 X47.7210 Y-34.0134
G01 X47.7703 Y-33.9944
G01 X47.8186 Y-33.9730
G01 X47.8659 Y-33.9492
G01 X47.9118 Y-33.9232
G01 X47.9565 Y-33.8949
G01 X47.9997 Y-33.8645
G01 X48.0414 Y-33.8320
G01 X48.0814 Y-33.7975
G01 X48.1196 Y-33.7610
G01 X48.1561 Y-33.7227
G01 X48.1906 Y-33.6827
G01 X48.2231 Y-33.6411
G01 X48.2535 Y-33.5979
G01 X48.2818 Y-33.5532
G01 X48.3079 Y-33.5072
G01 X48.3316 Y-33.4600
G01 X48.3530 Y-33.4117
G01 X48.3721 Y-33.3624
G01 X48.3886 Y-33.3122
G01 X48.4027 Y-33.2613
G01 X48.4143 Y-33.2097
G01 X48.4233 Y-33.1577
G01 X48.4298 Y-33.1052
G01 X48.4337 Y-33.0525
G01 X48.4350 Y-32.9989
G00 Z2.0000
G00 X48.4476 Y-32.5319
G01 F30.00
G01 Z-0.0400
G01 F30.00
G01 X48.4585 Y-32.5428
G01 X48.4585 Y-32.5580
G01 X48.4538 Y-32.5459
G01 X48.4476 Y-32.5319
G00 Z2.0000
G00 X47.8000 Y-31.8995
G01 F30.00
G01 Z-0.0400
G01 F30.00
G01 X47.8152 Y-31.8995
G01 X47.8260 Y-31.9104
G01 X47.8121 Y-31.9042
G01 X47.8000 Y-31.8995
G00 Z2.0000
G00 X46.8942 Y-31.9088
G01 F30.00
G01 Z-0.0400
G01 F30.00
G01 X46.9034 Y-31.8995
G01 X46.9166 Y-31.8995
G01 X46.9045 Y-31.9042
G01 X46.8942 Y-31.9088
G00 Z2.0000
G00 X45.2860 Y-31.9104
G01 F30.00
G01 Z-0.0400
G01 F30.00
G01 X45.2721 Y-31.9042
G01 X45.2600 Y-31.8995
G01 X45.2752 Y-31.8995
G01 X45.2860 Y-31.9104
G00 Z2.0000
G00 X45.0061 Y-31.9398
G01 F30.00
G01 Z-0.0400
G01 F30.00
G01 X45.0061 Y-31.7905
G01 X45.3204 Y-31.7905
G01 X45.8657 Y-32.3358
G01 X45.8769 Y-32.3465
G01 X45.8885 Y-32.3566
G01 X45.9007 Y-32.3661
G01 X45.9133 Y-32.3749
G01 X45.9264 Y-32.3832
G01 X45.9398 Y-32.3908
G01 X45.9536 Y-32.3978
G01 X45.9677 Y-32.4040
G01 X45.9821 Y-32.4096
G01 X45.9953 Y-32.4140
G01 X46.0130 Y-32.4189
G01 X46.0267 Y-32.4220
G01 X46.0433 Y-32.4248
G01 X46.0572 Y-32.4265
G01 X46.0726 Y-32.4277
G01 X46.0880 Y-32.4280
G01 X46.1034 Y-32.4277
G01 X46.1188 Y-32.4266
G01 X46.1327 Y-32.4249
G01 X46.1508 Y-32.4218
G01 X46.1644 Y-32.4187
G01 X46.1793 Y-32.4146
G01 X46.1939 Y-32.4098
G01 X46.2070 Y-32.4048
G01 X46.2238 Y-32.3974
G01 X46.2363 Y-32.3911
G01 X46.2497 Y-32.3835
G01 X46.2628 Y-32.3753
G01 X46.2742 Y-32.3673
G01 X46.2887 Y-32.3560
G01 X46.2993 Y-32.3469
