(G-CODE GENERATED BY FLATCAM v8.98 - www.flatcam.org - Version Date: 2019/10/16)

(Name: Плата - CADCAM Bottom Copper.TXT_edit_iso_copy_cnc)
(Type: G-code from Geometry)
(Units: MM)

(Created on Sunday, 29 December 2019 at 16:09)

(TOOL DIAMETER: 0.12 mm)
(Feedrate: 30.0 mm/min)
(Feedrate_Z: 30.0 mm/min)
(Feedrate rapids 79.9998 mm/min)

(Z_Cut: -0.04 mm)
(Z_Move: 2.0 mm)
(Z Toolchange: 12.7 mm)
(X,Y Toolchange: 0.0000, 0.0000 mm)
(Z Start: None mm)
(Z End: 10.0 mm)
(Steps per circle: 128)
(Postprocessor Geometry: default)

(X range:  -50.2108 ...   -0.7999  mm)
(Y range:  -34.2089 ...   -2.2884  mm)

(Spindle Speed: 300 RPM)

G21
G90
G94

G01 F30.00
G00 Z2.0000

M03 S300
G00 X-3.0584 Y-2.3974
G01 F30.00
G01 Z-0.0400
G01 F30.00
G01 X-3.0457 Y-2.3974
G01 X-3.0369 Y-2.4062
G01 X-3.0463 Y-2.4021
G01 X-3.0584 Y-2.3974
G00 Z2.0000
G00 X-3.9678 Y-2.4083
G01 F30.00
G01 Z-0.0400
G01 F30.00
G01 X-3.9570 Y-2.3974
G01 X-3.9418 Y-2.3974
G01 X-3.9539 Y-2.4021
G01 X-3.9678 Y-2.4083
G00 Z2.0000
G00 X-4.5910 Y-5.5735
G01 F30.00
G01 Z-0.0400
G01 F30.00
G01 X-4.5956 Y-5.5838
G01 X-4.6003 Y-5.5959
G01 X-4.6003 Y-5.5827
G01 X-4.5910 Y-5.5735
G00 Z2.0000
G00 X-4.7093 Y-6.2253
G01 F30.00
G01 Z-0.0400
G01 F30.00
G01 X-4.5600 Y-6.2253
G01 X-4.5561 Y-6.2476
G01 X-4.5449 Y-6.2977
G01 X-4.5304 Y-6.3501
G01 X-4.5139 Y-6.4003
G01 X-4.4948 Y-6.4496
G01 X-4.4734 Y-6.4979
G01 X-4.4497 Y-6.5451
G01 X-4.4236 Y-6.5911
G01 X-4.3953 Y-6.6358
G01 X-4.3649 Y-6.6790
G01 X-4.3324 Y-6.7206
G01 X-4.2979 Y-6.7606
G01 X-4.2604 Y-6.8000
G01 X-4.2232 Y-6.8354
G01 X-4.1820 Y-6.8708
G01 X-4.1403 Y-6.9033
G01 X-4.0983 Y-6.9328
G01 X-4.0691 Y-6.9514
G01 X-4.0691 Y-7.1799
G01 X-4.7093 Y-6.5396
G01 X-4.7093 Y-6.2253
G00 Z2.0000
G00 X-4.6003 Y-6.4793
G01 F30.00
G01 Z-0.0400
G01 F30.00
G01 X-4.5956 Y-6.4913
G01 X-4.5894 Y-6.5053
G01 X-4.6003 Y-6.4945
G01 X-4.6003 Y-6.4793
G00 Z2.0000
G00 X-2.1791 Y-6.9554
G01 F30.00
G01 Z-0.0400
G01 F30.00
G01 X-2.1892 Y-6.9425
G01 X-2.2000 Y-6.9299
G01 X-2.2171 Y-6.9117
G01 X-2.2352 Y-6.8946
G01 X-2.2478 Y-6.8838
G01 X-2.2608 Y-6.8735
G01 X-2.2811 Y-6.8590
G01 X-2.3022 Y-6.8458
G01 X-2.3167 Y-6.8376
G01 X-2.3315 Y-6.8301
G01 X-2.3581 Y-6.8182
G01 X-2.3736 Y-6.8123
G01 X-2.3893 Y-6.8070
G01 X-2.4133 Y-6.8001
G01 X-2.4376 Y-6.7948
G01 X-2.4540 Y-6.7919
G01 X-2.4746 Y-6.7894
G01 X-2.4995 Y-6.7876
G01 X-2.5161 Y-6.7872
G01 X-2.5327 Y-6.7875
G01 X-2.5576 Y-6.7892
G01 X-2.5862 Y-6.7930
G01 X-2.5477 Y-6.7439
G01 X-2.5166 Y-6.6998
G01 X-2.4810 Y-6.6436
G01 X-2.4544 Y-6.5965
G01 X-2.4282 Y-6.5445
G01 X-2.4046 Y-6.4913
G01 X-2.3837 Y-6.4370
G01 X-2.3654 Y-6.3818
G01 X-2.3510 Y-6.3297
G01 X-2.3364 Y-6.2648
G01 X-2.3272 Y-6.2116
G01 X-2.3201 Y-6.1538
G01 X-2.3158 Y-6.0958
G01 X-2.3144 Y-6.0417
G01 X-2.3158 Y-5.9794
G01 X-2.3197 Y-5.9255
G01 X-2.3279 Y-5.8595
G01 X-2.3372 Y-5.8063
G01 X-2.3499 Y-5.7495
G01 X-2.3654 Y-5.6934
G01 X-2.3823 Y-5.6421
G01 X-2.4063 Y-5.5800
G01 X-2.4282 Y-5.5306
G01 X-2.4544 Y-5.4786
G01 X-2.4831 Y-5.4280
G01 X-2.5119 Y-5.3823
G01 X-2.5502 Y-5.3279
G01 X-2.5835 Y-5.2854
G01 X-2.6215 Y-5.2413
G01 X-2.6617 Y-5.1992
G01 X-2.7008 Y-5.1619
G01 X-2.7511 Y-5.1184
G01 X-2.7938 Y-5.0852
G01 X-2.8414 Y-5.0517
G01 X-2.8905 Y-5.0206
G01 X-2.9412 Y-4.9919
G01 X-2.9931 Y-4.9657
G01 X-3.0425 Y-4.9438
G01 X-3.1046 Y-4.9198
G01 X-3.1559 Y-4.9029
G01 X-3.2120 Y-4.8874
G01 X-3.2688 Y-4.8746
G01 X-3.3261 Y-4.8647
G01 X-3.3839 Y-4.8576
G01 X-3.4378 Y-4.8535
G01 X-3.5043 Y-4.8519
G01 X-3.5583 Y-4.8533
G01 X-3.6163 Y-4.8576
G01 X-3.6741 Y-4.8647
G01 X-3.7314 Y-4.8746
G01 X-3.7882 Y-4.8874
G01 X-3.8403 Y-4.9018
G01 X-3.8996 Y-4.9212
G01 X-3.9500 Y-4.9406
G01 X-4.0033 Y-4.9640
G01 X-4.0136 Y-4.9690
G01 X-4.0031 Y-4.9482
G01 X-3.9932 Y-4.9253
G01 X-3.9873 Y-4.9098
G01 X-3.9820 Y-4.8940
G01 X-3.9753 Y-4.8700
G01 X-3.9708 Y-4.8498
G01 X-3.9667 Y-4.8252
G01 X-3.9647 Y-4.8087
G01 X-3.9635 Y-4.7921
G01 X-3.9627 Y-4.7672
G01 X-3.9632 Y-4.7464
G01 X-3.9653 Y-4.7215
G01 X-3.9674 Y-4.7051
G01 X-3.9702 Y-4.6887
G01 X-3.9755 Y-4.6643
G01 X-3.9823 Y-4.6403
G01 X-3.9876 Y-4.6246
G01 X-3.9935 Y-4.6090
G01 X-4.0035 Y-4.5862
G01 X-4.0136 Y-4.5662
G01 X-4.0033 Y-4.5712
G01 X-3.9500 Y-4.5946
G01 X-3.8996 Y-4.6140
G01 X-3.8443 Y-4.6322
G01 X-3.7882 Y-4.6478
G01 X-3.7355 Y-4.6597
G01 X-3.6700 Y-4.6710
G01 X-3.6163 Y-4.6776
G01 X-3.5583 Y-4.6819
G01 X-3.5001 Y-4.6833
G01 X-3.4461 Y-4.6820
G01 X-3.3797 Y-4.6771
G01 X-3.3261 Y-4.6705
G01 X-3.2647 Y-4.6597
G01 X-3.2120 Y-4.6478
G01 X-3.1559 Y-4.6322
G01 X-3.1006 Y-4.6140
G01 X-3.0463 Y-4.5930
G01 X-2.9931 Y-4.5695
G01 X-2.9412 Y-4.5433
G01 X-2.8905 Y-4.5146
G01 X-2.8414 Y-4.4835
G01 X-2.7938 Y-4.4500
G01 X-2.7479 Y-4.4142
G01 X-2.7038 Y-4.3761
G01 X-2.6617 Y-4.3360
G01 X-2.6215 Y-4.2939
G01 X-2.5835 Y-4.2498
G01 X-2.5477 Y-4.2039
G01 X-2.5277 Y-4.1756
G01 X-2.1791 Y-4.1756
G01 X-2.1791 Y-6.9554
G00 Z2.0000
G00 X-4.6003 Y-11.0569
G01 F30.00
G01 Z-0.0400
G01 F30.00
G01 X-4.6003 Y-11.0439
G01 X-4.5911 Y-11.0347
G01 X-4.5956 Y-11.0448
G01 X-4.6003 Y-11.0569
G00 Z2.0000
G00 X-4.5600 Y-11.3108
G01 F30.00
G01 Z-0.0400
G01 F30.00
G01 X-4.7093 Y-11.3108
G01 X-4.7093 Y-10.9988
G01 X-4.0691 Y-10.3568
G01 X-4.0691 Y-10.5848
G01 X-4.0983 Y-10.6033
G01 X-4.1403 Y-10.6329
G01 X-4.1820 Y-10.6653
G01 X-4.2232 Y-10.7008
G01 X-4.2604 Y-10.7362
G01 X-4.2979 Y-10.7755
G01 X-4.3324 Y-10.8155
G01 X-4.3649 Y-10.8572
G01 X-4.3953 Y-10.9004
G01 X-4.4236 Y-10.9450
G01 X-4.4497 Y-10.9910
G01 X-4.4734 Y-11.0382
G01 X-4.4948 Y-11.0865
G01 X-4.5139 Y-11.1359
G01 X-4.5304 Y-11.1860
G01 X-4.5449 Y-11.2384
G01 X-4.5561 Y-11.2885
G01 X-4.5600 Y-11.3108
G00 Z2.0000
G00 X-4.5894 Y-11.9663
G01 F30.00
G01 Z-0.0400
G01 F30.00
G01 X-4.6003 Y-11.9555
G01 X-4.6003 Y-11.9403
G01 X-4.5956 Y-11.9523
G01 X-4.5894 Y-11.9663
G00 Z2.0000
G00 X-4.0136 Y-12.9700
G01 F30.00
G01 Z-0.0400
G01 F30.00
G01 X-4.0034 Y-12.9498
G01 X-3.9934 Y-12.9269
G01 X-3.9875 Y-12.9114
G01 X-3.9822 Y-12.8956
G01 X-3.9754 Y-12.8716
G01 X-3.9701 Y-12.8472
G01 X-3.9673 Y-12.8308
G01 X-3.9652 Y-12.8143
G01 X-3.9632 Y-12.7894
G01 X-3.9627 Y-12.7686
G01 X-3.9632 Y-12.7478
G01 X-3.9652 Y-12.7229
G01 X-3.9673 Y-12.7064
G01 X-3.9701 Y-12.6900
G01 X-3.9754 Y-12.6656
G01 X-3.9822 Y-12.6416
G01 X-3.9875 Y-12.6258
G01 X-3.9934 Y-12.6102
G01 X-4.0034 Y-12.5874
G01 X-4.0136 Y-12.5672
G01 X-4.0033 Y-12.5722
G01 X-3.9500 Y-12.5956
G01 X-3.8996 Y-12.6150
G01 X-3.8403 Y-12.6344
G01 X-3.7882 Y-12.6488
G01 X-3.7314 Y-12.6615
G01 X-3.6741 Y-12.6715
G01 X-3.6163 Y-12.6786
G01 X-3.5583 Y-12.6829
G01 X-3.5043 Y-12.6842
G01 X-3.4378 Y-12.6826
G01 X-3.3839 Y-12.6786
G01 X-3.3261 Y-12.6715
G01 X-3.2688 Y-12.6615
G01 X-3.2120 Y-12.6488
G01 X-3.1559 Y-12.6332
G01 X-3.1006 Y-12.6150
G01 X-3.0463 Y-12.5940
G01 X-2.9969 Y-12.5722
G01 X-2.9375 Y-12.5423
G01 X-2.8905 Y-12.5156
G01 X-2.8414 Y-12.4845
G01 X-2.7938 Y-12.4510
G01 X-2.7511 Y-12.4178
G01 X-2.7008 Y-12.3743
G01 X-2.6617 Y-12.3370
G01 X-2.6215 Y-12.2949
G01 X-2.5835 Y-12.2508
G01 X-2.5502 Y-12.2082
G01 X-2.5119 Y-12.1538
G01 X-2.4831 Y-12.1082
G01 X-2.4544 Y-12.0575
G01 X-2.4282 Y-12.0055
G01 X-2.4063 Y-11.9562
G01 X-2.3823 Y-11.8941
G01 X-2.3654 Y-11.8428
G01 X-2.3499 Y-11.7867
G01 X-2.3372 Y-11.7299
G01 X-2.3279 Y-11.6767
G01 X-2.3197 Y-11.6107
G01 X-2.3158 Y-11.5568
G01 X-2.3144 Y-11.4944
G01 X-2.3158 Y-11.4404
G01 X-2.3201 Y-11.3824
G01 X-2.3272 Y-11.3246
G01 X-2.3364 Y-11.2714
G01 X-2.3510 Y-11.2064
G01 X-2.3654 Y-11.1544
G01 X-2.3837 Y-11.0991
G01 X-2.4046 Y-11.0448
G01 X-2.4282 Y-10.9916
G01 X-2.4544 Y-10.9396
G01 X-2.4810 Y-10.8926
G01 X-2.5166 Y-10.8364
G01 X-2.5477 Y-10.7922
G01 X-2.5837 Y-10.7462
G01 X-2.5587 Y-10.7494
G01 X-2.5338 Y-10.7511
G01 X-2.5171 Y-10.7515
G01 X-2.5005 Y-10.7511
G01 X-2.4714 Y-10.7490
G01 X-2.4549 Y-10.7469
G01 X-2.4385 Y-10.7441
G01 X-2.4141 Y-10.7388
G01 X-2.3941 Y-10.7332
G01 X-2.3783 Y-10.7281
G01 X-2.3549 Y-10.7192
G01 X-2.3322 Y-10.7090
G01 X-2.3173 Y-10.7014
G01 X-2.3028 Y-10.6933
G01 X-2.2816 Y-10.6801
G01 X-2.2613 Y-10.6656
G01 X-2.2482 Y-10.6553
G01 X-2.2356 Y-10.6444
G01 X-2.2174 Y-10.6273
G01 X-2.2003 Y-10.6092
G01 X-2.1895 Y-10.5965
G01 X-2.1791 Y-10.5833
G01 X-2.1791 Y-15.9006
G01 X-2.5277 Y-15.9006
G01 X-2.5477 Y-15.8722
G01 X-2.5835 Y-15.8264
G01 X-2.6215 Y-15.7823
G01 X-2.6588 Y-15.7431
G01 X-2.7069 Y-15.6973
G01 X-2.7479 Y-15.6620
G01 X-2.7938 Y-15.6262
G01 X-2.8414 Y-15.5927
G01 X-2.8870 Y-15.5637
G01 X-2.9449 Y-15.5310
G01 X-2.9931 Y-15.5067
G01 X-3.0463 Y-15.4831
G01 X-3.1006 Y-15.4622
G01 X-3.1559 Y-15.4439
G01 X-3.2120 Y-15.4284
G01 X-3.2729 Y-15.4149
G01 X-3.3261 Y-15.4057
G01 X-3.3797 Y-15.3990
G01 X-3.4419 Y-15.3943
G01 X-3.5001 Y-15.3929
G01 X-3.5624 Y-15.3945
G01 X-3.6163 Y-15.3986
G01 X-3.6700 Y-15.4051
G01 X-3.7314 Y-15.4156
G01 X-3.7922 Y-15.4295
G01 X-3.8443 Y-15.4439
G01 X-3.8996 Y-15.4622
G01 X-3.9539 Y-15.4831
G01 X-4.0033 Y-15.5050
G01 X-4.0627 Y-15.5349
G01 X-4.1097 Y-15.5616
G01 X-4.1554 Y-15.5904
G01 X-4.2097 Y-15.6287
G01 X-4.2523 Y-15.6620
G01 X-4.2964 Y-15.7000
G01 X-4.3385 Y-15.7402
G01 X-4.3758 Y-15.7792
G01 X-4.4193 Y-15.8296
G01 X-4.4525 Y-15.8722
G01 X-4.4860 Y-15.9198
G01 X-4.5192 Y-15.9726
G01 X-4.5458 Y-16.0196
G01 X-4.5720 Y-16.0716
G01 X-4.5971 Y-16.1287
G01 X-4.6165 Y-16.1791
G01 X-4.6348 Y-16.2344
G01 X-4.6503 Y-16.2905
G01 X-4.6622 Y-16.3432
G01 X-4.6735 Y-16.4087
G01 X-4.6801 Y-16.4624
G01 X-4.6841 Y-16.5162
G01 X-4.6858 Y-16.5786
G01 X-4.6841 Y-16.6409
G01 X-4.6801 Y-16.6948
G01 X-4.6735 Y-16.7484
G01 X-4.6622 Y-16.8140
G01 X-4.6503 Y-16.8667
G01 X-4.6359 Y-16.9188
G01 X-4.6165 Y-16.9780
G01 X-4.5939 Y-17.0362
G01 X-4.5720 Y-17.0855
G01 X-4.5477 Y-17.1338
G01 X-4.5171 Y-17.1882
G01 X-4.4860 Y-17.2373
G01 X-4.4549 Y-17.2815
G01 X-4.4167 Y-17.3308
G01 X-4.3787 Y-17.3749
G01 X-4.3414 Y-17.4140
G01 X-4.2964 Y-17.4571
G01 X-4.2491 Y-17.4978
G01 X-4.2064 Y-17.5310
G01 X-4.1781 Y-17.5510
G01 X-4.1781 Y-26.7168
G01 X-6.7832 Y-29.3220
G01 X-10.2336 Y-29.3220
G01 X-10.2669 Y-29.3228
G01 X-10.3001 Y-29.3252
G01 X-10.3290 Y-29.3287
G01 X-10.3659 Y-29.3350
G01 X-10.3984 Y-29.3423
G01 X-10.4264 Y-29.3500
G01 X-10.4659 Y-29.3631
G01 X-10.4931 Y-29.3736
G01 X-10.5235 Y-29.3871
G01 X-10.5532 Y-29.4020
G01 X-10.5786 Y-29.4163
G01 X-10.6137 Y-29.4386
G01 X-10.6375 Y-29.4554
G01 X-10.6605 Y-29.4733
G01 X-10.6889 Y-29.4976
G01 X-10.7130 Y-29.5205
G01 X-11.7040 Y-30.5116
G01 X-11.7240 Y-30.5327
G01 X-11.7431 Y-30.5547
G01 X-11.7687 Y-30.5875
G01 X-11.7854 Y-30.6113
G01 X-11.8032 Y-30.6395
G01 X-11.8196 Y-30.6684
G01 X-11.8328 Y-30.6944
G01 X-11.8481 Y-30.7286
G01 X-11.8600 Y-30.7596
G01 X-11.8705 Y-30.7912
G01 X-11.8794 Y-30.8233
G01 X-11.8866 Y-30.8557
G01 X-11.8923 Y-30.8885
G01 X-11.8964 Y-30.9215
G01 X-11.8989 Y-30.9547
G01 X-11.8997 Y-30.9880
G01 X-11.8997 Y-32.0273
G01 X-11.9280 Y-32.0473
G01 X-11.9707 Y-32.0805
G01 X-12.0149 Y-32.1184
G01 X-12.0601 Y-32.1613
G01 X-12.0974 Y-32.2003
G01 X-12.1383 Y-32.2475
G01 X-12.1741 Y-32.2933
G01 X-12.2076 Y-32.3409
G01 X-12.2365 Y-32.3866
G01 X-12.2674 Y-32.4407
G01 X-12.2936 Y-32.4927
G01 X-12.3172 Y-32.5459
G01 X-12.3381 Y-32.6002
G01 X-12.3564 Y-32.6555
G01 X-12.3719 Y-32.7116
G01 X-12.3846 Y-32.7684
G01 X-12.3939 Y-32.8216
G01 X-12.4021 Y-32.8876
G01 X-12.4060 Y-32.9415
G01 X-12.4074 Y-32.9997
G01 X-12.4060 Y-33.0579
G01 X-12.4021 Y-33.1118
G01 X-12.3946 Y-33.1737
G01 X-12.3846 Y-33.2310
G01 X-12.3728 Y-33.2837
G01 X-12.3564 Y-33.3439
G01 X-12.3381 Y-33.3991
G01 X-12.3187 Y-33.4496
G01 X-12.2921 Y-33.5097
G01 X-12.3144 Y-33.4986
G01 X-12.3297 Y-33.4919
G01 X-12.3452 Y-33.4859
G01 X-12.3689 Y-33.4779
G01 X-12.3890 Y-33.4724
G01 X-12.4134 Y-33.4671
G01 X-12.4298 Y-33.4643
G01 X-12.4464 Y-33.4622
G01 X-12.4713 Y-33.4602
G01 X-12.4921 Y-33.4598
G01 X-12.5171 Y-33.4605
G01 X-12.5337 Y-33.4618
G01 X-12.5503 Y-33.4639
G01 X-12.5749 Y-33.4680
G01 X-12.5952 Y-33.4726
G01 X-12.6153 Y-33.4782
G01 X-12.6390 Y-33.4862
G01 X-12.6545 Y-33.4923
G01 X-12.6697 Y-33.4990
G01 X-12.6913 Y-33.5097
G01 X-12.6662 Y-33.4534
G01 X-12.6453 Y-33.3991
G01 X-12.6270 Y-33.3439
G01 X-12.6115 Y-33.2878
G01 X-12.5988 Y-33.2310
G01 X-12.5888 Y-33.1737
G01 X-12.5817 Y-33.1159
G01 X-12.5773 Y-33.0537
G01 X-12.5760 Y-32.9976
G01 X-12.5774 Y-32.9415
G01 X-12.5817 Y-32.8835
G01 X-12.5895 Y-32.8216
G01 X-12.5988 Y-32.7684
G01 X-12.6126 Y-32.7075
G01 X-12.6270 Y-32.6555
G01 X-12.6439 Y-32.6042
G01 X-12.6647 Y-32.5498
G01 X-12.6898 Y-32.4927
G01 X-12.7160 Y-32.4407
G01 X-12.7447 Y-32.3901
G01 X-12.7758 Y-32.3409
G01 X-12.8093 Y-32.2933
G01 X-12.8451 Y-32.2475
G01 X-12.8831 Y-32.2034
G01 X-12.9233 Y-32.1613
G01 X-12.9654 Y-32.1211
G01 X-13.0095 Y-32.0831
G01 X-13.0554 Y-32.0473
G01 X-13.1064 Y-32.0115
G01 X-13.1521 Y-31.9827
G01 X-13.2065 Y-31.9521
G01 X-13.2585 Y-31.9261
G01 X-13.3079 Y-31.9042
G01 X-13.3379 Y-31.8926
G01 X-13.3379 Y-29.9342
G01 X-11.8259 Y-28.4223
G01 X-7.4193 Y-28.4223
G01 X-7.3943 Y-28.4215
G01 X-7.3777 Y-28.4202
G01 X-7.3571 Y-28.4177
G01 X-7.3366 Y-28.4141
G01 X-7.3203 Y-28.4105
G01 X-7.2922 Y-28.4027
G01 X-7.2764 Y-28.3974
G01 X-7.2609 Y-28.3915
G01 X-7.2418 Y-28.3832
G01 X-7.2194 Y-28.3721
G01 X-7.2013 Y-28.3619
G01 X-7.1837 Y-28.3507
G01 X-7.1633 Y-28.3362
G01 X-7.1502 Y-28.3259
G01 X-7.1376 Y-28.3151
G01 X-7.1194 Y-28.2979
G01 X-5.2003 Y-26.3762
G01 X-5.1874 Y-26.3626
G01 X-5.1738 Y-26.3469
G01 X-5.1610 Y-26.3305
G01 X-5.1491 Y-26.3135
G01 X-5.1380 Y-26.2959
G01 X-5.1277 Y-26.2778
G01 X-5.1184 Y-26.2593
G01 X-5.1100 Y-26.2402
G01 X-5.1025 Y-26.2209
G01 X-5.0960 Y-26.2011
G01 X-5.0905 Y-26.1811
G01 X-5.0859 Y-26.1608
G01 X-5.0824 Y-26.1403
G01 X-5.0798 Y-26.1197
G01 X-5.0783 Y-26.0990
G01 X-5.0778 Y-26.0782
G01 X-5.0778 Y-14.5799
G01 X-4.9603 Y-14.4624
G01 X-4.6072 Y-14.4624
G01 X-4.5956 Y-14.4923
G01 X-4.5720 Y-14.5455
G01 X-4.5458 Y-14.5975
G01 X-4.5192 Y-14.6446
G01 X-4.4836 Y-14.7008
G01 X-4.4525 Y-14.7449
G01 X-4.4167 Y-14.7908
G01 X-4.3787 Y-14.8349
G01 X-4.3385 Y-14.8770
G01 X-4.2964 Y-14.9171
G01 X-4.2555 Y-14.9525
G01 X-4.2031 Y-14.9934
G01 X-4.1588 Y-15.0245
G01 X-4.1097 Y-15.0556
G01 X-4.0590 Y-15.0843
G01 X-4.0071 Y-15.1105
G01 X-3.9539 Y-15.1340
G01 X-3.9035 Y-15.1535
G01 X-3.8403 Y-15.1744
G01 X-3.7882 Y-15.1888
G01 X-3.7314 Y-15.2015
G01 X-3.6741 Y-15.2115
G01 X-3.6163 Y-15.2186
G01 X-3.5583 Y-15.2229
G01 X-3.5043 Y-15.2242
G01 X-3.4378 Y-15.2226
G01 X-3.3839 Y-15.2186
G01 X-3.3261 Y-15.2115
G01 X-3.2688 Y-15.2015
G01 X-3.2120 Y-15.1888
G01 X-3.1559 Y-15.1732
G01 X-3.1046 Y-15.1563
G01 X-3.0425 Y-15.1324
G01 X-2.9931 Y-15.1105
G01 X-2.9412 Y-15.0843
G01 X-2.8905 Y-15.0556
G01 X-2.8448 Y-15.0267
G01 X-2.7905 Y-14.9884
G01 X-2.7479 Y-14.9552
G01 X-2.7038 Y-14.9171
G01 X-2.6617 Y-14.8770
G01 X-2.6244 Y-14.8379
G01 X-2.5809 Y-14.7875
G01 X-2.5477 Y-14.7449
G01 X-2.5142 Y-14.6973
G01 X-2.4831 Y-14.6482
G01 X-2.4564 Y-14.6012
G01 X-2.4265 Y-14.5418
G01 X-2.4046 Y-14.4923
G01 X-2.3837 Y-14.4380
G01 X-2.3654 Y-14.3828
G01 X-2.3510 Y-14.3307
G01 X-2.3372 Y-14.2699
G01 X-2.3279 Y-14.2167
G01 X-2.3197 Y-14.1507
G01 X-2.3158 Y-14.0968
G01 X-2.3144 Y-14.0427
G01 X-2.3158 Y-13.9804
G01 X-2.3206 Y-13.9182
G01 X-2.3272 Y-13.8646
G01 X-2.3364 Y-13.8114
G01 X-2.3499 Y-13.7505
G01 X-2.3667 Y-13.6904
G01 X-2.3837 Y-13.6391
G01 X-2.4031 Y-13.5887
G01 X-2.4282 Y-13.5316
G01 X-2.4564 Y-13.4760
G01 X-2.4831 Y-13.4290
G01 X-2.5119 Y-13.3833
G01 X-2.5477 Y-13.3322
G01 X-2.5862 Y-13.2832
G01 X-2.6215 Y-13.2423
G01 X-2.6588 Y-13.2031
G01 X-2.7038 Y-13.1600
G01 X-2.7511 Y-13.1194
G01 X-2.7938 Y-13.0862
G01 X-2.8379 Y-13.0550
G01 X-2.8905 Y-13.0216
G01 X-2.9449 Y-12.9910
G01 X-2.9931 Y-12.9667
G01 X-3.0425 Y-12.9448
G01 X-3.1046 Y-12.9208
G01 X-3.1559 Y-12.9039
G01 X-3.2080 Y-12.8895
G01 X-3.2688 Y-12.8756
G01 X-3.3302 Y-12.8651
G01 X-3.3839 Y-12.8586
G01 X-3.4378 Y-12.8545
G01 X-3.5001 Y-12.8529
G01 X-3.5624 Y-12.8545
G01 X-3.6163 Y-12.8586
G01 X-3.6700 Y-12.8651
G01 X-3.7314 Y-12.8756
G01 X-3.7922 Y-12.8895
G01 X-3.8443 Y-12.9039
G01 X-3.8956 Y-12.9208
G01 X-3.9539 Y-12.9431
G01 X-4.0033 Y-12.9650
G01 X-4.0136 Y-12.9700
G00 Z2.0000
G00 X-4.6391 Y-13.6147
G01 F30.00
G01 Z-0.0400
G01 F30.00
G01 X-4.6257 Y-13.6042
G01 X-4.6130 Y-13.5934
G01 X-4.5894 Y-13.5708
G01 X-4.5956 Y-13.5848
G01 X-4.6072 Y-13.6147
G01 X-4.6391 Y-13.6147
G00 Z2.0000
G00 X-13.2477 Y-7.1778
G01 F30.00
G01 Z-0.0400
G01 F30.00
G01 X-13.2610 Y-7.1882
G01 X-13.2736 Y-7.1991
G01 X-13.2918 Y-7.2162
G01 X-13.3061 Y-7.2312
G01 X-13.3170 Y-7.2438
G01 X-13.3329 Y-7.2639
G01 X-13.3329 Y-7.1778
G01 X-13.2477 Y-7.1778
G00 Z2.0000
G00 X-13.3329 Y-5.7358
G01 F30.00
G01 Z-0.0400
G01 F30.00
G01 X-13.3170 Y-5.7559
G01 X-13.3061 Y-5.7685
G01 X-13.2918 Y-5.7836
G01 X-13.2736 Y-5.8007
G01 X-13.2610 Y-5.8115
G01 X-13.2477 Y-5.8219
G01 X-13.3329 Y-5.8219
G01 X-13.3329 Y-5.7358
G00 Z2.0000
G00 X-19.6417 Y-9.2000
G01 F30.00
G01 Z-0.0400
G01 F30.00
G01 X-27.8612 Y-9.2000
G01 X-27.8767 Y-9.2004
G01 X-27.8936 Y-9.2017
G01 X-27.9074 Y-9.2034
G01 X-27.9227 Y-9.2061
G01 X-27.9377 Y-9.2094
G01 X-27.9512 Y-9.2132
G01 X-27.9687 Y-9.2189
G01 X-27.9817 Y-9.2240
G01 X-27.9958 Y-9.2302
G01 X-28.0096 Y-9.2372
G01 X-28.0218 Y-9.2441
G01 X-28.0374 Y-9.2539
G01 X-28.0488 Y-9.2620
G01 X-28.0610 Y-9.2715
G01 X-28.0727 Y-9.2816
G01 X-28.0839 Y-9.2922
G01 X-28.4996 Y-9.7080
G01 X-29.5012 Y-9.7080
G01 X-30.2109 Y-8.9984
G01 X-30.2109 Y-7.9970
G01 X-29.5015 Y-7.2897
G01 X-28.4996 Y-7.2897
G01 X-28.0839 Y-7.7055
G01 X-28.0727 Y-7.7161
G01 X-28.0621 Y-7.7252
G01 X-28.0476 Y-7.7366
G01 X-28.0361 Y-7.7446
G01 X-28.0244 Y-7.7521
G01 X-28.0096 Y-7.7605
G01 X-27.9945 Y-7.7681
G01 X-27.9817 Y-7.7737
G01 X-27.9687 Y-7.7787
G01 X-27.9526 Y-7.7841
G01 X-27.9377 Y-7.7882
G01 X-27.9241 Y-7.7913
G01 X-27.9074 Y-7.7943
G01 X-27.8921 Y-7.7962
G01 X-27.8782 Y-7.7972
G01 X-27.8612 Y-7.7977
G01 X-27.0103 Y-7.7977
G01 X-26.9949 Y-7.7973
G01 X-26.9795 Y-7.7962
G01 X-26.9641 Y-7.7943
G01 X-26.9489 Y-7.7916
G01 X-26.9338 Y-7.7882
G01 X-26.9190 Y-7.7841
G01 X-26.9043 Y-7.7793
G01 X-26.8899 Y-7.7737
G01 X-26.8757 Y-7.7674
G01 X-26.8619 Y-7.7605
G01 X-26.8485 Y-7.7529
G01 X-26.8354 Y-7.7446
G01 X-26.8228 Y-7.7357
G01 X-26.8106 Y-7.7262
G01 X-26.7989 Y-7.7161
G01 X-26.7877 Y-7.7055
G01 X-26.7771 Y-7.6943
G01 X-26.7670 Y-7.6826
G01 X-26.7575 Y-7.6704
G01 X-26.7486 Y-7.6577
G01 X-26.7403 Y-7.6447
G01 X-26.7334 Y-7.6326
G01 X-26.7251 Y-7.6161
G01 X-26.7195 Y-7.6033
G01 X-26.7139 Y-7.5889
G01 X-26.7091 Y-7.5742
G01 X-26.7053 Y-7.5608
G01 X-26.7013 Y-7.5428
G01 X-26.6989 Y-7.5290
G01 X-26.6970 Y-7.5137
G01 X-26.6959 Y-7.4983
G01 X-26.6955 Y-7.4843
G01 X-26.6955 Y-3.8048
G01 X-13.3069 Y-3.8048
G01 X-13.3069 Y-5.4839
G01 X-13.3064 Y-5.5008
G01 X-13.3054 Y-5.5147
G01 X-13.3037 Y-5.5286
G01 X-13.3011 Y-5.5438
G01 X-13.2975 Y-5.5604
G01 X-13.2934 Y-5.5752
G01 X-13.2885 Y-5.5899
G01 X-13.2824 Y-5.6057
G01 X-13.2767 Y-5.6185
G01 X-13.2704 Y-5.6309
G01 X-13.2629 Y-5.6444
G01 X-13.2538 Y-5.6588
G01 X-13.2450 Y-5.6714
G01 X-13.2354 Y-5.6836
G01 X-13.2243 Y-5.6964
G01 X-13.2136 Y-5.7075
G01 X-13.2035 Y-5.7171
G01 X-13.1929 Y-5.7263
G01 X-13.1796 Y-5.7367
G01 X-13.1670 Y-5.7456
G01 X-13.1539 Y-5.7539
G01 X-13.1418 Y-5.7608
G01 X-13.1267 Y-5.7685
G01 X-13.1126 Y-5.7747
G01 X-13.0995 Y-5.7798
G01 X-13.0835 Y-5.7851
G01 X-13.0671 Y-5.7896
G01 X-13.0535 Y-5.7926
G01 X-13.0383 Y-5.7953
G01 X-13.0215 Y-5.7973
G01 X-13.0075 Y-5.7983
G01 X-12.9936 Y-5.7987
G01 X-10.2982 Y-5.7987
G01 X-10.2842 Y-5.7983
G01 X-10.2688 Y-5.7972
G01 X-10.2535 Y-5.7953
G01 X-10.2382 Y-5.7926
G01 X-10.2231 Y-5.7892
G01 X-10.2082 Y-5.7851
G01 X-10.1936 Y-5.7803
G01 X-10.1791 Y-5.7747
G01 X-10.1650 Y-5.7684
G01 X-10.1512 Y-5.7615
G01 X-10.1377 Y-5.7538
G01 X-10.1247 Y-5.7456
G01 X-10.1121 Y-5.7367
G01 X-10.0999 Y-5.7272
G01 X-10.0882 Y-5.7170
G01 X-10.0780 Y-5.7074
G01 X-7.1695 Y-2.7964
G01 X-4.6406 Y-2.7964
G01 X-4.6251 Y-2.7960
G01 X-4.6082 Y-2.7947
G01 X-4.5944 Y-2.7930
G01 X-4.5806 Y-2.7906
G01 X-4.5641 Y-2.7870
G01 X-4.5492 Y-2.7829
G01 X-4.5359 Y-2.7785
G01 X-4.5201 Y-2.7724
G01 X-4.5060 Y-2.7662
G01 X-4.4935 Y-2.7599
G01 X-4.4787 Y-2.7516
G01 X-4.4657 Y-2.7433
G01 X-4.4542 Y-2.7353
G01 X-4.4408 Y-2.7249
G01 X-4.4291 Y-2.7149
G01 X-4.4179 Y-2.7042
G01 X-4.0022 Y-2.2884
G01 X-3.0006 Y-2.2884
G01 X-2.5848 Y-2.7042
G01 X-2.5747 Y-2.7138
G01 X-2.5619 Y-2.7249
G01 X-2.5509 Y-2.7335
G01 X-2.5358 Y-2.7442
G01 X-2.5240 Y-2.7516
G01 X-2.5106 Y-2.7592
G01 X-2.4968 Y-2.7662
G01 X-2.4827 Y-2.7724
G01 X-2.4682 Y-2.7780
G01 X-2.4536 Y-2.7829
G01 X-2.4387 Y-2.7870
G01 X-2.4236 Y-2.7904
G01 X-2.4084 Y-2.7930
G01 X-2.3930 Y-2.7949
G01 X-2.3776 Y-2.7960
G01 X-2.3637 Y-2.7964
G01 X-1.2103 Y-2.7964
G01 X-0.7999 Y-3.2085
G01 X-0.7999 Y-16.8698
G01 X-1.2099 Y-17.2798
G01 X-2.3629 Y-17.2798
G01 X-2.3778 Y-17.2801
G01 X-2.3949 Y-17.2815
G01 X-2.4105 Y-17.2835
G01 X-2.4244 Y-17.2860
G01 X-2.4382 Y-17.2891
G01 X-2.4547 Y-17.2937
G01 X-2.4696 Y-17.2986
G01 X-2.4842 Y-17.3043
G01 X-2.4984 Y-17.3108
G01 X-2.5124 Y-17.3179
G01 X-2.5259 Y-17.3257
G01 X-2.5391 Y-17.3342
G01 X-2.5530 Y-17.3442
G01 X-2.5641 Y-17.3530
G01 X-2.5747 Y-17.3624
G01 X-2.5865 Y-17.3737
G01 X-2.7095 Y-17.4993
G01 X-2.7194 Y-17.5099
G01 X-2.7283 Y-17.5204
G01 X-2.7385 Y-17.5336
G01 X-2.7480 Y-17.5474
G01 X-2.7553 Y-17.5591
G01 X-2.7627 Y-17.5724
G01 X-2.7701 Y-17.5874
G01 X-2.7756 Y-17.6001
G01 X-2.7810 Y-17.6143
G01 X-2.7857 Y-17.6288
G01 X-2.7894 Y-17.6421
G01 X-2.7930 Y-17.6584
G01 X-2.7956 Y-17.6734
G01 X-2.7975 Y-17.6886
G01 X-2.7986 Y-17.7038
G01 X-2.7989 Y-17.7190
G01 X-2.7989 Y-27.2889
G01 X-6.2111 Y-30.7011
G01 X-9.8120 Y-30.7011
G01 X-9.8274 Y-30.7015
G01 X-9.8442 Y-30.7028
G01 X-9.8580 Y-30.7045
G01 X-9.8717 Y-30.7068
G01 X-9.8882 Y-30.7105
G01 X-9.9044 Y-30.7150
G01 X-9.9176 Y-30.7194
G01 X-9.9320 Y-30.7249
G01 X-9.9474 Y-30.7317
G01 X-9.9598 Y-30.7380
G01 X-9.9733 Y-30.7455
G01 X-9.9875 Y-30.7546
G01 X-9.9989 Y-30.7626
G01 X-10.0110 Y-30.7720
G01 X-10.0227 Y-30.7820
G01 X-10.0339 Y-30.7926
G01 X-10.4276 Y-31.1838
G01 X-10.4383 Y-31.1950
G01 X-10.4485 Y-31.2067
G01 X-10.4572 Y-31.2177
G01 X-10.4679 Y-31.2328
G01 X-10.4754 Y-31.2446
G01 X-10.4831 Y-31.2581
G01 X-10.4901 Y-31.2720
G01 X-10.4958 Y-31.2848
G01 X-10.5025 Y-31.3020
G01 X-10.5069 Y-31.3153
G01 X-10.5110 Y-31.3303
G01 X-10.5147 Y-31.3469
G01 X-10.5171 Y-31.3607
G01 X-10.5190 Y-31.3761
G01 X-10.5201 Y-31.3916
G01 X-10.5205 Y-31.4071
G01 X-10.5205 Y-31.8607
G01 X-10.5201 Y-31.8747
G01 X-10.5191 Y-31.8886
G01 X-10.5171 Y-31.9054
G01 X-10.5145 Y-31.9206
G01 X-10.5114 Y-31.9343
G01 X-10.5070 Y-31.9506
G01 X-10.5016 Y-31.9667
G01 X-10.4966 Y-31.9797
G01 X-10.4909 Y-31.9925
G01 X-10.4834 Y-32.0076
G01 X-10.4757 Y-32.0211
G01 X-10.4675 Y-32.0341
G01 X-10.4577 Y-32.0479
G01 X-10.4491 Y-32.0589
G01 X-10.4400 Y-32.0695
G01 X-10.4288 Y-32.0813
G01 X-10.1743 Y-32.3358
G01 X-10.1631 Y-32.3465
G01 X-10.1515 Y-32.3566
G01 X-10.1393 Y-32.3661
G01 X-10.1267 Y-32.3749
G01 X-10.1136 Y-32.3832
G01 X-10.1002 Y-32.3908
G01 X-10.0864 Y-32.3978
G01 X-10.0723 Y-32.4040
G01 X-10.0593 Y-32.4091
G01 X-10.0433 Y-32.4144
G01 X-10.0270 Y-32.4189
G01 X-10.0134 Y-32.4220
G01 X-9.9996 Y-32.4244
G01 X-9.9828 Y-32.4265
G01 X-9.9660 Y-32.4277
G01 X-9.9520 Y-32.4280
G01 X-9.9381 Y-32.4277
G01 X-9.9212 Y-32.4266
G01 X-9.9059 Y-32.4247
G01 X-9.8892 Y-32.4218
G01 X-9.8756 Y-32.4187
G01 X-9.8622 Y-32.4150
G01 X-9.8461 Y-32.4098
G01 X-9.8317 Y-32.4043
G01 X-9.8175 Y-32.3980
G01 X-9.8024 Y-32.3904
G01 X-9.7903 Y-32.3835
G01 X-9.7785 Y-32.3761
G01 X-9.7658 Y-32.3673
G01 X-9.7513 Y-32.3560
G01 X-9.7407 Y-32.3469
G01 X-9.7295 Y-32.3363
G01 X-9.1816 Y-31.7905
G01 X-8.8695 Y-31.7905
G01 X-8.8695 Y-31.9398
G01 X-8.8918 Y-31.9437
G01 X-8.9448 Y-31.9556
G01 X-8.9942 Y-31.9693
G01 X-9.0458 Y-31.9864
G01 X-9.0937 Y-32.0049
G01 X-9.1420 Y-32.0264
G01 X-9.1893 Y-32.0501
G01 X-9.2365 Y-32.0769
G01 X-9.2799 Y-32.1044
G01 X-9.3231 Y-32.1349
G01 X-9.3648 Y-32.1674
G01 X-9.4048 Y-32.2019
G01 X-9.4430 Y-32.2383
G01 X-9.4795 Y-32.2766
G01 X-9.5140 Y-32.3166
G01 X-9.5456 Y-32.3571
G01 X-9.5778 Y-32.4027
G01 X-9.6052 Y-32.4461
G01 X-9.6313 Y-32.4921
G01 X-9.6556 Y-32.5407
G01 X-9.6764 Y-32.5876
G01 X-9.6955 Y-32.6370
G01 X-9.7125 Y-32.6886
G01 X-9.7261 Y-32.7381
G01 X-9.7377 Y-32.7896
G01 X-9.7467 Y-32.8417
G01 X-9.7531 Y-32.8927
G01 X-9.7571 Y-32.9468
G01 X-9.7584 Y-32.9997
G01 X-9.7572 Y-33.0510
G01 X-9.7532 Y-33.1052
G01 X-9.7467 Y-33.1577
G01 X-9.7380 Y-33.2083
G01 X-9.7261 Y-33.2613
G01 X-9.7120 Y-33.3122
G01 X-9.6959 Y-33.3610
G01 X-9.6764 Y-33.4117
G01 X-9.6550 Y-33.4600
G01 X-9.6320 Y-33.5059
G01 X-9.6052 Y-33.5532
G01 X-9.5769 Y-33.5979
G01 X-9.5465 Y-33.6411
G01 X-9.5140 Y-33.6827
G01 X-9.4805 Y-33.7216
G01 X-9.4420 Y-33.7621
G01 X-9.4048 Y-33.7975
G01 X-9.3636 Y-33.8329
G01 X-9.3231 Y-33.8645
G01 X-9.2799 Y-33.8949
G01 X-9.2352 Y-33.9232
G01 X-9.1893 Y-33.9492
G01 X-9.1420 Y-33.9730
G01 X-9.0937 Y-33.9944
G01 X-9.0444 Y-34.0134
G01 X-8.9965 Y-34.0293
G01 X-8.9965 Y-34.2089
G01 X-9.1812 Y-34.2089
G01 X-9.7291 Y-33.6610
G01 X-9.7403 Y-33.6503
G01 X-9.7520 Y-33.6402
G01 X-9.7642 Y-33.6307
G01 X-9.7769 Y-33.6218
G01 X-9.7899 Y-33.6135
G01 X-9.8021 Y-33.6066
G01 X-9.8186 Y-33.5983
G01 X-9.8314 Y-33.5927
G01 X-9.8458 Y-33.5871
G01 X-9.8605 Y-33.5823
G01 X-9.8754 Y-33.5782
G01 X-9.8905 Y-33.5748
G01 X-9.9043 Y-33.5724
G01 X-9.9226 Y-33.5701
G01 X-9.9365 Y-33.5691
G01 X-9.9520 Y-33.5688
G01 X-9.9675 Y-33.5692
G01 X-9.9829 Y-33.5703
G01 X-9.9983 Y-33.5722
G01 X-10.0120 Y-33.5746
G01 X-10.0300 Y-33.5787
G01 X-10.0435 Y-33.5825
G01 X-10.0582 Y-33.5873
G01 X-10.0726 Y-33.5929
G01 X-10.0867 Y-33.5992
G01 X-10.1006 Y-33.6062
G01 X-10.1127 Y-33.6131
G01 X-10.1283 Y-33.6230
G01 X-10.1397 Y-33.6311
G01 X-10.1519 Y-33.6406
G01 X-10.1636 Y-33.6507
G01 X-10.1748 Y-33.6614
G01 X-10.7200 Y-34.2089
G01 X-11.7212 Y-34.2089
G01 X-12.2691 Y-33.6610
G01 X-12.2803 Y-33.6503
G01 X-12.2920 Y-33.6402
G01 X-12.3042 Y-33.6307
G01 X-12.3169 Y-33.6218
G01 X-12.3299 Y-33.6135
G01 X-12.3421 Y-33.6066
G01 X-12.3586 Y-33.5983
G01 X-12.3714 Y-33.5927
G01 X-12.3858 Y-33.5871
G01 X-12.4005 Y-33.5823
G01 X-12.4154 Y-33.5782
G01 X-12.4305 Y-33.5748
G01 X-12.4443 Y-33.5724
G01 X-12.4626 Y-33.5701
G01 X-12.4765 Y-33.5691
G01 X-12.4920 Y-33.5688
G01 X-12.5075 Y-33.5692
G01 X-12.5229 Y-33.5703
G01 X-12.5383 Y-33.5722
G01 X-12.5520 Y-33.5746
G01 X-12.5700 Y-33.5787
G01 X-12.5835 Y-33.5825
G01 X-12.5982 Y-33.5873
G01 X-12.6126 Y-33.5929
G01 X-12.6267 Y-33.5992
G01 X-12.6406 Y-33.6062
G01 X-12.6527 Y-33.6131
G01 X-12.6683 Y-33.6230
G01 X-12.6797 Y-33.6311
G01 X-12.6919 Y-33.6406
G01 X-12.7036 Y-33.6507
G01 X-12.7148 Y-33.6614
G01 X-13.2600 Y-34.2089
G01 X-14.2612 Y-34.2089
G01 X-14.8091 Y-33.6610
G01 X-14.8203 Y-33.6503
G01 X-14.8320 Y-33.6402
G01 X-14.8442 Y-33.6307
G01 X-14.8569 Y-33.6218
G01 X-14.8699 Y-33.6135
G01 X-14.8821 Y-33.6066
G01 X-14.8986 Y-33.5983
G01 X-14.9114 Y-33.5927
G01 X-14.9258 Y-33.5871
G01 X-14.9405 Y-33.5823
G01 X-14.9554 Y-33.5782
G01 X-14.9705 Y-33.5748
G01 X-14.9843 Y-33.5724
G01 X-15.0026 Y-33.5701
G01 X-15.0165 Y-33.5691
G01 X-15.0320 Y-33.5688
G01 X-15.0475 Y-33.5692
G01 X-15.0629 Y-33.5703
G01 X-15.0783 Y-33.5722
G01 X-15.0920 Y-33.5746
G01 X-15.1100 Y-33.5787
G01 X-15.1235 Y-33.5825
G01 X-15.1382 Y-33.5873
G01 X-15.1526 Y-33.5929
G01 X-15.1667 Y-33.5992
G01 X-15.1806 Y-33.6062
G01 X-15.1927 Y-33.6131
G01 X-15.2083 Y-33.6230
G01 X-15.2197 Y-33.6311
G01 X-15.2319 Y-33.6406
G01 X-15.2436 Y-33.6507
G01 X-15.2548 Y-33.6614
G01 X-15.8000 Y-34.2089
G01 X-16.8012 Y-34.2089
G01 X-17.3491 Y-33.6610
G01 X-17.3603 Y-33.6503
G01 X-17.3720 Y-33.6402
G01 X-17.3842 Y-33.6307
G01 X-17.3956 Y-33.6226
G01 X-17.4112 Y-33.6128
G01 X-17.4234 Y-33.6059
G01 X-17.4372 Y-33.5989
G01 X-17.4514 Y-33.5927
G01 X-17.4658 Y-33.5871
G01 X-17.4805 Y-33.5823
G01 X-17.4954 Y-33.5782
G01 X-17.5105 Y-33.5748
G01 X-17.5243 Y-33.5724
G01 X-17.5426 Y-33.5701
G01 X-17.5565 Y-33.5691
G01 X-17.5720 Y-33.5688
G01 X-17.5875 Y-33.5692
G01 X-17.6029 Y-33.5703
G01 X-17.6183 Y-33.5722
G01 X-17.6320 Y-33.5746
G01 X-17.6500 Y-33.5787
G01 X-17.6635 Y-33.5825
G01 X-17.6782 Y-33.5873
G01 X-17.6926 Y-33.5929
G01 X-17.7054 Y-33.5986
G01 X-17.7219 Y-33.6069
G01 X-17.7340 Y-33.6138
G01 X-17.7471 Y-33.6221
G01 X-17.7597 Y-33.6311
G01 X-17.7719 Y-33.6406
G01 X-17.7836 Y-33.6507
G01 X-17.7948 Y-33.6614
G01 X-18.3400 Y-34.2089
G01 X-19.3412 Y-34.2089
G01 X-19.8891 Y-33.6610
G01 X-19.9003 Y-33.6503
G01 X-19.9120 Y-33.6402
G01 X-19.9242 Y-33.6307
G01 X-19.9356 Y-33.6226
G01 X-19.9512 Y-33.6128
G01 X-19.9634 Y-33.6059
G01 X-19.9772 Y-33.5989
G01 X-19.9914 Y-33.5927
G01 X-20.0058 Y-33.5871
G01 X-20.0205 Y-33.5823
G01 X-20.0354 Y-33.5782
G01 X-20.0505 Y-33.5748
G01 X-20.0643 Y-33.5724
G01 X-20.0826 Y-33.5701
G01 X-20.0965 Y-33.5691
G01 X-20.1120 Y-33.5688
G01 X-20.1275 Y-33.5692
G01 X-20.1429 Y-33.5703
G01 X-20.1583 Y-33.5722
G01 X-20.1720 Y-33.5746
G01 X-20.1900 Y-33.5787
G01 X-20.2035 Y-33.5825
G01 X-20.2182 Y-33.5873
G01 X-20.2326 Y-33.5929
G01 X-20.2454 Y-33.5986
G01 X-20.2619 Y-33.6069
G01 X-20.2740 Y-33.6138
G01 X-20.2871 Y-33.6221
G01 X-20.2997 Y-33.6311
G01 X-20.3119 Y-33.6406
G01 X-20.3236 Y-33.6507
G01 X-20.3348 Y-33.6614
G01 X-20.8800 Y-34.2089
G01 X-21.8812 Y-34.2089
G01 X-22.4291 Y-33.6610
G01 X-22.4403 Y-33.6503
G01 X-22.4520 Y-33.6402
G01 X-22.4642 Y-33.6307
G01 X-22.4756 Y-33.6226
G01 X-22.4912 Y-33.6128
G01 X-22.5034 Y-33.6059
G01 X-22.5172 Y-33.5989
G01 X-22.5314 Y-33.5927
G01 X-22.5458 Y-33.5871
G01 X-22.5605 Y-33.5823
G01 X-22.5754 Y-33.5782
G01 X-22.5905 Y-33.5748
G01 X-22.6043 Y-33.5724
G01 X-22.6226 Y-33.5701
G01 X-22.6365 Y-33.5691
G01 X-22.6520 Y-33.5688
G01 X-22.6675 Y-33.5692
G01 X-22.6829 Y-33.5703
G01 X-22.6983 Y-33.5722
G01 X-22.7120 Y-33.5746
G01 X-22.7300 Y-33.5787
G01 X-22.7435 Y-33.5825
G01 X-22.7582 Y-33.5873
G01 X-22.7726 Y-33.5929
G01 X-22.7854 Y-33.5986
G01 X-22.8019 Y-33.6069
G01 X-22.8140 Y-33.6138
G01 X-22.8271 Y-33.6221
G01 X-22.8397 Y-33.6311
G01 X-22.8519 Y-33.6406
G01 X-22.8636 Y-33.6507
G01 X-22.8748 Y-33.6614
G01 X-23.4200 Y-34.2089
G01 X-24.4212 Y-34.2089
G01 X-24.9691 Y-33.6610
G01 X-24.9803 Y-33.6503
G01 X-24.9920 Y-33.6402
G01 X-25.0042 Y-33.6307
G01 X-25.0156 Y-33.6226
G01 X-25.0312 Y-33.6128
G01 X-25.0434 Y-33.6059
G01 X-25.0572 Y-33.5989
G01 X-25.0714 Y-33.5927
G01 X-25.0858 Y-33.5871
G01 X-25.1005 Y-33.5823
G01 X-25.1154 Y-33.5782
G01 X-25.1305 Y-33.5748
G01 X-25.1443 Y-33.5724
G01 X-25.1626 Y-33.5701
G01 X-25.1765 Y-33.5691
G01 X-25.1920 Y-33.5688
G01 X-25.2075 Y-33.5692
G01 X-25.2229 Y-33.5703
G01 X-25.2383 Y-33.5722
G01 X-25.2520 Y-33.5746
G01 X-25.2700 Y-33.5787
G01 X-25.2835 Y-33.5825
G01 X-25.2982 Y-33.5873
G01 X-25.3126 Y-33.5929
G01 X-25.3254 Y-33.5986
G01 X-25.3419 Y-33.6069
G01 X-25.3540 Y-33.6138
G01 X-25.3671 Y-33.6221
G01 X-25.3797 Y-33.6311
G01 X-25.3919 Y-33.6406
G01 X-25.4036 Y-33.6507
G01 X-25.4148 Y-33.6614
G01 X-25.9600 Y-34.2089
G01 X-26.9612 Y-34.2089
G01 X-27.5091 Y-33.6610
G01 X-27.5203 Y-33.6503
G01 X-27.5320 Y-33.6402
G01 X-27.5442 Y-33.6307
G01 X-27.5556 Y-33.6226
G01 X-27.5712 Y-33.6128
G01 X-27.5834 Y-33.6059
G01 X-27.5972 Y-33.5989
G01 X-27.6114 Y-33.5927
G01 X-27.6258 Y-33.5871
G01 X-27.6405 Y-33.5823
G01 X-27.6554 Y-33.5782
G01 X-27.6705 Y-33.5748
G01 X-27.6843 Y-33.5724
G01 X-27.7026 Y-33.5701
G01 X-27.7165 Y-33.5691
G01 X-27.7320 Y-33.5688
G01 X-27.7475 Y-33.5692
G01 X-27.7629 Y-33.5703
G01 X-27.7783 Y-33.5722
G01 X-27.7920 Y-33.5746
G01 X-27.8100 Y-33.5787
G01 X-27.8235 Y-33.5825
G01 X-27.8382 Y-33.5873
G01 X-27.8526 Y-33.5929
G01 X-27.8654 Y-33.5986
G01 X-27.8819 Y-33.6069
G01 X-27.8940 Y-33.6138
G01 X-27.9071 Y-33.6221
G01 X-27.9197 Y-33.6311
G01 X-27.9319 Y-33.6406
G01 X-27.9436 Y-33.6507
G01 X-27.9548 Y-33.6614
G01 X-28.5000 Y-34.2089
G01 X-29.5012 Y-34.2089
G01 X-30.2109 Y-33.4992
G01 X-30.2109 Y-32.4979
G01 X-29.5015 Y-31.7905
G01 X-28.4996 Y-31.7905
G01 X-27.9543 Y-32.3358
G01 X-27.9431 Y-32.3465
G01 X-27.9315 Y-32.3566
G01 X-27.9193 Y-32.3661
G01 X-27.9079 Y-32.3741
G01 X-27.8924 Y-32.3840
G01 X-27.8802 Y-32.3908
G01 X-27.8664 Y-32.3978
G01 X-27.8523 Y-32.4040
G01 X-27.8379 Y-32.4096
G01 X-27.8233 Y-32.4144
G01 X-27.8098 Y-32.4182
G01 X-27.7919 Y-32.4222
G01 X-27.7781 Y-32.4246
G01 X-27.7628 Y-32.4265
G01 X-27.7474 Y-32.4277
G01 X-27.7320 Y-32.4280
G01 X-27.7166 Y-32.4277
G01 X-27.7027 Y-32.4267
G01 X-27.6844 Y-32.4245
G01 X-27.6707 Y-32.4221
G01 X-27.6556 Y-32.4187
G01 X-27.6407 Y-32.4146
G01 X-27.6261 Y-32.4098
G01 X-27.6117 Y-32.4043
G01 X-27.5989 Y-32.3986
G01 X-27.5824 Y-32.3904
G01 X-27.5703 Y-32.3835
G01 X-27.5572 Y-32.3753
G01 X-27.5446 Y-32.3664
G01 X-27.5324 Y-32.3570
G01 X-27.5207 Y-32.3469
G01 X-27.5095 Y-32.3363
G01 X-26.9616 Y-31.7905
G01 X-25.9596 Y-31.7905
G01 X-25.4143 Y-32.3358
G01 X-25.4031 Y-32.3465
G01 X-25.3915 Y-32.3566
G01 X-25.3793 Y-32.3661
G01 X-25.3679 Y-32.3741
G01 X-25.3524 Y-32.3840
G01 X-25.3402 Y-32.3908
G01 X-25.3264 Y-32.3978
G01 X-25.3123 Y-32.4040
G01 X-25.2979 Y-32.4096
G01 X-25.2833 Y-32.4144
G01 X-25.2698 Y-32.4182
G01 X-25.2519 Y-32.4222
G01 X-25.2381 Y-32.4246
G01 X-25.2228 Y-32.4265
G01 X-25.2074 Y-32.4277
G01 X-25.1920 Y-32.4280
G01 X-25.1766 Y-32.4277
G01 X-25.1627 Y-32.4267
G01 X-25.1444 Y-32.4245
G01 X-25.1307 Y-32.4221
G01 X-25.1156 Y-32.4187
G01 X-25.1007 Y-32.4146
G01 X-25.0861 Y-32.4098
G01 X-25.0717 Y-32.4043
G01 X-25.0589 Y-32.3986
G01 X-25.0424 Y-32.3904
G01 X-25.0303 Y-32.3835
G01 X-25.0172 Y-32.3753
G01 X-25.0046 Y-32.3664
G01 X-24.9924 Y-32.3570
G01 X-24.9807 Y-32.3469
G01 X-24.9695 Y-32.3363
G01 X-24.4216 Y-31.7905
G01 X-23.4196 Y-31.7905
G01 X-22.8743 Y-32.3358
G01 X-22.8631 Y-32.3465
G01 X-22.8515 Y-32.3566
G01 X-22.8393 Y-32.3661
G01 X-22.8279 Y-32.3741
G01 X-22.8124 Y-32.3840
G01 X-22.8002 Y-32.3908
G01 X-22.7864 Y-32.3978
G01 X-22.7723 Y-32.4040
G01 X-22.7579 Y-32.4096
G01 X-22.7433 Y-32.4144
G01 X-22.7298 Y-32.4182
G01 X-22.7119 Y-32.4222
G01 X-22.6981 Y-32.4246
G01 X-22.6828 Y-32.4265
G01 X-22.6674 Y-32.4277
G01 X-22.6520 Y-32.4280
G01 X-22.6366 Y-32.4277
G01 X-22.6227 Y-32.4267
G01 X-22.6044 Y-32.4245
G01 X-22.5907 Y-32.4221
G01 X-22.5756 Y-32.4187
G01 X-22.5607 Y-32.4146
G01 X-22.5461 Y-32.4098
G01 X-22.5317 Y-32.4043
G01 X-22.5189 Y-32.3986
G01 X-22.5024 Y-32.3904
G01 X-22.4903 Y-32.3835
G01 X-22.4772 Y-32.3753
G01 X-22.4646 Y-32.3664
G01 X-22.4524 Y-32.3570
G01 X-22.4407 Y-32.3469
G01 X-22.4295 Y-32.3363
G01 X-21.8816 Y-31.7905
G01 X-20.8796 Y-31.7905
G01 X-20.3343 Y-32.3358
G01 X-20.3231 Y-32.3465
G01 X-20.3115 Y-32.3566
G01 X-20.2993 Y-32.3661
G01 X-20.2879 Y-32.3741
G01 X-20.2724 Y-32.3840
G01 X-20.2602 Y-32.3908
G01 X-20.2464 Y-32.3978
G01 X-20.2323 Y-32.4040
G01 X-20.2179 Y-32.4096
G01 X-20.2033 Y-32.4144
G01 X-20.1898 Y-32.4182
G01 X-20.1719 Y-32.4222
G01 X-20.1581 Y-32.4246
G01 X-20.1428 Y-32.4265
G01 X-20.1274 Y-32.4277
G01 X-20.1120 Y-32.4280
G01 X-20.0966 Y-32.4277
G01 X-20.0827 Y-32.4267
G01 X-20.0644 Y-32.4245
G01 X-20.0507 Y-32.4221
G01 X-20.0356 Y-32.4187
G01 X-20.0207 Y-32.4146
G01 X-20.0061 Y-32.4098
G01 X-19.9917 Y-32.4043
G01 X-19.9789 Y-32.3986
G01 X-19.9624 Y-32.3904
G01 X-19.9503 Y-32.3835
G01 X-19.9372 Y-32.3753
G01 X-19.9246 Y-32.3664
G01 X-19.9124 Y-32.3570
G01 X-19.9007 Y-32.3469
G01 X-19.8895 Y-32.3363
G01 X-19.3416 Y-31.7905
G01 X-18.3396 Y-31.7905
G01 X-17.7943 Y-32.3358
G01 X-17.7831 Y-32.3465
G01 X-17.7715 Y-32.3566
G01 X-17.7593 Y-32.3661
G01 X-17.7479 Y-32.3741
G01 X-17.7324 Y-32.3840
G01 X-17.7202 Y-32.3908
G01 X-17.7064 Y-32.3978
G01 X-17.6923 Y-32.4040
G01 X-17.6779 Y-32.4096
G01 X-17.6633 Y-32.4144
G01 X-17.6498 Y-32.4182
G01 X-17.6319 Y-32.4222
G01 X-17.6181 Y-32.4246
G01 X-17.6028 Y-32.4265
G01 X-17.5874 Y-32.4277
G01 X-17.5720 Y-32.4280
G01 X-17.5566 Y-32.4277
G01 X-17.5427 Y-32.4267
G01 X-17.5244 Y-32.4245
G01 X-17.5107 Y-32.4221
G01 X-17.4956 Y-32.4187
G01 X-17.4807 Y-32.4146
G01 X-17.4661 Y-32.4098
G01 X-17.4517 Y-32.4043
G01 X-17.4389 Y-32.3986
G01 X-17.4224 Y-32.3904
G01 X-17.4103 Y-32.3835
G01 X-17.3972 Y-32.3753
G01 X-17.3846 Y-32.3664
G01 X-17.3724 Y-32.3570
G01 X-17.3607 Y-32.3469
G01 X-17.3495 Y-32.3363
G01 X-16.8016 Y-31.7905
G01 X-15.7996 Y-31.7905
G01 X-15.2543 Y-32.3358
G01 X-15.2420 Y-32.3475
G01 X-15.2314 Y-32.3566
G01 X-15.2192 Y-32.3661
G01 X-15.2066 Y-32.3750
G01 X-15.1923 Y-32.3840
G01 X-15.1801 Y-32.3909
G01 X-15.1676 Y-32.3972
G01 X-15.1535 Y-32.4035
G01 X-15.1378 Y-32.4096
G01 X-15.1231 Y-32.4145
G01 X-15.1082 Y-32.4186
G01 X-15.0917 Y-32.4223
G01 X-15.0764 Y-32.4248
G01 X-15.0626 Y-32.4265
G01 X-15.0486 Y-32.4276
G01 X-15.0317 Y-32.4280
G01 X-15.0163 Y-32.4277
G01 X-15.0008 Y-32.4265
G01 X-14.9840 Y-32.4244
G01 X-14.9703 Y-32.4220
G01 X-14.9567 Y-32.4190
G01 X-14.9403 Y-32.4145
G01 X-14.9256 Y-32.4096
G01 X-14.9099 Y-32.4035
G01 X-14.8958 Y-32.3972
G01 X-14.8833 Y-32.3909
G01 X-14.8711 Y-32.3840
G01 X-14.8568 Y-32.3750
G01 X-14.8442 Y-32.3661
G01 X-14.8320 Y-32.3566
G01 X-14.8203 Y-32.3465
G01 X-14.8091 Y-32.3358
G01 X-14.3006 Y-31.8273
G01 X-14.2904 Y-31.8166
G01 X-14.2813 Y-31.8061
G01 X-14.2708 Y-31.7928
G01 X-14.2611 Y-31.7789
G01 X-14.2537 Y-31.7671
G01 X-14.2468 Y-31.7549
G01 X-14.2391 Y-31.7398
G01 X-14.2323 Y-31.7243
G01 X-14.2273 Y-31.7113
G01 X-14.2229 Y-31.6980
G01 X-14.2183 Y-31.6817
G01 X-14.2146 Y-31.6652
G01 X-14.2123 Y-31.6514
G01 X-14.2106 Y-31.6376
G01 X-14.2093 Y-31.6207
G01 X-14.2089 Y-31.6052
G01 X-14.2089 Y-29.5741
G01 X-12.1860 Y-27.5512
G01 X-7.7368 Y-27.5512
G01 X-7.7199 Y-27.5508
G01 X-7.7060 Y-27.5497
G01 X-7.6921 Y-27.5480
G01 X-7.6754 Y-27.5452
G01 X-7.6589 Y-27.5414
G01 X-7.6454 Y-27.5377
G01 X-7.6322 Y-27.5333
G01 X-7.6163 Y-27.5273
G01 X-7.6009 Y-27.5204
G01 X-7.5884 Y-27.5141
G01 X-7.5763 Y-27.5072
G01 X-7.5619 Y-27.4982
G01 X-7.5481 Y-27.4884
G01 X-7.5371 Y-27.4798
G01 X-7.5265 Y-27.4707
G01 X-7.5147 Y-27.4596
G01 X-6.0405 Y-25.9853
G01 X-6.0303 Y-25.9746
G01 X-6.0203 Y-25.9629
G01 X-6.0107 Y-25.9508
G01 X-6.0019 Y-25.9381
G01 X-5.9936 Y-25.9251
G01 X-5.9860 Y-25.9116
G01 X-5.9790 Y-25.8978
G01 X-5.9733 Y-25.8851
G01 X-5.9672 Y-25.8693
G01 X-5.9623 Y-25.8546
G01 X-5.9582 Y-25.8397
G01 X-5.9548 Y-25.8246
G01 X-5.9522 Y-25.8094
G01 X-5.9503 Y-25.7941
G01 X-5.9492 Y-25.7787
G01 X-5.9488 Y-25.7632
G01 X-5.9488 Y-14.2175
G01 X-5.3207 Y-13.5914
G01 X-4.8946 Y-13.5914
G01 X-4.8791 Y-13.5910
G01 X-4.8637 Y-13.5899
G01 X-4.8469 Y-13.5878
G01 X-4.8331 Y-13.5854
G01 X-4.8195 Y-13.5823
G01 X-4.8032 Y-13.5779
G01 X-4.7871 Y-13.5725
G01 X-4.7741 Y-13.5674
G01 X-4.7613 Y-13.5618
G01 X-4.7462 Y-13.5542
G01 X-4.7314 Y-13.5458
G01 X-4.7197 Y-13.5383
G01 X-4.7082 Y-13.5303
G01 X-4.6937 Y-13.5190
G01 X-4.6831 Y-13.5099
G01 X-4.6719 Y-13.4992
G01 X-4.1634 Y-12.9907
G01 X-4.1533 Y-12.9800
G01 X-4.1442 Y-12.9694
G01 X-4.1328 Y-12.9549
G01 X-4.1248 Y-12.9435
G01 X-4.1165 Y-12.9304
G01 X-4.1089 Y-12.9170
G01 X-4.1026 Y-12.9045
G01 X-4.0957 Y-12.8891
G01 X-4.0897 Y-12.8732
G01 X-4.0853 Y-12.8600
G01 X-4.0815 Y-12.8465
G01 X-4.0778 Y-12.8300
G01 X-4.0749 Y-12.8133
G01 X-4.0732 Y-12.7994
G01 X-4.0722 Y-12.7855
G01 X-4.0717 Y-12.7686
G01 X-4.0722 Y-12.7516
G01 X-4.0732 Y-12.7377
G01 X-4.0749 Y-12.7239
G01 X-4.0778 Y-12.7072
G01 X-4.0815 Y-12.6906
G01 X-4.0853 Y-12.6772
G01 X-4.0897 Y-12.6639
G01 X-4.0957 Y-12.6481
G01 X-4.1026 Y-12.6326
G01 X-4.1089 Y-12.6202
G01 X-4.1158 Y-12.6080
G01 X-4.1248 Y-12.5937
G01 X-4.1337 Y-12.5810
G01 X-4.1432 Y-12.5689
G01 X-4.1533 Y-12.5572
G01 X-4.1634 Y-12.5465
G01 X-4.7093 Y-12.0006
G01 X-4.7093 Y-11.6863
G01 X-4.5600 Y-11.6863
G01 X-4.5561 Y-11.7086
G01 X-4.5442 Y-11.7616
G01 X-4.5304 Y-11.8111
G01 X-4.5133 Y-11.8627
G01 X-4.4948 Y-11.9106
G01 X-4.4734 Y-11.9589
G01 X-4.4497 Y-12.0061
G01 X-4.4236 Y-12.0521
G01 X-4.3953 Y-12.0968
G01 X-4.3649 Y-12.1400
G01 X-4.3324 Y-12.1816
G01 X-4.2989 Y-12.2205
G01 X-4.2614 Y-12.2599
G01 X-4.2243 Y-12.2953
G01 X-4.1820 Y-12.3318
G01 X-4.1415 Y-12.3634
G01 X-4.0995 Y-12.3930
G01 X-4.0536 Y-12.4221
G01 X-4.0063 Y-12.4488
G01 X-3.9604 Y-12.4719
G01 X-3.9121 Y-12.4933
G01 X-3.8614 Y-12.5128
G01 X-3.8126 Y-12.5289
G01 X-3.7617 Y-12.5430
G01 X-3.7102 Y-12.5546
G01 X-3.6596 Y-12.5634
G01 X-3.6042 Y-12.5702
G01 X-3.5529 Y-12.5740
G01 X-3.5001 Y-12.5753
G01 X-3.4473 Y-12.5740
G01 X-3.3960 Y-12.5702
G01 X-3.3406 Y-12.5634
G01 X-3.2900 Y-12.5546
G01 X-3.2385 Y-12.5430
G01 X-3.1876 Y-12.5289
G01 X-3.1388 Y-12.5128
G01 X-3.0867 Y-12.4927
G01 X-3.0398 Y-12.4719
G01 X-2.9925 Y-12.4481
G01 X-2.9466 Y-12.4221
G01 X-2.9032 Y-12.3946
G01 X-2.8575 Y-12.3625
G01 X-2.8170 Y-12.3309
G01 X-2.7770 Y-12.2964
G01 X-2.7388 Y-12.2599
G01 X-2.7033 Y-12.2227
G01 X-2.6669 Y-12.1805
G01 X-2.6353 Y-12.1400
G01 X-2.6049 Y-12.0968
G01 X-2.5766 Y-12.0521
G01 X-2.5513 Y-12.0074
G01 X-2.5262 Y-11.9576
G01 X-2.5054 Y-11.9106
G01 X-2.4863 Y-11.8613
G01 X-2.4698 Y-11.8111
G01 X-2.4560 Y-11.7616
G01 X-2.4438 Y-11.7072
G01 X-2.4351 Y-11.6566
G01 X-2.4286 Y-11.6041
G01 X-2.4247 Y-11.5514
G01 X-2.4234 Y-11.5001
G01 X-2.4248 Y-11.4443
G01 X-2.4286 Y-11.3930
G01 X-2.4351 Y-11.3406
G01 X-2.4441 Y-11.2885
G01 X-2.4553 Y-11.2384
G01 X-2.4698 Y-11.1860
G01 X-2.4863 Y-11.1359
G01 X-2.5054 Y-11.0865
G01 X-2.5268 Y-11.0382
G01 X-2.5498 Y-10.9923
G01 X-2.5766 Y-10.9450
G01 X-2.6040 Y-10.9016
G01 X-2.6362 Y-10.8560
G01 X-2.6678 Y-10.8155
G01 X-2.7023 Y-10.7755
G01 X-2.7388 Y-10.7372
G01 X-2.7770 Y-10.7008
G01 X-2.8170 Y-10.6663
G01 X-2.8587 Y-10.6338
G01 X-2.9019 Y-10.6033
G01 X-2.9311 Y-10.5848
G01 X-2.9311 Y-10.3588
G01 X-2.7392 Y-10.5508
G01 X-2.7285 Y-10.5609
G01 X-2.7180 Y-10.5700
G01 X-2.7035 Y-10.5814
G01 X-2.6920 Y-10.5894
G01 X-2.6802 Y-10.5969
G01 X-2.6655 Y-10.6053
G01 X-2.6517 Y-10.6122
G01 X-2.6390 Y-10.6179
G01 X-2.6232 Y-10.6241
G01 X-2.6085 Y-10.6289
G01 X-2.5951 Y-10.6327
G01 X-2.5785 Y-10.6364
G01 X-2.5618 Y-10.6393
G01 X-2.5480 Y-10.6410
G01 X-2.5326 Y-10.6421
G01 X-2.5171 Y-10.6425
G01 X-2.5017 Y-10.6421
G01 X-2.4863 Y-10.6410
G01 X-2.4724 Y-10.6393
G01 X-2.4542 Y-10.6361
G01 X-2.4406 Y-10.6330
G01 X-2.4257 Y-10.6289
G01 X-2.4111 Y-10.6241
G01 X-2.3966 Y-10.6185
G01 X-2.3825 Y-10.6122
G01 X-2.3700 Y-10.6060
G01 X-2.3540 Y-10.5969
G01 X-2.3422 Y-10.5894
G01 X-2.3296 Y-10.5805
G01 X-2.3174 Y-10.5710
G01 X-2.3068 Y-10.5619
G01 X-2.2935 Y-10.5492
G01 X-2.2838 Y-10.5391
G01 X-2.2738 Y-10.5274
G01 X-2.2642 Y-10.5152
G01 X-2.2554 Y-10.5025
G01 X-2.2471 Y-10.4895
G01 X-2.2395 Y-10.4760
G01 X-2.2325 Y-10.4622
G01 X-2.2268 Y-10.4495
G01 X-2.2202 Y-10.4323
G01 X-2.2158 Y-10.4190
G01 X-2.2114 Y-10.4027
G01 X-2.2083 Y-10.3891
G01 X-2.2059 Y-10.3753
G01 X-2.2040 Y-10.3600
G01 X-2.2027 Y-10.3431
G01 X-2.2023 Y-10.3276
G01 X-2.2023 Y-7.2111
G01 X-2.2026 Y-7.1971
G01 X-2.2038 Y-7.1802
G01 X-2.2057 Y-7.1649
G01 X-2.2083 Y-7.1497
G01 X-2.2117 Y-7.1347
G01 X-2.2158 Y-7.1198
G01 X-2.2206 Y-7.1052
G01 X-2.2262 Y-7.0908
G01 X-2.2318 Y-7.0780
G01 X-2.2401 Y-7.0616
G01 X-2.2470 Y-7.0494
G01 X-2.2560 Y-7.0352
G01 X-2.2641 Y-7.0238
G01 X-2.2735 Y-7.0116
G01 X-2.2836 Y-6.9999
G01 X-2.2953 Y-6.9877
G01 X-2.3054 Y-6.9781
G01 X-2.3171 Y-6.9680
G01 X-2.3292 Y-6.9585
G01 X-2.3418 Y-6.9496
G01 X-2.3548 Y-6.9413
G01 X-2.3683 Y-6.9337
G01 X-2.3820 Y-6.9267
G01 X-2.3961 Y-6.9204
G01 X-2.4105 Y-6.9148
G01 X-2.4251 Y-6.9100
G01 X-2.4400 Y-6.9058
G01 X-2.4550 Y-6.9024
G01 X-2.4702 Y-6.8997
G01 X-2.4856 Y-6.8978
G01 X-2.5009 Y-6.8966
G01 X-2.5149 Y-6.8963
G01 X-2.5333 Y-6.8967
G01 X-2.5472 Y-6.8977
G01 X-2.5625 Y-6.8995
G01 X-2.5792 Y-6.9024
G01 X-2.5928 Y-6.9055
G01 X-2.6076 Y-6.9095
G01 X-2.6237 Y-6.9148
G01 X-2.6367 Y-6.9198
G01 X-2.6508 Y-6.9260
G01 X-2.6660 Y-6.9337
G01 X-2.6781 Y-6.9405
G01 X-2.6912 Y-6.9487
G01 X-2.7038 Y-6.9576
G01 X-2.7160 Y-6.9670
G01 X-2.7277 Y-6.9770
G01 X-2.7384 Y-6.9871
G01 X-2.9311 Y-7.1785
G01 X-2.9311 Y-6.9514
G01 X-2.9019 Y-6.9328
G01 X-2.8599 Y-6.9033
G01 X-2.8182 Y-6.8708
G01 X-2.7770 Y-6.8354
G01 X-2.7398 Y-6.8000
G01 X-2.7023 Y-6.7606
G01 X-2.6678 Y-6.7206
G01 X-2.6353 Y-6.6790
G01 X-2.6049 Y-6.6358
G01 X-2.5766 Y-6.5911
G01 X-2.5498 Y-6.5438
G01 X-2.5262 Y-6.4966
G01 X-2.5054 Y-6.4496
G01 X-2.4869 Y-6.4017
G01 X-2.4698 Y-6.3501
G01 X-2.4557 Y-6.2992
G01 X-2.4441 Y-6.2476
G01 X-2.4351 Y-6.1956
G01 X-2.4286 Y-6.1431
G01 X-2.4247 Y-6.0904
G01 X-2.4234 Y-6.0368
G01 X-2.4248 Y-5.9833
G01 X-2.4286 Y-5.9320
G01 X-2.4353 Y-5.8781
G01 X-2.4444 Y-5.8261
G01 X-2.4557 Y-5.7760
G01 X-2.4693 Y-5.7265
G01 X-2.4863 Y-5.6749
G01 X-2.5054 Y-5.6255
G01 X-2.5268 Y-5.5772
G01 X-2.5505 Y-5.5300
G01 X-2.5766 Y-5.4840
G01 X-2.6049 Y-5.4394
G01 X-2.6353 Y-5.3962
G01 X-2.6678 Y-5.3545
G01 X-2.7033 Y-5.3134
G01 X-2.7388 Y-5.2762
G01 X-2.7770 Y-5.2398
G01 X-2.8182 Y-5.2043
G01 X-2.8587 Y-5.1728
G01 X-2.9007 Y-5.1432
G01 X-2.9466 Y-5.1141
G01 X-2.9939 Y-5.0873
G01 X-3.0398 Y-5.0643
G01 X-3.0867 Y-5.0434
G01 X-3.1388 Y-5.0233
G01 X-3.1876 Y-5.0072
G01 X-3.2370 Y-4.9935
G01 X-3.2900 Y-4.9816
G01 X-3.3436 Y-4.9723
G01 X-3.3946 Y-4.9661
G01 X-3.4473 Y-4.9622
G01 X-3.5016 Y-4.9609
G01 X-3.5529 Y-4.9622
G01 X-3.6056 Y-4.9661
G01 X-3.6596 Y-4.9728
G01 X-3.7102 Y-4.9816
G01 X-3.7617 Y-4.9931
G01 X-3.8126 Y-5.0072
G01 X-3.8642 Y-5.0243
G01 X-3.9121 Y-5.0428
G01 X-3.9591 Y-5.0636
G01 X-4.0077 Y-5.0880
G01 X-4.0549 Y-5.1148
G01 X-4.0983 Y-5.1423
G01 X-4.1403 Y-5.1719
G01 X-4.1832 Y-5.2053
G01 X-4.2232 Y-5.2398
G01 X-4.2614 Y-5.2762
G01 X-4.2969 Y-5.3134
G01 X-4.3333 Y-5.3557
G01 X-4.3649 Y-5.3962
G01 X-4.3953 Y-5.4394
G01 X-4.4236 Y-5.4840
G01 X-4.4489 Y-5.5287
G01 X-4.4740 Y-5.5786
G01 X-4.4948 Y-5.6255
G01 X-4.5139 Y-5.6749
G01 X-4.5304 Y-5.7250
G01 X-4.5442 Y-5.7745
G01 X-4.5561 Y-5.8275
G01 X-4.5600 Y-5.8498
G01 X-4.7093 Y-5.8498
G01 X-4.7093 Y-5.5377
G01 X-4.1635 Y-4.9898
G01 X-4.1529 Y-4.9786
G01 X-4.1419 Y-4.9657
G01 X-4.1334 Y-4.9547
G01 X-4.1245 Y-4.9420
G01 X-4.1155 Y-4.9277
G01 X-4.1087 Y-4.9155
G01 X-4.1024 Y-4.9031
G01 X-4.0955 Y-4.8876
G01 X-4.0895 Y-4.8718
G01 X-4.0852 Y-4.8586
G01 X-4.0814 Y-4.8451
G01 X-4.0774 Y-4.8272
G01 X-4.0751 Y-4.8134
G01 X-4.0732 Y-4.7981
G01 X-4.0721 Y-4.7827
G01 X-4.0717 Y-4.7673
G01 X-4.0721 Y-4.7518
G01 X-4.0733 Y-4.7364
G01 X-4.0752 Y-4.7211
G01 X-4.0778 Y-4.7059
G01 X-4.0812 Y-4.6909
G01 X-4.0853 Y-4.6760
G01 X-4.0902 Y-4.6614
G01 X-4.0958 Y-4.6470
G01 X-4.1020 Y-4.6329
G01 X-4.1090 Y-4.6191
G01 X-4.1166 Y-4.6056
G01 X-4.1240 Y-4.5939
G01 X-4.1337 Y-4.5800
G01 X-4.1432 Y-4.5678
G01 X-4.1533 Y-4.5561
G01 X-4.1634 Y-4.5455
G01 X-4.4179 Y-4.2910
G01 X-4.4291 Y-4.2803
G01 X-4.4408 Y-4.2702
G01 X-4.4530 Y-4.2607
G01 X-4.4657 Y-4.2518
G01 X-4.4774 Y-4.2443
G01 X-4.4935 Y-4.2352
G01 X-4.5060 Y-4.2290
G01 X-4.5201 Y-4.2227
G01 X-4.5345 Y-4.2172
G01 X-4.5492 Y-4.2123
G01 X-4.5641 Y-4.2082
G01 X-4.5777 Y-4.2051
G01 X-4.5944 Y-4.2022
G01 X-4.6082 Y-4.2004
G01 X-4.6266 Y-4.1991
G01 X-4.6406 Y-4.1988
G01 X-6.4592 Y-4.1988
G01 X-6.4747 Y-4.1991
G01 X-6.4916 Y-4.2004
G01 X-6.5069 Y-4.2024
G01 X-6.5207 Y-4.2048
G01 X-6.5343 Y-4.2079
G01 X-6.5521 Y-4.2128
G01 X-6.5653 Y-4.2172
G01 X-6.5784 Y-4.2222
G01 X-6.5939 Y-4.2290
G01 X-6.6090 Y-4.2367
G01 X-6.6211 Y-4.2436
G01 X-6.6329 Y-4.2511
G01 X-6.6468 Y-4.2608
G01 X-6.6602 Y-4.2712
G01 X-6.6707 Y-4.2804
G01 X-6.6814 Y-4.2905
G01 X-9.5894 Y-7.2010
G01 X-12.9928 Y-7.2010
G01 X-13.0075 Y-7.2014
G01 X-13.0215 Y-7.2024
G01 X-13.0397 Y-7.2047
G01 X-13.0535 Y-7.2071
G01 X-13.0686 Y-7.2105
G01 X-13.0835 Y-7.2146
G01 X-13.0967 Y-7.2190
G01 X-13.1139 Y-7.2256
G01 X-13.1267 Y-7.2313
G01 X-13.1405 Y-7.2382
G01 X-13.1552 Y-7.2466
G01 X-13.1670 Y-7.2541
G01 X-13.1796 Y-7.2630
G01 X-13.1918 Y-7.2725
G01 X-13.2046 Y-7.2836
G01 X-13.2147 Y-7.2932
G01 X-13.2243 Y-7.3033
G01 X-13.2345 Y-7.3150
G01 X-13.2450 Y-7.3283
G01 X-13.2538 Y-7.3410
G01 X-13.2621 Y-7.3540
G01 X-13.2697 Y-7.3675
G01 X-13.2767 Y-7.3813
G01 X-13.2829 Y-7.3954
G01 X-13.2885 Y-7.4098
G01 X-13.2938 Y-7.4259
G01 X-13.2978 Y-7.4408
G01 X-13.3009 Y-7.4544
G01 X-13.3033 Y-7.4682
G01 X-13.3054 Y-7.4850
G01 X-13.3064 Y-7.4989
G01 X-13.3069 Y-7.5159
G01 X-13.3069 Y-9.1924
G01 X-19.5732 Y-9.1924
G01 X-19.5887 Y-9.1928
G01 X-19.6056 Y-9.1941
G01 X-19.6209 Y-9.1960
G01 X-19.6417 Y-9.2000
G00 Z2.0000
G00 X-26.7547 Y-7.8209
G01 F30.00
G01 Z-0.0400
G01 F30.00
G01 X-26.7415 Y-7.8105
G01 X-26.7288 Y-7.7996
G01 X-26.7106 Y-7.7825
G01 X-26.6935 Y-7.7644
G01 X-26.6827 Y-7.7517
G01 X-26.6721 Y-7.7382
G01 X-26.6721 Y-7.8209
G01 X-26.7547 Y-7.8209
G00 Z2.0000
G00 X-28.0879 Y-9.0678
G01 F30.00
G01 Z-0.0400
G01 F30.00
G01 X-20.0025 Y-9.0678
G01 X-19.9746 Y-9.0671
G01 X-19.9482 Y-9.0652
G01 X-19.9205 Y-9.0618
G01 X-19.9090 Y-9.0599
G01 X-13.5026 Y-9.0599
G01 X-13.4967 Y-9.0596
G01 X-13.4908 Y-9.0588
G01 X-13.4822 Y-9.0564
G01 X-13.4767 Y-9.0541
G01 X-13.4714 Y-9.0513
G01 X-13.4641 Y-9.0461
G01 X-13.4597 Y-9.0421
G01 X-13.4557 Y-9.0377
G01 X-13.4521 Y-9.0329
G01 X-13.4491 Y-9.0278
G01 X-13.4455 Y-9.0197
G01 X-13.4431 Y-9.0111
G01 X-13.4420 Y-9.0022
G01 X-13.4419 Y-7.0688
G01 X-9.8798 Y-7.0688
G01 X-9.8526 Y-7.0681
G01 X-9.8248 Y-7.0661
G01 X-9.7971 Y-7.0626
G01 X-9.7695 Y-7.0579
G01 X-9.7423 Y-7.0517
G01 X-9.7153 Y-7.0443
G01 X-9.6888 Y-7.0355
G01 X-9.6614 Y-7.0249
G01 X-9.6372 Y-7.0141
G01 X-9.6122 Y-7.0016
G01 X-9.5879 Y-6.9878
G01 X-9.5643 Y-6.9728
G01 X-9.5415 Y-6.9567
G01 X-9.5195 Y-6.9395
G01 X-9.4983 Y-6.9213
G01 X-9.4786 Y-6.9025
G01 X-6.6450 Y-4.0665
G01 X-4.4139 Y-4.0665
G01 X-4.3953 Y-4.0958
G01 X-4.3658 Y-4.1378
G01 X-4.3324 Y-4.1806
G01 X-4.2969 Y-4.2217
G01 X-4.2614 Y-4.2589
G01 X-4.2243 Y-4.2943
G01 X-4.1832 Y-4.3299
G01 X-4.1403 Y-4.3633
G01 X-4.0983 Y-4.3928
G01 X-4.0549 Y-4.4203
G01 X-4.0090 Y-4.4464
G01 X-3.9604 Y-4.4709
G01 X-3.9108 Y-4.4929
G01 X-3.8628 Y-4.5113
G01 X-3.8141 Y-4.5275
G01 X-3.7617 Y-4.5420
G01 X-3.7087 Y-4.5539
G01 X-3.6581 Y-4.5626
G01 X-3.6071 Y-4.5689
G01 X-3.5529 Y-4.5730
G01 X-3.5001 Y-4.5743
G01 X-3.4473 Y-4.5730
G01 X-3.3931 Y-4.5689
G01 X-3.3421 Y-4.5626
G01 X-3.2915 Y-4.5539
G01 X-3.2385 Y-4.5420
G01 X-3.1861 Y-4.5275
G01 X-3.1374 Y-4.5113
G01 X-3.0894 Y-4.4929
G01 X-3.0398 Y-4.4709
G01 X-2.9912 Y-4.4464
G01 X-2.9453 Y-4.4203
G01 X-2.9019 Y-4.3928
G01 X-2.8599 Y-4.3633
G01 X-2.8170 Y-4.3299
G01 X-2.7759 Y-4.2943
G01 X-2.7388 Y-4.2589
G01 X-2.7033 Y-4.2217
G01 X-2.6678 Y-4.1806
G01 X-2.6344 Y-4.1378
G01 X-2.6049 Y-4.0958
G01 X-2.5863 Y-4.0665
G01 X-2.0701 Y-4.0665
G01 X-2.0701 Y-16.0096
G01 X-2.5863 Y-16.0096
G01 X-2.6049 Y-15.9804
G01 X-2.6353 Y-15.9372
G01 X-2.6678 Y-15.8955
G01 X-2.7013 Y-15.8566
G01 X-2.7398 Y-15.8162
G01 X-2.7770 Y-15.7808
G01 X-2.8159 Y-15.7472
G01 X-2.8599 Y-15.7129
G01 X-2.9019 Y-15.6833
G01 X-2.9466 Y-15.6551
G01 X-2.9939 Y-15.6283
G01 X-3.0398 Y-15.6053
G01 X-3.0867 Y-15.5844
G01 X-3.1388 Y-15.5643
G01 X-3.1876 Y-15.5482
G01 X-3.2385 Y-15.5341
G01 X-3.2915 Y-15.5223
G01 X-3.3421 Y-15.5135
G01 X-3.3946 Y-15.5071
G01 X-3.4473 Y-15.5032
G01 X-3.4986 Y-15.5019
G01 X-3.5529 Y-15.5032
G01 X-3.6071 Y-15.5072
G01 X-3.6581 Y-15.5135
G01 X-3.7087 Y-15.5223
G01 X-3.7632 Y-15.5345
G01 X-3.8126 Y-15.5482
G01 X-3.8628 Y-15.5648
G01 X-3.9121 Y-15.5838
G01 X-3.9591 Y-15.6046
G01 X-4.0090 Y-15.6297
G01 X-4.0536 Y-15.6551
G01 X-4.0983 Y-15.6833
G01 X-4.1415 Y-15.7138
G01 X-4.1820 Y-15.7453
G01 X-4.2243 Y-15.7818
G01 X-4.2614 Y-15.8172
G01 X-4.2979 Y-15.8555
G01 X-4.3324 Y-15.8955
G01 X-4.3640 Y-15.9360
G01 X-4.3962 Y-15.9816
G01 X-4.4236 Y-16.0250
G01 X-4.4497 Y-16.0710
G01 X-4.4734 Y-16.1182
G01 X-4.4943 Y-16.1652
G01 X-4.5143 Y-16.2173
G01 X-4.5304 Y-16.2660
G01 X-4.5445 Y-16.3170
G01 X-4.5561 Y-16.3685
G01 X-4.5649 Y-16.4191
G01 X-4.5716 Y-16.4730
G01 X-4.5756 Y-16.5272
G01 X-4.5768 Y-16.5786
G01 X-4.5755 Y-16.6314
G01 X-4.5715 Y-16.6856
G01 X-4.5651 Y-16.7366
G01 X-4.5564 Y-16.7872
G01 X-4.5445 Y-16.8402
G01 X-4.5300 Y-16.8925
G01 X-4.5139 Y-16.9413
G01 X-4.4954 Y-16.9892
G01 X-4.4728 Y-17.0403
G01 X-4.4497 Y-17.0861
G01 X-4.4244 Y-17.1308
G01 X-4.3953 Y-17.1768
G01 X-4.3640 Y-17.2212
G01 X-4.3324 Y-17.2616
G01 X-4.2979 Y-17.3016
G01 X-4.2614 Y-17.3399
G01 X-4.2243 Y-17.3753
G01 X-4.1832 Y-17.4109
G01 X-4.1403 Y-17.4443
G01 X-4.0983 Y-17.4738
G01 X-4.0691 Y-17.4924
G01 X-4.0691 Y-26.7620
G01 X-6.7380 Y-29.4310
G01 X-10.2336 Y-29.4310
G01 X-10.2601 Y-29.4316
G01 X-10.2909 Y-29.4339
G01 X-10.3171 Y-29.4371
G01 X-10.3446 Y-29.4419
G01 X-10.3719 Y-29.4480
G01 X-10.3974 Y-29.4551
G01 X-10.4267 Y-29.4648
G01 X-10.4514 Y-29.4743
G01 X-10.4769 Y-29.4856
G01 X-10.5018 Y-29.4982
G01 X-10.5249 Y-29.5112
G01 X-10.5497 Y-29.5269
G01 X-10.5714 Y-29.5421
G01 X-10.5957 Y-29.5611
G01 X-10.6157 Y-29.5784
G01 X-10.6360 Y-29.5976
G01 X-11.6240 Y-30.5857
G01 X-11.6423 Y-30.6048
G01 X-11.6615 Y-30.6271
G01 X-11.6787 Y-30.6491
G01 X-11.6948 Y-30.6719
G01 X-11.7097 Y-30.6955
G01 X-11.7235 Y-30.7198
G01 X-11.7360 Y-30.7447
G01 X-11.7473 Y-30.7703
G01 X-11.7569 Y-30.7949
G01 X-11.7666 Y-30.8243
G01 X-11.7736 Y-30.8498
G01 X-11.7797 Y-30.8770
G01 X-11.7845 Y-30.9045
G01 X-11.7878 Y-30.9308
G01 X-11.7900 Y-30.9616
G01 X-11.7907 Y-30.9880
G01 X-11.7907 Y-32.0859
G01 X-11.8199 Y-32.1044
G01 X-11.8619 Y-32.1340
G01 X-11.9036 Y-32.1664
G01 X-11.9448 Y-32.2019
G01 X-11.9820 Y-32.2373
G01 X-12.0195 Y-32.2766
G01 X-12.0540 Y-32.3166
G01 X-12.0865 Y-32.3583
G01 X-12.1169 Y-32.4015
G01 X-12.1452 Y-32.4461
G01 X-12.1720 Y-32.4934
G01 X-12.1956 Y-32.5407
G01 X-12.2164 Y-32.5876
G01 X-12.2349 Y-32.6356
G01 X-12.2520 Y-32.6871
G01 X-12.2661 Y-32.7381
G01 X-12.2777 Y-32.7896
G01 X-12.2869 Y-32.8432
G01 X-12.2932 Y-32.8941
G01 X-12.2971 Y-32.9468
G01 X-12.2984 Y-32.9997
G01 X-12.2971 Y-33.0525
G01 X-12.2932 Y-33.1052
G01 X-12.2867 Y-33.1577
G01 X-12.2777 Y-33.2097
G01 X-12.2665 Y-33.2598
G01 X-12.2520 Y-33.3122
G01 X-12.2359 Y-33.3610
G01 X-12.2159 Y-33.4131
G01 X-12.1950 Y-33.4600
G01 X-12.1713 Y-33.5072
G01 X-12.1452 Y-33.5532
G01 X-12.1161 Y-33.5991
G01 X-12.0856 Y-33.6423
G01 X-12.0540 Y-33.6827
G01 X-12.0205 Y-33.7216
G01 X-11.9830 Y-33.7610
G01 X-11.9448 Y-33.7975
G01 X-11.9036 Y-33.8329
G01 X-11.8631 Y-33.8645
G01 X-11.8211 Y-33.8941
G01 X-11.7752 Y-33.9232
G01 X-11.7293 Y-33.9492
G01 X-11.6820 Y-33.9730
G01 X-11.6324 Y-33.9950
G01 X-11.5844 Y-34.0134
G01 X-11.5357 Y-34.0296
G01 X-11.4833 Y-34.0441
G01 X-11.4318 Y-34.0557
G01 X-11.3782 Y-34.0649
G01 X-11.3272 Y-34.0712
G01 X-11.2760 Y-34.0750
G01 X-11.2217 Y-34.0764
G01 X-11.1674 Y-34.0750
G01 X-11.1162 Y-34.0712
G01 X-11.0652 Y-34.0649
G01 X-11.0116 Y-34.0557
G01 X-10.9601 Y-34.0441
G01 X-10.9077 Y-34.0296
G01 X-10.8590 Y-34.0134
G01 X-10.8110 Y-33.9950
G01 X-10.7614 Y-33.9730
G01 X-10.7141 Y-33.9492
G01 X-10.6682 Y-33.9232
G01 X-10.6223 Y-33.8941
G01 X-10.5803 Y-33.8645
G01 X-10.5398 Y-33.8329
G01 X-10.4986 Y-33.7975
G01 X-10.4604 Y-33.7610
G01 X-10.4229 Y-33.7216
G01 X-10.3885 Y-33.6816
G01 X-10.3569 Y-33.6411
G01 X-10.3273 Y-33.5991
G01 X-10.2982 Y-33.5532
G01 X-10.2721 Y-33.5072
G01 X-10.2484 Y-33.4600
G01 X-10.2275 Y-33.4131
G01 X-10.2075 Y-33.3610
G01 X-10.1914 Y-33.3122
G01 X-10.1769 Y-33.2598
G01 X-10.1657 Y-33.2097
G01 X-10.1567 Y-33.1577
G01 X-10.1502 Y-33.1052
G01 X-10.1463 Y-33.0525
G01 X-10.1450 Y-32.9989
G01 X-10.1463 Y-32.9468
G01 X-10.1502 Y-32.8941
G01 X-10.1567 Y-32.8417
G01 X-10.1657 Y-32.7896
G01 X-10.1773 Y-32.7381
G01 X-10.1914 Y-32.6871
G01 X-10.2085 Y-32.6356
G01 X-10.2275 Y-32.5863
G01 X-10.2484 Y-32.5393
G01 X-10.2714 Y-32.4934
G01 X-10.2982 Y-32.4461
G01 X-10.3265 Y-32.4015
G01 X-10.3569 Y-32.3583
G01 X-10.3894 Y-32.3166
G01 X-10.4239 Y-32.2766
G01 X-10.4614 Y-32.2373
G01 X-10.4986 Y-32.2019
G01 X-10.5398 Y-32.1664
G01 X-10.5815 Y-32.1340
G01 X-10.6235 Y-32.1044
G01 X-10.6527 Y-32.0859
G01 X-10.6527 Y-31.2237
G01 X-9.9980 Y-30.5689
G01 X-6.5016 Y-30.5689
G01 X-6.4745 Y-30.5682
G01 X-6.4451 Y-30.5660
G01 X-6.4174 Y-30.5625
G01 X-6.3914 Y-30.5580
G01 X-6.3656 Y-30.5522
G01 X-6.3372 Y-30.5444
G01 X-6.3107 Y-30.5356
G01 X-6.2847 Y-30.5256
G01 X-6.2591 Y-30.5143
G01 X-6.2342 Y-30.5017
G01 X-6.2099 Y-30.4879
G01 X-6.1863 Y-30.4730
G01 X-6.1647 Y-30.4578
G01 X-6.1403 Y-30.4388
G01 X-6.1203 Y-30.4215
G01 X-6.1001 Y-30.4023
G01 X-3.0978 Y-27.4000
G01 X-3.0775 Y-27.3786
G01 X-3.0603 Y-27.3586
G01 X-3.0431 Y-27.3366
G01 X-3.0262 Y-27.3125
G01 X-3.0121 Y-27.2902
G01 X-2.9983 Y-27.2659
G01 X-2.9858 Y-27.2409
G01 X-2.9750 Y-27.2168
G01 X-2.9639 Y-27.1879
G01 X-2.9556 Y-27.1628
G01 X-2.9482 Y-27.1359
G01 X-2.9421 Y-27.1087
G01 X-2.9375 Y-27.0826
G01 X-2.9338 Y-27.0519
G01 X-2.9318 Y-27.0256
G01 X-2.9312 Y-26.9984
G01 X-2.9311 Y-17.4924
G01 X-2.9019 Y-17.4738
G01 X-2.8599 Y-17.4443
G01 X-2.8182 Y-17.4118
G01 X-2.7770 Y-17.3764
G01 X-2.7388 Y-17.3399
G01 X-2.7023 Y-17.3016
G01 X-2.6669 Y-17.2605
G01 X-2.6344 Y-17.2188
G01 X-2.6049 Y-17.1768
G01 X-2.5863 Y-17.1475
G01 X-1.5011 Y-17.1475
G01 X-1.4747 Y-17.1469
G01 X-1.4454 Y-17.1448
G01 X-1.4176 Y-17.1414
G01 X-1.3901 Y-17.1366
G01 X-1.3643 Y-17.1308
G01 X-1.3345 Y-17.1226
G01 X-1.3094 Y-17.1143
G01 X-1.2820 Y-17.1036
G01 X-1.2579 Y-17.0929
G01 X-1.2342 Y-17.0810
G01 X-1.2086 Y-17.0666
G01 X-1.1838 Y-17.0508
G01 X-1.1622 Y-17.0356
G01 X-1.1413 Y-17.0193
G01 X-1.1190 Y-17.0001
G01 X-1.0978 Y-16.9798
G01 X-1.0796 Y-16.9607
G01 X-1.0623 Y-16.9407
G01 X-1.0441 Y-16.9175
G01 X-1.0281 Y-16.8947
G01 X-1.0139 Y-16.8723
G01 X-0.9993 Y-16.8468
G01 X-0.9862 Y-16.8205
G01 X-0.9755 Y-16.7963
G01 X-0.9659 Y-16.7717
G01 X-0.9562 Y-16.7423
G01 X-0.9492 Y-16.7168
G01 X-0.9434 Y-16.6910
G01 X-0.9383 Y-16.6621
G01 X-0.9348 Y-16.6329
G01 X-0.9329 Y-16.6065
G01 X-0.9322 Y-16.5786
G01 X-0.9322 Y-3.4968
G01 X-0.9329 Y-3.4682
G01 X-0.9349 Y-3.4418
G01 X-0.9381 Y-3.4156
G01 X-0.9431 Y-3.3866
G01 X-0.9492 Y-3.3593
G01 X-0.9567 Y-3.3324
G01 X-0.9659 Y-3.3045
G01 X-0.9761 Y-3.2785
G01 X-0.9868 Y-3.2543
G01 X-0.9987 Y-3.2307
G01 X-1.0131 Y-3.2051
G01 X-1.0281 Y-3.1815
G01 X-1.0441 Y-3.1587
G01 X-1.0623 Y-3.1355
G01 X-1.0806 Y-3.1144
G01 X-1.0988 Y-3.0953
G01 X-1.1179 Y-3.0770
G01 X-1.1402 Y-3.0578
G01 X-1.1622 Y-3.0406
G01 X-1.1863 Y-3.0237
G01 X-1.2086 Y-3.0096
G01 X-1.2329 Y-2.9958
G01 X-1.2592 Y-2.9826
G01 X-1.2834 Y-2.9719
G01 X-1.3080 Y-2.9624
G01 X-1.3360 Y-2.9531
G01 X-1.3643 Y-2.9453
G01 X-1.3901 Y-2.9396
G01 X-1.4162 Y-2.9350
G01 X-1.4468 Y-2.9312
G01 X-1.4732 Y-2.9293
G01 X-1.5011 Y-2.9286
G01 X-2.5863 Y-2.9286
G01 X-2.6049 Y-2.8994
G01 X-2.6344 Y-2.8574
G01 X-2.6678 Y-2.8145
G01 X-2.7033 Y-2.7734
G01 X-2.7388 Y-2.7362
G01 X-2.7759 Y-2.7008
G01 X-2.8170 Y-2.6653
G01 X-2.8599 Y-2.6319
G01 X-2.9032 Y-2.6015
G01 X-2.9466 Y-2.5741
G01 X-2.9912 Y-2.5487
G01 X-3.0398 Y-2.5243
G01 X-3.0894 Y-2.5023
G01 X-3.1374 Y-2.4838
G01 X-3.1861 Y-2.4677
G01 X-3.2385 Y-2.4531
G01 X-3.2900 Y-2.4416
G01 X-3.3436 Y-2.4323
G01 X-3.3960 Y-2.4259
G01 X-3.4473 Y-2.4222
G01 X-3.4986 Y-2.4209
G01 X-3.5529 Y-2.4222
G01 X-3.6071 Y-2.4262
G01 X-3.6581 Y-2.4325
G01 X-3.7087 Y-2.4413
G01 X-3.7617 Y-2.4531
G01 X-3.8141 Y-2.4677
G01 X-3.8628 Y-2.4838
G01 X-3.9108 Y-2.5023
G01 X-3.9604 Y-2.5243
G01 X-4.0090 Y-2.5487
G01 X-4.0549 Y-2.5748
G01 X-4.0983 Y-2.6023
G01 X-4.1403 Y-2.6319
G01 X-4.1832 Y-2.6653
G01 X-4.2243 Y-2.7008
G01 X-4.2614 Y-2.7362
G01 X-4.2969 Y-2.7734
G01 X-4.3324 Y-2.8145
G01 X-4.3658 Y-2.8574
G01 X-4.3953 Y-2.8994
G01 X-4.4139 Y-2.9286
G01 X-6.8816 Y-2.9286
G01 X-6.9088 Y-2.9293
G01 X-6.9352 Y-2.9312
G01 X-6.9644 Y-2.9348
G01 X-6.9919 Y-2.9396
G01 X-7.0177 Y-2.9454
G01 X-7.0475 Y-2.9536
G01 X-7.0726 Y-2.9619
G01 X-7.0973 Y-2.9714
G01 X-7.1229 Y-2.9827
G01 X-7.1492 Y-2.9959
G01 X-7.1735 Y-3.0097
G01 X-7.1971 Y-3.0246
G01 X-7.2211 Y-3.0416
G01 X-7.2419 Y-3.0579
G01 X-7.2620 Y-3.0752
G01 X-7.2828 Y-3.0949
G01 X-10.1164 Y-5.9309
G01 X-13.4419 Y-5.9309
G01 X-13.4420 Y-3.9975
G01 X-13.4431 Y-3.9887
G01 X-13.4445 Y-3.9829
G01 X-13.4465 Y-3.9773
G01 X-13.4491 Y-3.9719
G01 X-13.4521 Y-3.9668
G01 X-13.4576 Y-3.9597
G01 X-13.4619 Y-3.9555
G01 X-13.4665 Y-3.9517
G01 X-13.4714 Y-3.9484
G01 X-13.4767 Y-3.9456
G01 X-13.4850 Y-3.9424
G01 X-13.4908 Y-3.9410
G01 X-13.4967 Y-3.9401
G01 X-13.5026 Y-3.9398
G01 X-26.5023 Y-3.9398
G01 X-26.5083 Y-3.9401
G01 X-26.5142 Y-3.9410
G01 X-26.5200 Y-3.9424
G01 X-26.5256 Y-3.9444
G01 X-26.5335 Y-3.9484
G01 X-26.5408 Y-3.9536
G01 X-26.5453 Y-3.9576
G01 X-26.5493 Y-3.9620
G01 X-26.5528 Y-3.9668
G01 X-26.5559 Y-3.9719
G01 X-26.5595 Y-3.9801
G01 X-26.5612 Y-3.9858
G01 X-26.5624 Y-3.9916
G01 X-26.5630 Y-4.0005
G01 X-26.5630 Y-7.9299
G01 X-28.0879 Y-7.9299
G01 X-28.1065 Y-7.9007
G01 X-28.1360 Y-7.8587
G01 X-28.1694 Y-7.8158
G01 X-28.2049 Y-7.7747
G01 X-28.2404 Y-7.7375
G01 X-28.2786 Y-7.7011
G01 X-28.3186 Y-7.6665
G01 X-28.3591 Y-7.6349
G01 X-28.4035 Y-7.6036
G01 X-28.4495 Y-7.5746
G01 X-28.4941 Y-7.5493
G01 X-28.5400 Y-7.5262
G01 X-28.5897 Y-7.5041
G01 X-28.6404 Y-7.4846
G01 X-28.6892 Y-7.4685
G01 X-28.7386 Y-7.4548
G01 X-28.7931 Y-7.4426
G01 X-28.8437 Y-7.4338
G01 X-28.8947 Y-7.4275
G01 X-28.9489 Y-7.4234
G01 X-29.0032 Y-7.4222
G01 X-29.0545 Y-7.4234
G01 X-29.1058 Y-7.4272
G01 X-29.1612 Y-7.4340
G01 X-29.2118 Y-7.4428
G01 X-29.2633 Y-7.4544
G01 X-29.3142 Y-7.4685
G01 X-29.3630 Y-7.4846
G01 X-29.4137 Y-7.5041
G01 X-29.4620 Y-7.5255
G01 X-29.5079 Y-7.5486
G01 X-29.5552 Y-7.5753
G01 X-29.5999 Y-7.6036
G01 X-29.6419 Y-7.6332
G01 X-29.6848 Y-7.6665
G01 X-29.7248 Y-7.7011
G01 X-29.7620 Y-7.7365
G01 X-29.7995 Y-7.7758
G01 X-29.8340 Y-7.8158
G01 X-29.8656 Y-7.8563
G01 X-29.8969 Y-7.9007
G01 X-29.9252 Y-7.9453
G01 X-29.9505 Y-7.9900
G01 X-29.9750 Y-8.0385
G01 X-29.9964 Y-8.0868
G01 X-30.0149 Y-8.1347
G01 X-30.0320 Y-8.1863
G01 X-30.0461 Y-8.2372
G01 X-30.0577 Y-8.2888
G01 X-30.0667 Y-8.3409
G01 X-30.0731 Y-8.3918
G01 X-30.0771 Y-8.4460
G01 X-30.0784 Y-8.4974
G01 X-30.0770 Y-8.5532
G01 X-30.0732 Y-8.6044
G01 X-30.0667 Y-8.6568
G01 X-30.0577 Y-8.7089
G01 X-30.0461 Y-8.7605
G01 X-30.0320 Y-8.8114
G01 X-30.0155 Y-8.8616
G01 X-29.9964 Y-8.9109
G01 X-29.9756 Y-8.9578
G01 X-29.9505 Y-9.0077
G01 X-29.9252 Y-9.0524
G01 X-29.8961 Y-9.0983
G01 X-29.8665 Y-9.1402
G01 X-29.8340 Y-9.1819
G01 X-29.7995 Y-9.2219
G01 X-29.7630 Y-9.2602
G01 X-29.7248 Y-9.2966
G01 X-29.6848 Y-9.3311
G01 X-29.6431 Y-9.3637
G01 X-29.6011 Y-9.3932
G01 X-29.5552 Y-9.4224
G01 X-29.5106 Y-9.4477
G01 X-29.4607 Y-9.4728
G01 X-29.4137 Y-9.4936
G01 X-29.3644 Y-9.5126
G01 X-29.3142 Y-9.5292
G01 X-29.2633 Y-9.5433
G01 X-29.2118 Y-9.5549
G01 X-29.1597 Y-9.5639
G01 X-29.1072 Y-9.5704
G01 X-29.0560 Y-9.5742
G01 X-29.0017 Y-9.5755
G01 X-28.9504 Y-9.5743
G01 X-28.8947 Y-9.5702
G01 X-28.8437 Y-9.5639
G01 X-28.7916 Y-9.5549
G01 X-28.7401 Y-9.5433
G01 X-28.6892 Y-9.5292
G01 X-28.6390 Y-9.5126
G01 X-28.5897 Y-9.4936
G01 X-28.5414 Y-9.4722
G01 X-28.4955 Y-9.4491
G01 X-28.4482 Y-9.4224
G01 X-28.4048 Y-9.3949
G01 X-28.3591 Y-9.3628
G01 X-28.3186 Y-9.3311
G01 X-28.2786 Y-9.2966
G01 X-28.2404 Y-9.2602
G01 X-28.2039 Y-9.2219
G01 X-28.1694 Y-9.1819
G01 X-28.1369 Y-9.1402
G01 X-28.1065 Y-9.0970
G01 X-28.0879 Y-9.0678
G00 Z2.0000
G00 X-28.5340 Y-9.5882
G01 F30.00
G01 Z-0.0400
G01 F30.00
G01 X-28.5448 Y-9.5990
G01 X-28.5600 Y-9.5990
G01 X-28.5479 Y-9.5943
G01 X-28.5340 Y-9.5882
G00 Z2.0000
G00 X-29.4434 Y-9.5990
G01 F30.00
G01 Z-0.0400
G01 F30.00
G01 X-29.4561 Y-9.5990
G01 X-29.4649 Y-9.5902
G01 X-29.4555 Y-9.5943
G01 X-29.4434 Y-9.5990
G00 Z2.0000
G00 X-30.0930 Y-8.9620
G01 F30.00
G01 Z-0.0400
G01 F30.00
G01 X-30.1019 Y-8.9532
G01 X-30.1019 Y-8.9406
G01 X-30.0972 Y-8.9526
G01 X-30.0930 Y-8.9620
G00 Z2.0000
G00 X-30.1019 Y-8.0571
G01 F30.00
G01 Z-0.0400
G01 F30.00
G01 X-30.1019 Y-8.0423
G01 X-30.0913 Y-8.0318
G01 X-30.0972 Y-8.0451
G01 X-30.1019 Y-8.0571
G00 Z2.0000
G00 X-29.4656 Y-7.4078
G01 F30.00
G01 Z-0.0400
G01 F30.00
G01 X-29.4564 Y-7.3987
G01 X-29.4434 Y-7.3987
G01 X-29.4555 Y-7.4034
G01 X-29.4656 Y-7.4078
G00 Z2.0000
G00 X-28.5600 Y-7.3987
G01 F30.00
G01 Z-0.0400
G01 F30.00
G01 X-28.5448 Y-7.3987
G01 X-28.5340 Y-7.4095
G01 X-28.5479 Y-7.4034
G01 X-28.5600 Y-7.3987
G00 Z2.0000
G00 X-28.8139 Y-6.5330
G01 F30.00
G01 Z-0.0400
G01 F30.00
G01 X-28.8139 Y-6.3837
G01 X-28.7916 Y-6.3799
G01 X-28.7386 Y-6.3679
G01 X-28.6892 Y-6.3542
G01 X-28.6376 Y-6.3371
G01 X-28.5897 Y-6.3186
G01 X-28.5414 Y-6.2972
G01 X-28.4941 Y-6.2734
G01 X-28.4482 Y-6.2474
G01 X-28.4035 Y-6.2191
G01 X-28.3615 Y-6.1895
G01 X-28.3175 Y-6.1552
G01 X-28.2786 Y-6.1216
G01 X-28.2404 Y-6.0852
G01 X-28.2039 Y-6.0469
G01 X-28.1704 Y-6.0080
G01 X-28.1369 Y-5.9652
G01 X-28.1056 Y-5.9208
G01 X-28.0782 Y-5.8774
G01 X-28.0529 Y-5.8327
G01 X-28.0284 Y-5.7842
G01 X-28.0064 Y-5.7345
G01 X-27.9879 Y-5.6866
G01 X-27.9718 Y-5.6378
G01 X-27.9573 Y-5.5855
G01 X-27.9457 Y-5.5339
G01 X-27.9418 Y-5.5116
G01 X-27.7925 Y-5.5116
G01 X-27.7925 Y-5.8236
G01 X-28.4999 Y-6.5330
G01 X-28.8139 Y-6.5330
G00 Z2.0000
G00 X-28.5600 Y-6.4240
G01 F30.00
G01 Z-0.0400
G01 F30.00
G01 X-28.5479 Y-6.4193
G01 X-28.5347 Y-6.4135
G01 X-28.5452 Y-6.4240
G01 X-28.5600 Y-6.4240
G00 Z2.0000
G00 X-29.4649 Y-6.4152
G01 F30.00
G01 Z-0.0400
G01 F30.00
G01 X-29.4555 Y-6.4193
G01 X-29.4434 Y-6.4240
G01 X-29.4561 Y-6.4240
G01 X-29.4649 Y-6.4152
G00 Z2.0000
G00 X-30.1414 Y-5.8928
G01 F30.00
G01 Z-0.0400
G01 F30.00
G01 X-29.9155 Y-5.8928
G01 X-29.8969 Y-5.9220
G01 X-29.8674 Y-5.9640
G01 X-29.8349 Y-6.0057
G01 X-29.7995 Y-6.0469
G01 X-29.7641 Y-6.0841
G01 X-29.7248 Y-6.1216
G01 X-29.6848 Y-6.1561
G01 X-29.6431 Y-6.1887
G01 X-29.5999 Y-6.2191
G01 X-29.5552 Y-6.2474
G01 X-29.5093 Y-6.2734
G01 X-29.4620 Y-6.2972
G01 X-29.4137 Y-6.3186
G01 X-29.3644 Y-6.3376
G01 X-29.3142 Y-6.3542
G01 X-29.2619 Y-6.3686
G01 X-29.2118 Y-6.3799
G01 X-29.1895 Y-6.3837
G01 X-29.1895 Y-6.5330
G01 X-29.5012 Y-6.5330
G01 X-30.1414 Y-5.8928
G00 Z2.0000
G00 X-30.1435 Y-4.7549
G01 F30.00
G01 Z-0.0400
G01 F30.00
G01 X-29.5015 Y-4.1147
G01 X-29.1895 Y-4.1147
G01 X-29.1895 Y-4.2639
G01 X-29.2118 Y-4.2678
G01 X-29.2619 Y-4.2791
G01 X-29.3142 Y-4.2935
G01 X-29.3644 Y-4.3101
G01 X-29.4137 Y-4.3291
G01 X-29.4620 Y-4.3505
G01 X-29.5093 Y-4.3743
G01 X-29.5552 Y-4.4003
G01 X-29.5999 Y-4.4286
G01 X-29.6431 Y-4.4590
G01 X-29.6848 Y-4.4915
G01 X-29.7248 Y-4.5261
G01 X-29.7641 Y-4.5636
G01 X-29.7995 Y-4.6008
G01 X-29.8349 Y-4.6420
G01 X-29.8674 Y-4.6837
G01 X-29.8969 Y-4.7257
G01 X-29.9155 Y-4.7549
G01 X-30.1435 Y-4.7549
G00 Z2.0000
G00 X-29.4656 Y-4.2328
G01 F30.00
G01 Z-0.0400
G01 F30.00
G01 X-29.4564 Y-4.2237
G01 X-29.4434 Y-4.2237
G01 X-29.4555 Y-4.2284
G01 X-29.4656 Y-4.2328
G00 Z2.0000
G00 X-28.8139 Y-4.2639
G01 F30.00
G01 Z-0.0400
G01 F30.00
G01 X-28.8139 Y-4.1147
G01 X-28.4996 Y-4.1147
G01 X-27.7925 Y-4.8218
G01 X-27.7925 Y-5.1361
G01 X-27.9418 Y-5.1361
G01 X-27.9457 Y-5.1138
G01 X-27.9576 Y-5.0608
G01 X-27.9714 Y-5.0113
G01 X-27.9885 Y-4.9597
G01 X-28.0070 Y-4.9118
G01 X-28.0284 Y-4.8635
G01 X-28.0521 Y-4.8163
G01 X-28.0782 Y-4.7703
G01 X-28.1065 Y-4.7257
G01 X-28.1360 Y-4.6837
G01 X-28.1704 Y-4.6396
G01 X-28.2039 Y-4.6008
G01 X-28.2404 Y-4.5625
G01 X-28.2786 Y-4.5261
G01 X-28.3175 Y-4.4925
G01 X-28.3603 Y-4.4590
G01 X-28.4048 Y-4.4278
G01 X-28.4482 Y-4.4003
G01 X-28.4928 Y-4.3750
G01 X-28.5414 Y-4.3505
G01 X-28.5910 Y-4.3285
G01 X-28.6390 Y-4.3101
G01 X-28.6877 Y-4.2940
G01 X-28.7401 Y-4.2794
G01 X-28.7916 Y-4.2678
G01 X-28.8139 Y-4.2639
G00 Z2.0000
G00 X-28.5600 Y-4.2237
G01 F30.00
G01 Z-0.0400
G01 F30.00
G01 X-28.5448 Y-4.2237
G01 X-28.5340 Y-4.2345
G01 X-28.5479 Y-4.2284
G01 X-28.5600 Y-4.2237
G00 Z2.0000
G00 X-27.9124 Y-4.8561
G01 F30.00
G01 Z-0.0400
G01 F30.00
G01 X-27.9015 Y-4.8669
G01 X-27.9015 Y-4.8821
G01 X-27.9062 Y-4.8701
G01 X-27.9124 Y-4.8561
G00 Z2.0000
G00 X-27.9107 Y-5.7877
G01 F30.00
G01 Z-0.0400
G01 F30.00
G01 X-27.9062 Y-5.7776
G01 X-27.9015 Y-5.7656
G01 X-27.9015 Y-5.7786
G01 X-27.9107 Y-5.7877
G00 Z2.0000
G00 X-26.7547 Y-13.3200
G01 F30.00
G01 Z-0.0400
G01 F30.00
G01 X-26.7415 Y-13.3096
G01 X-26.7288 Y-13.2987
G01 X-26.7106 Y-13.2816
G01 X-26.6935 Y-13.2635
G01 X-26.6827 Y-13.2508
G01 X-26.6721 Y-13.2373
G01 X-26.6721 Y-13.3200
G01 X-26.7547 Y-13.3200
G00 Z2.0000
G00 X-26.6721 Y-14.7586
G01 F30.00
G01 Z-0.0400
G01 F30.00
G01 X-26.6827 Y-14.7451
G01 X-26.6935 Y-14.7324
G01 X-26.7106 Y-14.7142
G01 X-26.7288 Y-14.6971
G01 X-26.7415 Y-14.6863
G01 X-26.7547 Y-14.6759
G01 X-26.6721 Y-14.6759
G01 X-26.6721 Y-14.7586
G00 Z2.0000
G00 X-24.1780 Y-17.2500
G01 F30.00
G01 Z-0.0400
G01 F30.00
G01 X-24.1884 Y-17.2368
G01 X-24.1993 Y-17.2242
G01 X-24.2164 Y-17.2060
G01 X-24.2345 Y-17.1889
G01 X-24.2472 Y-17.1780
G01 X-24.2607 Y-17.1674
G01 X-24.1780 Y-17.1674
G01 X-24.1780 Y-17.2500
G00 Z2.0000
G00 X-22.7394 Y-17.1674
G01 F30.00
G01 Z-0.0400
G01 F30.00
G01 X-22.7529 Y-17.1780
G01 X-22.7656 Y-17.1889
G01 X-22.7838 Y-17.2060
G01 X-22.8009 Y-17.2242
G01 X-22.8117 Y-17.2368
G01 X-22.8221 Y-17.2500
G01 X-22.8221 Y-17.1674
G01 X-22.7394 Y-17.1674
G00 Z2.0000
G00 X-27.1542 Y-24.4778
G01 F30.00
G01 Z-0.0400
G01 F30.00
G01 X-27.1675 Y-24.4882
G01 X-27.1832 Y-24.5018
G01 X-27.1983 Y-24.5161
G01 X-27.2098 Y-24.5281
G01 X-27.2288 Y-24.5502
G01 X-27.2390 Y-24.5633
G01 X-27.2533 Y-24.5838
G01 X-27.2621 Y-24.5979
G01 X-27.2724 Y-24.6160
G01 X-27.2817 Y-24.6346
G01 X-27.2902 Y-24.6536
G01 X-27.2976 Y-24.6730
G01 X-27.3042 Y-24.6928
G01 X-27.3097 Y-24.7128
G01 X-27.3121 Y-24.7231
G01 X-27.3193 Y-24.7185
G01 X-27.3340 Y-24.7106
G01 X-27.3494 Y-24.7043
G01 X-27.3573 Y-24.7017
G01 X-27.3735 Y-24.6976
G01 X-27.3817 Y-24.6962
G01 X-27.3983 Y-24.6945
G01 X-27.4066 Y-24.6943
G01 X-30.4546 Y-24.6943
G01 X-30.4712 Y-24.6952
G01 X-30.4877 Y-24.6976
G01 X-30.4958 Y-24.6994
G01 X-30.5118 Y-24.7043
G01 X-30.5195 Y-24.7073
G01 X-30.5271 Y-24.7106
G01 X-30.5387 Y-24.7167
G01 X-30.5387 Y-24.5821
G01 X-30.5271 Y-24.5882
G01 X-30.5195 Y-24.5916
G01 X-30.5118 Y-24.5946
G01 X-30.4958 Y-24.5994
G01 X-30.4877 Y-24.6013
G01 X-30.4712 Y-24.6037
G01 X-30.4546 Y-24.6045
G01 X-27.3983 Y-24.6043
G01 X-27.3899 Y-24.6037
G01 X-27.3735 Y-24.6013
G01 X-27.3653 Y-24.5994
G01 X-27.3494 Y-24.5946
G01 X-27.3416 Y-24.5916
G01 X-27.3266 Y-24.5845
G01 X-27.3123 Y-24.5759
G01 X-27.2989 Y-24.5660
G01 X-27.2866 Y-24.5548
G01 X-27.2808 Y-24.5488
G01 X-27.2703 Y-24.5359
G01 X-27.2655 Y-24.5291
G01 X-27.2569 Y-24.5148
G01 X-27.2532 Y-24.5074
G01 X-27.2468 Y-24.4920
G01 X-27.2424 Y-24.4778
G01 X-27.1542 Y-24.4778
G00 Z2.0000
G00 X-30.5387 Y-23.0175
G01 F30.00
G01 Z-0.0400
G01 F30.00
G01 X-30.5387 Y-22.8803
G01 X-30.5271 Y-22.8864
G01 X-30.5195 Y-22.8898
G01 X-30.5118 Y-22.8928
G01 X-30.4958 Y-22.8976
G01 X-30.4877 Y-22.8995
G01 X-30.4712 Y-22.9019
G01 X-30.4546 Y-22.9027
G01 X-27.4066 Y-22.9027
G01 X-27.3899 Y-22.9019
G01 X-27.3735 Y-22.8995
G01 X-27.3653 Y-22.8976
G01 X-27.3494 Y-22.8928
G01 X-27.3340 Y-22.8864
G01 X-27.3193 Y-22.8786
G01 X-27.3055 Y-22.8693
G01 X-27.2989 Y-22.8642
G01 X-27.2866 Y-22.8530
G01 X-27.2808 Y-22.8470
G01 X-27.2703 Y-22.8341
G01 X-27.2655 Y-22.8273
G01 X-27.2569 Y-22.8130
G01 X-27.2532 Y-22.8056
G01 X-27.2468 Y-22.7902
G01 X-27.2442 Y-22.7823
G01 X-27.2401 Y-22.7661
G01 X-27.2387 Y-22.7579
G01 X-27.2371 Y-22.7413
G01 X-27.2371 Y-21.4547
G01 X-27.2387 Y-21.4381
G01 X-27.2419 Y-21.4218
G01 X-27.2468 Y-21.4058
G01 X-27.2532 Y-21.3904
G01 X-27.2610 Y-21.3757
G01 X-27.2703 Y-21.3619
G01 X-27.2754 Y-21.3553
G01 X-27.2866 Y-21.3430
G01 X-27.2989 Y-21.3318
G01 X-27.3123 Y-21.3219
G01 X-27.3266 Y-21.3133
G01 X-27.3416 Y-21.3062
G01 X-27.3573 Y-21.3006
G01 X-27.3735 Y-21.2965
G01 X-27.3899 Y-21.2941
G01 X-27.3983 Y-21.2935
G01 X-30.4546 Y-21.2933
G01 X-30.4712 Y-21.2941
G01 X-30.4877 Y-21.2965
G01 X-30.4958 Y-21.2984
G01 X-30.5118 Y-21.3032
G01 X-30.5195 Y-21.3062
G01 X-30.5271 Y-21.3096
G01 X-30.5387 Y-21.3157
G01 X-30.5387 Y-21.0160
G01 X-30.5391 Y-20.9993
G01 X-30.5408 Y-20.9744
G01 X-30.5433 Y-20.9538
G01 X-30.5469 Y-20.9333
G01 X-30.5525 Y-20.9089
G01 X-30.5570 Y-20.8929
G01 X-30.5635 Y-20.8732
G01 X-30.5710 Y-20.8538
G01 X-30.5777 Y-20.8385
G01 X-30.5908 Y-20.8125
G01 X-30.5990 Y-20.7981
G01 X-30.6102 Y-20.7805
G01 X-30.6221 Y-20.7635
G01 X-30.6323 Y-20.7503
G01 X-30.6514 Y-20.7283
G01 X-30.6629 Y-20.7163
G01 X-30.6779 Y-20.7019
G01 X-30.6937 Y-20.6883
G01 X-30.7069 Y-20.6779
G01 X-26.6799 Y-20.6779
G01 X-26.6799 Y-23.1218
G01 X-27.2424 Y-23.1218
G01 X-27.2468 Y-23.1076
G01 X-27.2532 Y-23.0922
G01 X-27.2569 Y-23.0848
G01 X-27.2655 Y-23.0705
G01 X-27.2703 Y-23.0637
G01 X-27.2808 Y-23.0508
G01 X-27.2866 Y-23.0448
G01 X-27.2989 Y-23.0336
G01 X-27.3123 Y-23.0237
G01 X-27.3266 Y-23.0151
G01 X-27.3416 Y-23.0080
G01 X-27.3494 Y-23.0050
G01 X-27.3653 Y-23.0002
G01 X-27.3735 Y-22.9983
G01 X-27.3899 Y-22.9959
G01 X-27.3983 Y-22.9953
G01 X-30.4546 Y-22.9951
G01 X-30.4712 Y-22.9959
G01 X-30.4877 Y-22.9983
G01 X-30.4958 Y-23.0002
G01 X-30.5118 Y-23.0050
G01 X-30.5195 Y-23.0080
G01 X-30.5271 Y-23.0114
G01 X-30.5387 Y-23.0175
G00 Z2.0000
G00 X-30.5387 Y-26.4160
G01 F30.00
G01 Z-0.0400
G01 F30.00
G01 X-30.5387 Y-26.2814
G01 X-30.5271 Y-26.2875
G01 X-30.5195 Y-26.2909
G01 X-30.5118 Y-26.2939
G01 X-30.4958 Y-26.2987
G01 X-30.4877 Y-26.3005
G01 X-30.4712 Y-26.3030
G01 X-30.4546 Y-26.3038
G01 X-27.4066 Y-26.3038
G01 X-27.3983 Y-26.3036
G01 X-27.3817 Y-26.3019
G01 X-27.3735 Y-26.3005
G01 X-27.3573 Y-26.2965
G01 X-27.3494 Y-26.2939
G01 X-27.3340 Y-26.2875
G01 X-27.3193 Y-26.2796
G01 X-27.3121 Y-26.2750
G01 X-27.3097 Y-26.2853
G01 X-27.3042 Y-26.3054
G01 X-27.2976 Y-26.3251
G01 X-27.2902 Y-26.3445
G01 X-27.2817 Y-26.3635
G01 X-27.2724 Y-26.3821
G01 X-27.2621 Y-26.4002
G01 X-27.2533 Y-26.4143
G01 X-27.2365 Y-26.4381
G01 X-27.2262 Y-26.4512
G01 X-27.2098 Y-26.4700
G01 X-27.1983 Y-26.4820
G01 X-27.1832 Y-26.4964
G01 X-27.1675 Y-26.5100
G01 X-27.1542 Y-26.5203
G01 X-27.2424 Y-26.5203
G01 X-27.2468 Y-26.5061
G01 X-27.2532 Y-26.4908
G01 X-27.2569 Y-26.4833
G01 X-27.2655 Y-26.4690
G01 X-27.2703 Y-26.4622
G01 X-27.2808 Y-26.4493
G01 X-27.2866 Y-26.4433
G01 X-27.2989 Y-26.4321
G01 X-27.3123 Y-26.4222
G01 X-27.3266 Y-26.4136
G01 X-27.3416 Y-26.4065
G01 X-27.3494 Y-26.4035
G01 X-27.3653 Y-26.3987
G01 X-27.3735 Y-26.3969
G01 X-27.3899 Y-26.3944
G01 X-27.3983 Y-26.3938
G01 X-30.4546 Y-26.3936
G01 X-30.4712 Y-26.3944
G01 X-30.4877 Y-26.3969
G01 X-30.4958 Y-26.3987
G01 X-30.5118 Y-26.4035
G01 X-30.5195 Y-26.4065
G01 X-30.5271 Y-26.4099
G01 X-30.5387 Y-26.4160
G00 Z2.0000
G00 X-30.7069 Y-28.2196
G01 F30.00
G01 Z-0.0400
G01 F30.00
G01 X-30.6937 Y-28.2092
G01 X-30.6779 Y-28.1956
G01 X-30.6629 Y-28.1813
G01 X-30.6514 Y-28.1693
G01 X-30.6349 Y-28.1505
G01 X-30.6247 Y-28.1374
G01 X-30.6079 Y-28.1136
G01 X-30.5990 Y-28.0995
G01 X-30.5888 Y-28.0814
G01 X-30.5794 Y-28.0628
G01 X-30.5710 Y-28.0438
G01 X-30.5635 Y-28.0244
G01 X-30.5570 Y-28.0046
G01 X-30.5514 Y-27.9846
G01 X-30.5491 Y-27.9743
G01 X-30.5418 Y-27.9789
G01 X-30.5271 Y-27.9867
G01 X-30.5118 Y-27.9931
G01 X-30.5038 Y-27.9957
G01 X-30.4877 Y-27.9998
G01 X-30.4795 Y-28.0012
G01 X-30.4629 Y-28.0028
G01 X-30.4546 Y-28.0030
G01 X-27.3983 Y-28.0028
G01 X-27.3899 Y-28.0022
G01 X-27.3735 Y-27.9998
G01 X-27.3653 Y-27.9980
G01 X-27.3494 Y-27.9931
G01 X-27.3416 Y-27.9901
G01 X-27.3266 Y-27.9830
G01 X-27.3123 Y-27.9744
G01 X-27.2989 Y-27.9645
G01 X-27.2866 Y-27.9533
G01 X-27.2808 Y-27.9473
G01 X-27.2703 Y-27.9344
G01 X-27.2655 Y-27.9276
G01 X-27.2569 Y-27.9133
G01 X-27.2532 Y-27.9059
G01 X-27.2468 Y-27.8905
G01 X-27.2424 Y-27.8763
G01 X-27.1542 Y-27.8763
G01 X-27.1675 Y-27.8867
G01 X-27.1832 Y-27.9003
G01 X-27.1983 Y-27.9146
G01 X-27.2098 Y-27.9266
G01 X-27.2262 Y-27.9454
G01 X-27.2365 Y-27.9585
G01 X-27.2533 Y-27.9823
G01 X-27.2621 Y-27.9964
G01 X-27.2724 Y-28.0145
G01 X-27.2817 Y-28.0331
G01 X-27.2902 Y-28.0521
G01 X-27.2976 Y-28.0715
G01 X-27.3042 Y-28.0913
G01 X-27.3097 Y-28.1113
G01 X-27.3121 Y-28.1216
G01 X-27.3193 Y-28.1170
G01 X-27.3340 Y-28.1092
G01 X-27.3494 Y-28.1028
G01 X-27.3573 Y-28.1002
G01 X-27.3735 Y-28.0961
G01 X-27.3817 Y-28.0947
G01 X-27.3983 Y-28.0931
G01 X-27.4066 Y-28.0929
G01 X-30.4629 Y-28.0931
G01 X-30.4712 Y-28.0937
G01 X-30.4877 Y-28.0961
G01 X-30.4958 Y-28.0979
G01 X-30.5118 Y-28.1028
G01 X-30.5195 Y-28.1058
G01 X-30.5346 Y-28.1129
G01 X-30.5489 Y-28.1215
G01 X-30.5622 Y-28.1314
G01 X-30.5746 Y-28.1426
G01 X-30.5803 Y-28.1486
G01 X-30.5909 Y-28.1615
G01 X-30.5957 Y-28.1683
G01 X-30.6043 Y-28.1826
G01 X-30.6080 Y-28.1900
G01 X-30.6144 Y-28.2054
G01 X-30.6187 Y-28.2196
G01 X-30.7069 Y-28.2196
G00 Z2.0000
G00 X-30.6023 Y-29.6160
G01 F30.00
G01 Z-0.0400
G01 F30.00
G01 X-30.7628 Y-29.6160
G01 X-30.7814 Y-29.6066
G01 X-30.7966 Y-29.5998
G01 X-30.8198 Y-29.5907
G01 X-30.8435 Y-29.5830
G01 X-30.8596 Y-29.5786
G01 X-30.8731 Y-29.5756
G01 X-30.6187 Y-29.5756
G01 X-30.6144 Y-29.5898
G01 X-30.6114 Y-29.5975
G01 X-30.6080 Y-29.6051
G01 X-30.6023 Y-29.6160
G00 Z2.0000
G00 X-29.4656 Y-31.9086
G01 F30.00
G01 Z-0.0400
G01 F30.00
G01 X-29.4564 Y-31.8995
G01 X-29.4434 Y-31.8995
G01 X-29.4555 Y-31.9042
G01 X-29.4656 Y-31.9086
G00 Z2.0000
G00 X-28.5600 Y-31.8995
G01 F30.00
G01 Z-0.0400
G01 F30.00
G01 X-28.5448 Y-31.8995
G01 X-28.5340 Y-31.9104
G01 X-28.5479 Y-31.9042
G01 X-28.5600 Y-31.8995
G00 Z2.0000
G00 X-27.9250 Y-32.9989
G01 F30.00
G01 Z-0.0400
G01 F30.00
G01 X-27.9263 Y-32.9468
G01 X-27.9302 Y-32.8941
G01 X-27.9367 Y-32.8417
G01 X-27.9457 Y-32.7896
G01 X-27.9573 Y-32.7381
G01 X-27.9714 Y-32.6871
G01 X-27.9879 Y-32.6369
G01 X-28.0070 Y-32.5876
G01 X-28.0284 Y-32.5393
G01 X-28.0521 Y-32.4921
G01 X-28.0782 Y-32.4461
G01 X-28.1065 Y-32.4015
G01 X-28.1369 Y-32.3583
G01 X-28.1694 Y-32.3166
G01 X-28.2039 Y-32.2766
G01 X-28.2404 Y-32.2383
G01 X-28.2786 Y-32.2019
G01 X-28.3186 Y-32.1674
G01 X-28.3603 Y-32.1349
G01 X-28.4035 Y-32.1044
G01 X-28.4482 Y-32.0762
G01 X-28.4941 Y-32.0501
G01 X-28.5414 Y-32.0264
G01 X-28.5897 Y-32.0049
G01 X-28.6390 Y-31.9859
G01 X-28.6892 Y-31.9693
G01 X-28.7401 Y-31.9552
G01 X-28.7916 Y-31.9437
G01 X-28.8437 Y-31.9346
G01 X-28.8962 Y-31.9282
G01 X-28.9489 Y-31.9243
G01 X-29.0017 Y-31.9230
G01 X-29.0545 Y-31.9243
G01 X-29.1072 Y-31.9282
G01 X-29.1597 Y-31.9346
G01 X-29.2118 Y-31.9437
G01 X-29.2633 Y-31.9552
G01 X-29.3142 Y-31.9693
G01 X-29.3644 Y-31.9859
G01 X-29.4137 Y-32.0049
G01 X-29.4620 Y-32.0264
G01 X-29.5093 Y-32.0501
G01 X-29.5552 Y-32.0762
G01 X-29.5999 Y-32.1044
G01 X-29.6431 Y-32.1349
G01 X-29.6848 Y-32.1674
G01 X-29.7248 Y-32.2019
G01 X-29.7630 Y-32.2383
G01 X-29.7995 Y-32.2766
G01 X-29.8340 Y-32.3166
G01 X-29.8665 Y-32.3583
G01 X-29.8969 Y-32.4015
G01 X-29.9252 Y-32.4461
G01 X-29.9513 Y-32.4921
G01 X-29.9750 Y-32.5393
G01 X-29.9964 Y-32.5876
G01 X-30.0155 Y-32.6369
G01 X-30.0320 Y-32.6871
G01 X-30.0461 Y-32.7381
G01 X-30.0577 Y-32.7896
G01 X-30.0667 Y-32.8417
G01 X-30.0732 Y-32.8941
G01 X-30.0771 Y-32.9468
G01 X-30.0784 Y-32.9997
G01 X-30.0771 Y-33.0525
G01 X-30.0732 Y-33.1052
G01 X-30.0667 Y-33.1577
G01 X-30.0577 Y-33.2097
G01 X-30.0461 Y-33.2613
G01 X-30.0320 Y-33.3122
G01 X-30.0155 Y-33.3624
G01 X-29.9964 Y-33.4117
G01 X-29.9750 Y-33.4600
G01 X-29.9513 Y-33.5072
G01 X-29.9252 Y-33.5532
G01 X-29.8969 Y-33.5979
G01 X-29.8665 Y-33.6411
G01 X-29.8340 Y-33.6827
G01 X-29.7995 Y-33.7227
G01 X-29.7630 Y-33.7610
G01 X-29.7248 Y-33.7975
G01 X-29.6848 Y-33.8320
G01 X-29.6431 Y-33.8645
G01 X-29.5999 Y-33.8949
G01 X-29.5552 Y-33.9232
G01 X-29.5093 Y-33.9492
G01 X-29.4620 Y-33.9730
G01 X-29.4137 Y-33.9944
G01 X-29.3644 Y-34.0134
G01 X-29.3142 Y-34.0300
G01 X-29.2633 Y-34.0441
G01 X-29.2118 Y-34.0557
G01 X-29.1597 Y-34.0647
G01 X-29.1072 Y-34.0712
G01 X-29.0545 Y-34.0751
G01 X-29.0017 Y-34.0764
G01 X-28.9489 Y-34.0751
G01 X-28.8962 Y-34.0712
G01 X-28.8437 Y-34.0647
G01 X-28.7916 Y-34.0557
G01 X-28.7401 Y-34.0441
G01 X-28.6892 Y-34.0300
G01 X-28.6390 Y-34.0134
G01 X-28.5897 Y-33.9944
G01 X-28.5414 Y-33.9730
G01 X-28.4941 Y-33.9492
G01 X-28.4482 Y-33.9232
G01 X-28.4035 Y-33.8949
G01 X-28.3603 Y-33.8645
G01 X-28.3186 Y-33.8320
G01 X-28.2786 Y-33.7975
G01 X-28.2404 Y-33.7610
G01 X-28.2039 Y-33.7227
G01 X-28.1694 Y-33.6827
G01 X-28.1369 Y-33.6411
G01 X-28.1065 Y-33.5979
G01 X-28.0782 Y-33.5532
G01 X-28.0521 Y-33.5072
G01 X-28.0284 Y-33.4600
G01 X-28.0070 Y-33.4117
G01 X-27.9879 Y-33.3624
G01 X-27.9714 Y-33.3122
G01 X-27.9573 Y-33.2613
G01 X-27.9457 Y-33.2097
G01 X-27.9367 Y-33.1577
G01 X-27.9302 Y-33.1052
G01 X-27.9263 Y-33.0525
G01 X-27.9250 Y-32.9989
G00 Z2.0000
G00 X-27.5321 Y-33.5097
G01 F30.00
G01 Z-0.0400
G01 F30.00
G01 X-27.5544 Y-33.4986
G01 X-27.5697 Y-33.4919
G01 X-27.5852 Y-33.4859
G01 X-27.6089 Y-33.4779
G01 X-27.6290 Y-33.4724
G01 X-27.6534 Y-33.4671
G01 X-27.6698 Y-33.4643
G01 X-27.6864 Y-33.4622
G01 X-27.7113 Y-33.4602
G01 X-27.7321 Y-33.4598
G01 X-27.7571 Y-33.4605
G01 X-27.7737 Y-33.4618
G01 X-27.7903 Y-33.4639
G01 X-27.8149 Y-33.4680
G01 X-27.8352 Y-33.4726
G01 X-27.8553 Y-33.4782
G01 X-27.8790 Y-33.4862
G01 X-27.8945 Y-33.4923
G01 X-27.9097 Y-33.4990
G01 X-27.9313 Y-33.5097
G01 X-27.9062 Y-33.4534
G01 X-27.8853 Y-33.3991
G01 X-27.8670 Y-33.3439
G01 X-27.8506 Y-33.2837
G01 X-27.8388 Y-33.2310
G01 X-27.8295 Y-33.1778
G01 X-27.8222 Y-33.1200
G01 X-27.8174 Y-33.0579
G01 X-27.8160 Y-32.9976
G01 X-27.8174 Y-32.9415
G01 X-27.8222 Y-32.8793
G01 X-27.8295 Y-32.8216
G01 X-27.8388 Y-32.7684
G01 X-27.8506 Y-32.7156
G01 X-27.8670 Y-32.6555
G01 X-27.8853 Y-32.6002
G01 X-27.9062 Y-32.5459
G01 X-27.9281 Y-32.4965
G01 X-27.9331 Y-32.4862
G01 X-27.9131 Y-32.4963
G01 X-27.8902 Y-32.5063
G01 X-27.8747 Y-32.5122
G01 X-27.8590 Y-32.5175
G01 X-27.8350 Y-32.5243
G01 X-27.8147 Y-32.5289
G01 X-27.7901 Y-32.5330
G01 X-27.7736 Y-32.5350
G01 X-27.7570 Y-32.5363
G01 X-27.7321 Y-32.5371
G01 X-27.7114 Y-32.5366
G01 X-27.6865 Y-32.5346
G01 X-27.6700 Y-32.5325
G01 X-27.6536 Y-32.5298
G01 X-27.6292 Y-32.5245
G01 X-27.6053 Y-32.5177
G01 X-27.5895 Y-32.5125
G01 X-27.5740 Y-32.5066
G01 X-27.5511 Y-32.4967
G01 X-27.5303 Y-32.4861
G01 X-27.5353 Y-32.4965
G01 X-27.5572 Y-32.5459
G01 X-27.5781 Y-32.6002
G01 X-27.5964 Y-32.6555
G01 X-27.6128 Y-32.7156
G01 X-27.6246 Y-32.7684
G01 X-27.6339 Y-32.8216
G01 X-27.6412 Y-32.8793
G01 X-27.6460 Y-32.9415
G01 X-27.6474 Y-32.9997
G01 X-27.6460 Y-33.0579
G01 X-27.6412 Y-33.1200
G01 X-27.6346 Y-33.1737
G01 X-27.6254 Y-33.2269
G01 X-27.6128 Y-33.2837
G01 X-27.5964 Y-33.3439
G01 X-27.5781 Y-33.3991
G01 X-27.5572 Y-33.4534
G01 X-27.5321 Y-33.5097
G00 Z2.0000
G00 X-26.9034 Y-34.0998
G01 F30.00
G01 Z-0.0400
G01 F30.00
G01 X-26.9161 Y-34.0998
G01 X-26.9249 Y-34.0910
G01 X-26.9155 Y-34.0951
G01 X-26.9034 Y-34.0998
G00 Z2.0000
G00 X-25.9949 Y-34.0894
G01 F30.00
G01 Z-0.0400
G01 F30.00
G01 X-26.0053 Y-34.0998
G01 X-26.0200 Y-34.0998
G01 X-26.0079 Y-34.0951
G01 X-25.9949 Y-34.0894
G00 Z2.0000
G00 X-24.9921 Y-33.5097
G01 F30.00
G01 Z-0.0400
G01 F30.00
G01 X-25.0144 Y-33.4986
G01 X-25.0297 Y-33.4919
G01 X-25.0452 Y-33.4859
G01 X-25.0689 Y-33.4779
G01 X-25.0890 Y-33.4724
G01 X-25.1134 Y-33.4671
G01 X-25.1298 Y-33.4643
G01 X-25.1464 Y-33.4622
G01 X-25.1713 Y-33.4602
G01 X-25.1921 Y-33.4598
G01 X-25.2171 Y-33.4605
G01 X-25.2337 Y-33.4618
G01 X-25.2503 Y-33.4639
G01 X-25.2749 Y-33.4680
G01 X-25.2952 Y-33.4726
G01 X-25.3153 Y-33.4782
G01 X-25.3390 Y-33.4862
G01 X-25.3545 Y-33.4923
G01 X-25.3697 Y-33.4990
G01 X-25.3913 Y-33.5097
G01 X-25.3662 Y-33.4534
G01 X-25.3453 Y-33.3991
G01 X-25.3270 Y-33.3439
G01 X-25.3106 Y-33.2837
G01 X-25.2988 Y-33.2310
G01 X-25.2895 Y-33.1778
G01 X-25.2822 Y-33.1200
G01 X-25.2774 Y-33.0579
G01 X-25.2760 Y-32.9976
G01 X-25.2774 Y-32.9415
G01 X-25.2822 Y-32.8793
G01 X-25.2895 Y-32.8216
G01 X-25.2988 Y-32.7684
G01 X-25.3106 Y-32.7156
G01 X-25.3270 Y-32.6555
G01 X-25.3453 Y-32.6002
G01 X-25.3662 Y-32.5459
G01 X-25.3881 Y-32.4965
G01 X-25.3931 Y-32.4862
G01 X-25.3731 Y-32.4963
G01 X-25.3502 Y-32.5063
G01 X-25.3347 Y-32.5122
G01 X-25.3190 Y-32.5175
G01 X-25.2950 Y-32.5243
G01 X-25.2747 Y-32.5289
G01 X-25.2501 Y-32.5330
G01 X-25.2336 Y-32.5350
G01 X-25.2170 Y-32.5363
G01 X-25.1921 Y-32.5371
G01 X-25.1714 Y-32.5366
G01 X-25.1465 Y-32.5346
G01 X-25.1300 Y-32.5325
G01 X-25.1136 Y-32.5298
G01 X-25.0892 Y-32.5245
G01 X-25.0653 Y-32.5177
G01 X-25.0495 Y-32.5125
G01 X-25.0340 Y-32.5066
G01 X-25.0111 Y-32.4967
G01 X-24.9903 Y-32.4861
G01 X-24.9953 Y-32.4965
G01 X-25.0172 Y-32.5459
G01 X-25.0381 Y-32.6002
G01 X-25.0564 Y-32.6555
G01 X-25.0728 Y-32.7156
G01 X-25.0846 Y-32.7684
G01 X-25.0939 Y-32.8216
G01 X-25.1012 Y-32.8793
G01 X-25.1060 Y-32.9415
G01 X-25.1074 Y-32.9997
G01 X-25.1060 Y-33.0579
G01 X-25.1012 Y-33.1200
G01 X-25.0939 Y-33.1778
G01 X-25.0846 Y-33.2310
G01 X-25.0728 Y-33.2837
G01 X-25.0564 Y-33.3439
G01 X-25.0381 Y-33.3991
G01 X-25.0172 Y-33.4534
G01 X-24.9921 Y-33.5097
G00 Z2.0000
G00 X-25.3850 Y-32.9989
G01 F30.00
G01 Z-0.0400
G01 F30.00
G01 X-25.3863 Y-32.9468
G01 X-25.3902 Y-32.8941
G01 X-25.3967 Y-32.8417
G01 X-25.4057 Y-32.7896
G01 X-25.4173 Y-32.7381
G01 X-25.4314 Y-32.6871
G01 X-25.4479 Y-32.6369
G01 X-25.4670 Y-32.5876
G01 X-25.4884 Y-32.5393
G01 X-25.5121 Y-32.4921
G01 X-25.5382 Y-32.4461
G01 X-25.5665 Y-32.4015
G01 X-25.5969 Y-32.3583
G01 X-25.6294 Y-32.3166
G01 X-25.6639 Y-32.2766
G01 X-25.7004 Y-32.2383
G01 X-25.7386 Y-32.2019
G01 X-25.7786 Y-32.1674
G01 X-25.8203 Y-32.1349
G01 X-25.8635 Y-32.1044
G01 X-25.9082 Y-32.0762
G01 X-25.9541 Y-32.0501
G01 X-26.0014 Y-32.0264
G01 X-26.0497 Y-32.0049
G01 X-26.0990 Y-31.9859
G01 X-26.1492 Y-31.9693
G01 X-26.2001 Y-31.9552
G01 X-26.2516 Y-31.9437
G01 X-26.3037 Y-31.9346
G01 X-26.3562 Y-31.9282
G01 X-26.4089 Y-31.9243
G01 X-26.4617 Y-31.9230
G01 X-26.5145 Y-31.9243
G01 X-26.5672 Y-31.9282
G01 X-26.6197 Y-31.9346
G01 X-26.6718 Y-31.9437
G01 X-26.7233 Y-31.9552
G01 X-26.7742 Y-31.9693
G01 X-26.8244 Y-31.9859
G01 X-26.8737 Y-32.0049
G01 X-26.9220 Y-32.0264
G01 X-26.9693 Y-32.0501
G01 X-27.0152 Y-32.0762
G01 X-27.0599 Y-32.1044
G01 X-27.1031 Y-32.1349
G01 X-27.1448 Y-32.1674
G01 X-27.1848 Y-32.2019
G01 X-27.2230 Y-32.2383
G01 X-27.2595 Y-32.2766
G01 X-27.2940 Y-32.3166
G01 X-27.3265 Y-32.3583
G01 X-27.3569 Y-32.4015
G01 X-27.3852 Y-32.4461
G01 X-27.4113 Y-32.4921
G01 X-27.4350 Y-32.5393
G01 X-27.4564 Y-32.5876
G01 X-27.4755 Y-32.6369
G01 X-27.4920 Y-32.6871
G01 X-27.5061 Y-32.7381
G01 X-27.5177 Y-32.7896
G01 X-27.5267 Y-32.8417
G01 X-27.5332 Y-32.8941
G01 X-27.5371 Y-32.9468
G01 X-27.5384 Y-32.9997
G01 X-27.5371 Y-33.0525
G01 X-27.5332 Y-33.1052
G01 X-27.5267 Y-33.1577
G01 X-27.5177 Y-33.2097
G01 X-27.5061 Y-33.2613
G01 X-27.4920 Y-33.3122
G01 X-27.4755 Y-33.3624
G01 X-27.4564 Y-33.4117
G01 X-27.4350 Y-33.4600
G01 X-27.4113 Y-33.5072
G01 X-27.3852 Y-33.5532
G01 X-27.3569 Y-33.5979
G01 X-27.3265 Y-33.6411
G01 X-27.2940 Y-33.6827
G01 X-27.2595 Y-33.7227
G01 X-27.2230 Y-33.7610
G01 X-27.1848 Y-33.7975
G01 X-27.1448 Y-33.8320
G01 X-27.1031 Y-33.8645
G01 X-27.0599 Y-33.8949
G01 X-27.0152 Y-33.9232
G01 X-26.9693 Y-33.9492
G01 X-26.9220 Y-33.9730
G01 X-26.8737 Y-33.9944
G01 X-26.8244 Y-34.0134
G01 X-26.7742 Y-34.0300
G01 X-26.7233 Y-34.0441
G01 X-26.6718 Y-34.0557
G01 X-26.6197 Y-34.0647
G01 X-26.5672 Y-34.0712
G01 X-26.5145 Y-34.0751
G01 X-26.4617 Y-34.0764
G01 X-26.4089 Y-34.0751
G01 X-26.3562 Y-34.0712
G01 X-26.3037 Y-34.0647
G01 X-26.2516 Y-34.0557
G01 X-26.2001 Y-34.0441
G01 X-26.1492 Y-34.0300
G01 X-26.0990 Y-34.0134
G01 X-26.0497 Y-33.9944
G01 X-26.0014 Y-33.9730
G01 X-25.9541 Y-33.9492
G01 X-25.9082 Y-33.9232
G01 X-25.8635 Y-33.8949
G01 X-25.8203 Y-33.8645
G01 X-25.7786 Y-33.8320
G01 X-25.7386 Y-33.7975
G01 X-25.7004 Y-33.7610
G01 X-25.6639 Y-33.7227
G01 X-25.6294 Y-33.6827
G01 X-25.5969 Y-33.6411
G01 X-25.5665 Y-33.5979
G01 X-25.5382 Y-33.5532
G01 X-25.5121 Y-33.5072
G01 X-25.4884 Y-33.4600
G01 X-25.4670 Y-33.4117
G01 X-25.4479 Y-33.3624
G01 X-25.4314 Y-33.3122
G01 X-25.4173 Y-33.2613
G01 X-25.4057 Y-33.2097
G01 X-25.3967 Y-33.1577
G01 X-25.3902 Y-33.1052
G01 X-25.3863 Y-33.0525
G01 X-25.3850 Y-32.9989
G00 Z2.0000
G00 X-26.0200 Y-31.8995
G01 F30.00
G01 Z-0.0400
G01 F30.00
G01 X-26.0048 Y-31.8995
G01 X-25.9940 Y-31.9104
G01 X-26.0079 Y-31.9042
G01 X-26.0200 Y-31.8995
G00 Z2.0000
G00 X-26.9258 Y-31.9088
G01 F30.00
G01 Z-0.0400
G01 F30.00
G01 X-26.9166 Y-31.8995
G01 X-26.9034 Y-31.8995
G01 X-26.9155 Y-31.9042
G01 X-26.9258 Y-31.9088
G00 Z2.0000
G00 X-24.3858 Y-31.9088
G01 F30.00
G01 Z-0.0400
G01 F30.00
G01 X-24.3766 Y-31.8995
G01 X-24.3634 Y-31.8995
G01 X-24.3755 Y-31.9042
G01 X-24.3858 Y-31.9088
G00 Z2.0000
G00 X-23.4800 Y-31.8995
G01 F30.00
G01 Z-0.0400
G01 F30.00
G01 X-23.4648 Y-31.8995
G01 X-23.4540 Y-31.9104
G01 X-23.4679 Y-31.9042
G01 X-23.4800 Y-31.8995
G00 Z2.0000
G00 X-22.8450 Y-32.9989
G01 F30.00
G01 Z-0.0400
G01 F30.00
G01 X-22.8463 Y-32.9468
G01 X-22.8502 Y-32.8941
G01 X-22.8567 Y-32.8417
G01 X-22.8657 Y-32.7896
G01 X-22.8773 Y-32.7381
G01 X-22.8914 Y-32.6871
G01 X-22.9079 Y-32.6369
G01 X-22.9270 Y-32.5876
G01 X-22.9484 Y-32.5393
G01 X-22.9721 Y-32.4921
G01 X-22.9982 Y-32.4461
G01 X-23.0265 Y-32.4015
G01 X-23.0569 Y-32.3583
G01 X-23.0894 Y-32.3166
G01 X-23.1239 Y-32.2766
G01 X-23.1604 Y-32.2383
G01 X-23.1986 Y-32.2019
G01 X-23.2386 Y-32.1674
G01 X-23.2803 Y-32.1349
G01 X-23.3235 Y-32.1044
G01 X-23.3682 Y-32.0762
G01 X-23.4141 Y-32.0501
G01 X-23.4614 Y-32.0264
G01 X-23.5097 Y-32.0049
G01 X-23.5590 Y-31.9859
G01 X-23.6092 Y-31.9693
G01 X-23.6601 Y-31.9552
G01 X-23.7116 Y-31.9437
G01 X-23.7637 Y-31.9346
G01 X-23.8162 Y-31.9282
G01 X-23.8689 Y-31.9243
G01 X-23.9217 Y-31.9230
G01 X-23.9745 Y-31.9243
G01 X-24.0272 Y-31.9282
G01 X-24.0797 Y-31.9346
G01 X-24.1318 Y-31.9437
G01 X-24.1833 Y-31.9552
G01 X-24.2342 Y-31.9693
G01 X-24.2844 Y-31.9859
G01 X-24.3337 Y-32.0049
G01 X-24.3820 Y-32.0264
G01 X-24.4293 Y-32.0501
G01 X-24.4752 Y-32.0762
G01 X-24.5199 Y-32.1044
G01 X-24.5631 Y-32.1349
G01 X-24.6048 Y-32.1674
G01 X-24.6448 Y-32.2019
G01 X-24.6830 Y-32.2383
G01 X-24.7195 Y-32.2766
G01 X-24.7540 Y-32.3166
G01 X-24.7865 Y-32.3583
G01 X-24.8169 Y-32.4015
G01 X-24.8452 Y-32.4461
G01 X-24.8713 Y-32.4921
G01 X-24.8950 Y-32.5393
G01 X-24.9164 Y-32.5876
G01 X-24.9355 Y-32.6369
G01 X-24.9520 Y-32.6871
G01 X-24.9661 Y-32.7381
G01 X-24.9777 Y-32.7896
G01 X-24.9867 Y-32.8417
G01 X-24.9932 Y-32.8941
G01 X-24.9971 Y-32.9468
G01 X-24.9984 Y-32.9997
G01 X-24.9971 Y-33.0525
G01 X-24.9932 Y-33.1052
G01 X-24.9867 Y-33.1577
G01 X-24.9777 Y-33.2097
G01 X-24.9661 Y-33.2613
G01 X-24.9520 Y-33.3122
G01 X-24.9355 Y-33.3624
G01 X-24.9164 Y-33.4117
G01 X-24.8950 Y-33.4600
G01 X-24.8713 Y-33.5072
G01 X-24.8452 Y-33.5532
G01 X-24.8169 Y-33.5979
G01 X-24.7865 Y-33.6411
G01 X-24.7540 Y-33.6827
G01 X-24.7195 Y-33.7227
G01 X-24.6830 Y-33.7610
G01 X-24.6448 Y-33.7975
G01 X-24.6048 Y-33.8320
G01 X-24.5631 Y-33.8645
G01 X-24.5199 Y-33.8949
G01 X-24.4752 Y-33.9232
G01 X-24.4293 Y-33.9492
G01 X-24.3820 Y-33.9730
G01 X-24.3337 Y-33.9944
G01 X-24.2844 Y-34.0134
G01 X-24.2342 Y-34.0300
G01 X-24.1833 Y-34.0441
G01 X-24.1318 Y-34.0557
G01 X-24.0797 Y-34.0647
G01 X-24.0272 Y-34.0712
G01 X-23.9745 Y-34.0751
G01 X-23.9217 Y-34.0764
G01 X-23.8689 Y-34.0751
G01 X-23.8162 Y-34.0712
G01 X-23.7637 Y-34.0647
G01 X-23.7116 Y-34.0557
G01 X-23.6601 Y-34.0441
G01 X-23.6092 Y-34.0300
G01 X-23.5590 Y-34.0134
G01 X-23.5097 Y-33.9944
G01 X-23.4614 Y-33.9730
G01 X-23.4141 Y-33.9492
G01 X-23.3682 Y-33.9232
G01 X-23.3235 Y-33.8949
G01 X-23.2803 Y-33.8645
G01 X-23.2386 Y-33.8320
G01 X-23.1986 Y-33.7975
G01 X-23.1604 Y-33.7610
G01 X-23.1239 Y-33.7227
G01 X-23.0894 Y-33.6827
G01 X-23.0569 Y-33.6411
G01 X-23.0265 Y-33.5979
G01 X-22.9982 Y-33.5532
G01 X-22.9721 Y-33.5072
G01 X-22.9484 Y-33.4600
G01 X-22.9270 Y-33.4117
G01 X-22.9079 Y-33.3624
G01 X-22.8914 Y-33.3122
G01 X-22.8773 Y-33.2613
G01 X-22.8657 Y-33.2097
G01 X-22.8567 Y-33.1577
G01 X-22.8502 Y-33.1052
G01 X-22.8463 Y-33.0525
G01 X-22.8450 Y-32.9989
G00 Z2.0000
G00 X-22.4521 Y-33.5097
G01 F30.00
G01 Z-0.0400
G01 F30.00
G01 X-22.4744 Y-33.4986
G01 X-22.4897 Y-33.4919
G01 X-22.5052 Y-33.4859
G01 X-22.5289 Y-33.4779
G01 X-22.5490 Y-33.4724
G01 X-22.5734 Y-33.4671
G01 X-22.5898 Y-33.4643
G01 X-22.6064 Y-33.4622
G01 X-22.6313 Y-33.4602
G01 X-22.6521 Y-33.4598
G01 X-22.6771 Y-33.4605
G01 X-22.6937 Y-33.4618
G01 X-22.7103 Y-33.4639
G01 X-22.7349 Y-33.4680
G01 X-22.7552 Y-33.4726
G01 X-22.7753 Y-33.4782
G01 X-22.7990 Y-33.4862
G01 X-22.8145 Y-33.4923
G01 X-22.8297 Y-33.4990
G01 X-22.8513 Y-33.5097
G01 X-22.8262 Y-33.4534
G01 X-22.8053 Y-33.3991
G01 X-22.7870 Y-33.3439
G01 X-22.7706 Y-33.2837
G01 X-22.7588 Y-33.2310
G01 X-22.7495 Y-33.1778
G01 X-22.7422 Y-33.1200
G01 X-22.7374 Y-33.0579
G01 X-22.7360 Y-32.9976
G01 X-22.7374 Y-32.9415
G01 X-22.7422 Y-32.8793
G01 X-22.7495 Y-32.8216
G01 X-22.7588 Y-32.7684
G01 X-22.7706 Y-32.7156
G01 X-22.7870 Y-32.6555
G01 X-22.8053 Y-32.6002
G01 X-22.8262 Y-32.5459
G01 X-22.8481 Y-32.4965
G01 X-22.8531 Y-32.4862
G01 X-22.8331 Y-32.4963
G01 X-22.8102 Y-32.5063
G01 X-22.7947 Y-32.5122
G01 X-22.7790 Y-32.5175
G01 X-22.7550 Y-32.5243
G01 X-22.7347 Y-32.5289
G01 X-22.7101 Y-32.5330
G01 X-22.6936 Y-32.5350
G01 X-22.6770 Y-32.5363
G01 X-22.6521 Y-32.5371
G01 X-22.6314 Y-32.5366
G01 X-22.6065 Y-32.5346
G01 X-22.5900 Y-32.5325
G01 X-22.5736 Y-32.5298
G01 X-22.5492 Y-32.5245
G01 X-22.5253 Y-32.5177
G01 X-22.5095 Y-32.5125
G01 X-22.4940 Y-32.5066
G01 X-22.4711 Y-32.4967
G01 X-22.4503 Y-32.4861
G01 X-22.4553 Y-32.4965
G01 X-22.4772 Y-32.5459
G01 X-22.4981 Y-32.6002
G01 X-22.5164 Y-32.6555
G01 X-22.5328 Y-32.7156
G01 X-22.5446 Y-32.7684
G01 X-22.5539 Y-32.8216
G01 X-22.5612 Y-32.8793
G01 X-22.5660 Y-32.9415
G01 X-22.5674 Y-32.9997
G01 X-22.5660 Y-33.0579
G01 X-22.5612 Y-33.1200
G01 X-22.5546 Y-33.1737
G01 X-22.5454 Y-33.2269
G01 X-22.5328 Y-33.2837
G01 X-22.5164 Y-33.3439
G01 X-22.4981 Y-33.3991
G01 X-22.4772 Y-33.4534
G01 X-22.4521 Y-33.5097
G00 Z2.0000
G00 X-21.8234 Y-34.0998
G01 F30.00
G01 Z-0.0400
G01 F30.00
G01 X-21.8361 Y-34.0998
G01 X-21.8449 Y-34.0910
G01 X-21.8355 Y-34.0951
G01 X-21.8234 Y-34.0998
G00 Z2.0000
G00 X-20.9149 Y-34.0894
G01 F30.00
G01 Z-0.0400
G01 F30.00
G01 X-20.9253 Y-34.0998
G01 X-20.9400 Y-34.0998
G01 X-20.9279 Y-34.0951
G01 X-20.9149 Y-34.0894
G00 Z2.0000
G00 X-19.9121 Y-33.5097
G01 F30.00
G01 Z-0.0400
G01 F30.00
G01 X-19.9344 Y-33.4986
G01 X-19.9497 Y-33.4919
G01 X-19.9652 Y-33.4859
G01 X-19.9889 Y-33.4779
G01 X-20.0090 Y-33.4724
G01 X-20.0334 Y-33.4671
G01 X-20.0498 Y-33.4643
G01 X-20.0664 Y-33.4622
G01 X-20.0913 Y-33.4602
G01 X-20.1121 Y-33.4598
G01 X-20.1371 Y-33.4605
G01 X-20.1537 Y-33.4618
G01 X-20.1703 Y-33.4639
G01 X-20.1949 Y-33.4680
G01 X-20.2152 Y-33.4726
G01 X-20.2353 Y-33.4782
G01 X-20.2590 Y-33.4862
G01 X-20.2745 Y-33.4923
G01 X-20.2897 Y-33.4990
G01 X-20.3113 Y-33.5097
G01 X-20.2862 Y-33.4534
G01 X-20.2653 Y-33.3991
G01 X-20.2470 Y-33.3439
G01 X-20.2306 Y-33.2837
G01 X-20.2180 Y-33.2269
G01 X-20.2088 Y-33.1737
G01 X-20.2022 Y-33.1200
G01 X-20.1974 Y-33.0579
G01 X-20.1960 Y-32.9976
G01 X-20.1974 Y-32.9415
G01 X-20.2022 Y-32.8793
G01 X-20.2088 Y-32.8257
G01 X-20.2180 Y-32.7725
G01 X-20.2306 Y-32.7156
G01 X-20.2470 Y-32.6555
G01 X-20.2653 Y-32.6002
G01 X-20.2862 Y-32.5459
G01 X-20.3081 Y-32.4965
G01 X-20.3131 Y-32.4862
G01 X-20.2931 Y-32.4963
G01 X-20.2702 Y-32.5063
G01 X-20.2547 Y-32.5122
G01 X-20.2390 Y-32.5175
G01 X-20.2150 Y-32.5243
G01 X-20.1947 Y-32.5289
G01 X-20.1701 Y-32.5330
G01 X-20.1536 Y-32.5350
G01 X-20.1370 Y-32.5363
G01 X-20.1121 Y-32.5371
G01 X-20.0914 Y-32.5366
G01 X-20.0665 Y-32.5346
G01 X-20.0500 Y-32.5325
G01 X-20.0336 Y-32.5298
G01 X-20.0092 Y-32.5245
G01 X-19.9853 Y-32.5177
G01 X-19.9695 Y-32.5125
G01 X-19.9540 Y-32.5066
G01 X-19.9311 Y-32.4967
G01 X-19.9103 Y-32.4861
G01 X-19.9153 Y-32.4965
G01 X-19.9372 Y-32.5459
G01 X-19.9581 Y-32.6002
G01 X-19.9764 Y-32.6555
G01 X-19.9928 Y-32.7156
G01 X-20.0046 Y-32.7684
G01 X-20.0139 Y-32.8216
G01 X-20.0212 Y-32.8793
G01 X-20.0260 Y-32.9415
G01 X-20.0274 Y-32.9997
G01 X-20.0260 Y-33.0579
G01 X-20.0212 Y-33.1200
G01 X-20.0139 Y-33.1778
G01 X-20.0046 Y-33.2310
G01 X-19.9928 Y-33.2837
G01 X-19.9764 Y-33.3439
G01 X-19.9581 Y-33.3991
G01 X-19.9372 Y-33.4534
G01 X-19.9121 Y-33.5097
G00 Z2.0000
G00 X-20.3050 Y-32.9989
G01 F30.00
G01 Z-0.0400
G01 F30.00
G01 X-20.3063 Y-32.9468
G01 X-20.3102 Y-32.8941
G01 X-20.3167 Y-32.8417
G01 X-20.3257 Y-32.7896
G01 X-20.3373 Y-32.7381
G01 X-20.3514 Y-32.6871
G01 X-20.3679 Y-32.6369
G01 X-20.3870 Y-32.5876
G01 X-20.4084 Y-32.5393
G01 X-20.4321 Y-32.4921
G01 X-20.4582 Y-32.4461
G01 X-20.4865 Y-32.4015
G01 X-20.5169 Y-32.3583
G01 X-20.5494 Y-32.3166
G01 X-20.5839 Y-32.2766
G01 X-20.6204 Y-32.2383
G01 X-20.6586 Y-32.2019
G01 X-20.6986 Y-32.1674
G01 X-20.7403 Y-32.1349
G01 X-20.7835 Y-32.1044
G01 X-20.8282 Y-32.0762
G01 X-20.8741 Y-32.0501
G01 X-20.9214 Y-32.0264
G01 X-20.9697 Y-32.0049
G01 X-21.0190 Y-31.9859
G01 X-21.0692 Y-31.9693
G01 X-21.1201 Y-31.9552
G01 X-21.1716 Y-31.9437
G01 X-21.2237 Y-31.9346
G01 X-21.2762 Y-31.9282
G01 X-21.3289 Y-31.9243
G01 X-21.3817 Y-31.9230
G01 X-21.4345 Y-31.9243
G01 X-21.4872 Y-31.9282
G01 X-21.5397 Y-31.9346
G01 X-21.5918 Y-31.9437
G01 X-21.6433 Y-31.9552
G01 X-21.6942 Y-31.9693
G01 X-21.7444 Y-31.9859
G01 X-21.7937 Y-32.0049
G01 X-21.8420 Y-32.0264
G01 X-21.8893 Y-32.0501
G01 X-21.9352 Y-32.0762
G01 X-21.9799 Y-32.1044
G01 X-22.0231 Y-32.1349
G01 X-22.0648 Y-32.1674
G01 X-22.1048 Y-32.2019
G01 X-22.1430 Y-32.2383
G01 X-22.1795 Y-32.2766
G01 X-22.2140 Y-32.3166
G01 X-22.2465 Y-32.3583
G01 X-22.2769 Y-32.4015
G01 X-22.3052 Y-32.4461
G01 X-22.3313 Y-32.4921
G01 X-22.3550 Y-32.5393
G01 X-22.3764 Y-32.5876
G01 X-22.3955 Y-32.6369
G01 X-22.4120 Y-32.6871
G01 X-22.4261 Y-32.7381
G01 X-22.4377 Y-32.7896
G01 X-22.4467 Y-32.8417
G01 X-22.4532 Y-32.8941
G01 X-22.4571 Y-32.9468
G01 X-22.4584 Y-32.9997
G01 X-22.4571 Y-33.0525
G01 X-22.4532 Y-33.1052
G01 X-22.4467 Y-33.1577
G01 X-22.4377 Y-33.2097
G01 X-22.4261 Y-33.2613
G01 X-22.4120 Y-33.3122
G01 X-22.3955 Y-33.3624
G01 X-22.3764 Y-33.4117
G01 X-22.3550 Y-33.4600
G01 X-22.3313 Y-33.5072
G01 X-22.3052 Y-33.5532
G01 X-22.2769 Y-33.5979
G01 X-22.2465 Y-33.6411
G01 X-22.2140 Y-33.6827
G01 X-22.1795 Y-33.7227
G01 X-22.1430 Y-33.7610
G01 X-22.1048 Y-33.7975
G01 X-22.0648 Y-33.8320
G01 X-22.0231 Y-33.8645
G01 X-21.9799 Y-33.8949
G01 X-21.9352 Y-33.9232
G01 X-21.8893 Y-33.9492
G01 X-21.8420 Y-33.9730
G01 X-21.7937 Y-33.9944
G01 X-21.7444 Y-34.0134
G01 X-21.6942 Y-34.0300
G01 X-21.6433 Y-34.0441
G01 X-21.5918 Y-34.0557
G01 X-21.5397 Y-34.0647
G01 X-21.4872 Y-34.0712
G01 X-21.4345 Y-34.0751
G01 X-21.3817 Y-34.0764
G01 X-21.3289 Y-34.0751
G01 X-21.2762 Y-34.0712
G01 X-21.2237 Y-34.0647
G01 X-21.1716 Y-34.0557
G01 X-21.1201 Y-34.0441
G01 X-21.0692 Y-34.0300
G01 X-21.0190 Y-34.0134
G01 X-20.9697 Y-33.9944
G01 X-20.9214 Y-33.9730
G01 X-20.8741 Y-33.9492
G01 X-20.8282 Y-33.9232
G01 X-20.7835 Y-33.8949
G01 X-20.7403 Y-33.8645
G01 X-20.6986 Y-33.8320
G01 X-20.6586 Y-33.7975
G01 X-20.6204 Y-33.7610
G01 X-20.5839 Y-33.7227
G01 X-20.5494 Y-33.6827
G01 X-20.5169 Y-33.6411
G01 X-20.4865 Y-33.5979
G01 X-20.4582 Y-33.5532
G01 X-20.4321 Y-33.5072
G01 X-20.4084 Y-33.4600
G01 X-20.3870 Y-33.4117
G01 X-20.3679 Y-33.3624
G01 X-20.3514 Y-33.3122
G01 X-20.3373 Y-33.2613
G01 X-20.3257 Y-33.2097
G01 X-20.3167 Y-33.1577
G01 X-20.3102 Y-33.1052
G01 X-20.3063 Y-33.0525
G01 X-20.3050 Y-32.9989
G00 Z2.0000
G00 X-20.9400 Y-31.8995
G01 F30.00
G01 Z-0.0400
G01 F30.00
G01 X-20.9248 Y-31.8995
G01 X-20.9140 Y-31.9104
G01 X-20.9279 Y-31.9042
G01 X-20.9400 Y-31.8995
G00 Z2.0000
G00 X-21.8458 Y-31.9088
G01 F30.00
G01 Z-0.0400
G01 F30.00
G01 X-21.8366 Y-31.8995
G01 X-21.8234 Y-31.8995
G01 X-21.8355 Y-31.9042
G01 X-21.8458 Y-31.9088
G00 Z2.0000
G00 X-19.3058 Y-31.9088
G01 F30.00
G01 Z-0.0400
G01 F30.00
G01 X-19.2966 Y-31.8995
G01 X-19.2834 Y-31.8995
G01 X-19.2955 Y-31.9042
G01 X-19.3058 Y-31.9088
G00 Z2.0000
G00 X-18.4000 Y-31.8995
G01 F30.00
G01 Z-0.0400
G01 F30.00
G01 X-18.3848 Y-31.8995
G01 X-18.3740 Y-31.9104
G01 X-18.3879 Y-31.9042
G01 X-18.4000 Y-31.8995
G00 Z2.0000
G00 X-17.7650 Y-32.9989
G01 F30.00
G01 Z-0.0400
G01 F30.00
G01 X-17.7663 Y-32.9468
G01 X-17.7702 Y-32.8941
G01 X-17.7767 Y-32.8417
G01 X-17.7857 Y-32.7896
G01 X-17.7973 Y-32.7381
G01 X-17.8114 Y-32.6871
G01 X-17.8279 Y-32.6369
G01 X-17.8470 Y-32.5876
G01 X-17.8684 Y-32.5393
G01 X-17.8921 Y-32.4921
G01 X-17.9182 Y-32.4461
G01 X-17.9465 Y-32.4015
G01 X-17.9769 Y-32.3583
G01 X-18.0094 Y-32.3166
G01 X-18.0439 Y-32.2766
G01 X-18.0804 Y-32.2383
G01 X-18.1186 Y-32.2019
G01 X-18.1586 Y-32.1674
G01 X-18.2003 Y-32.1349
G01 X-18.2435 Y-32.1044
G01 X-18.2882 Y-32.0762
G01 X-18.3341 Y-32.0501
G01 X-18.3814 Y-32.0264
G01 X-18.4297 Y-32.0049
G01 X-18.4790 Y-31.9859
G01 X-18.5292 Y-31.9693
G01 X-18.5801 Y-31.9552
G01 X-18.6316 Y-31.9437
G01 X-18.6837 Y-31.9346
G01 X-18.7362 Y-31.9282
G01 X-18.7889 Y-31.9243
G01 X-18.8417 Y-31.9230
G01 X-18.8945 Y-31.9243
G01 X-18.9472 Y-31.9282
G01 X-18.9997 Y-31.9346
G01 X-19.0518 Y-31.9437
G01 X-19.1033 Y-31.9552
G01 X-19.1542 Y-31.9693
G01 X-19.2044 Y-31.9859
G01 X-19.2537 Y-32.0049
G01 X-19.3020 Y-32.0264
G01 X-19.3493 Y-32.0501
G01 X-19.3952 Y-32.0762
G01 X-19.4399 Y-32.1044
G01 X-19.4831 Y-32.1349
G01 X-19.5248 Y-32.1674
G01 X-19.5648 Y-32.2019
G01 X-19.6030 Y-32.2383
G01 X-19.6395 Y-32.2766
G01 X-19.6740 Y-32.3166
G01 X-19.7065 Y-32.3583
G01 X-19.7369 Y-32.4015
G01 X-19.7652 Y-32.4461
G01 X-19.7913 Y-32.4921
G01 X-19.8150 Y-32.5393
G01 X-19.8364 Y-32.5876
G01 X-19.8555 Y-32.6369
G01 X-19.8720 Y-32.6871
G01 X-19.8861 Y-32.7381
G01 X-19.8977 Y-32.7896
G01 X-19.9067 Y-32.8417
G01 X-19.9132 Y-32.8941
G01 X-19.9171 Y-32.9468
G01 X-19.9184 Y-32.9997
G01 X-19.9171 Y-33.0525
G01 X-19.9132 Y-33.1052
G01 X-19.9067 Y-33.1577
G01 X-19.8977 Y-33.2097
G01 X-19.8861 Y-33.2613
G01 X-19.8720 Y-33.3122
G01 X-19.8555 Y-33.3624
G01 X-19.8364 Y-33.4117
G01 X-19.8150 Y-33.4600
G01 X-19.7913 Y-33.5072
G01 X-19.7652 Y-33.5532
G01 X-19.7369 Y-33.5979
G01 X-19.7065 Y-33.6411
G01 X-19.6740 Y-33.6827
G01 X-19.6395 Y-33.7227
G01 X-19.6030 Y-33.7610
G01 X-19.5648 Y-33.7975
G01 X-19.5248 Y-33.8320
G01 X-19.4831 Y-33.8645
G01 X-19.4399 Y-33.8949
G01 X-19.3952 Y-33.9232
G01 X-19.3493 Y-33.9492
G01 X-19.3020 Y-33.9730
G01 X-19.2537 Y-33.9944
G01 X-19.2044 Y-34.0134
